; generated by PrusaSlicer 2.5.0+win64 on 2022-10-31 at 14:43:56 UTC

; 

; external perimeters extrusion width = 0.60mm
; perimeters extrusion width = 0.43mm
; infill extrusion width = 0.45mm
; solid infill extrusion width = 0.70mm
; top infill extrusion width = 0.45mm
; first layer extrusion width = 0.42mm

M73 P0 R137
M201 X9000 Y9000 Z500 E10000 ; sets maximum accelerations, mm/sec^2
M203 X500 Y500 Z12 E120 ; sets maximum feedrates, mm / sec
M204 P2000 R1500 T2000 ; sets acceleration (P, T) and retract acceleration (R), mm/sec^2
M205 X10.00 Y10.00 Z0.20 E2.50 ; sets the jerk limits, mm/sec
M205 S0 T0 ; sets the minimum extruding and travel feed rate, mm/sec
M107
;TYPE:Custom
M862.3 P "MK2S" ; printer model check
M862.1 P0.4 ; nozzle diameter check
M115 U3.2.3 ; tell printer latest fw version
G90 ; use absolute coordinates
M83 ; extruder relative mode
M204 S2000 T1500 ; MK2 firmware only supports the old M204 format
M104 S215 ; set extruder temp
M140 S60 ; set bed temp
M190 S60 ; wait for bed temp
M109 S215 ; wait for extruder temp
G28 W ; home all without mesh bed level
G80 ; mesh bed leveling
G1 Z0.2 F720
G1 Y-2 F1000 ; go outside print area
G92 E0
G1 X60 E9 F1000 ; intro line
G1 X100 E12.5 F1000 ; intro line
G92 E0
G21 ; set units to millimeters
G90 ; use absolute coordinates
M83 ; use relative distances for extrusion
M900 K0.05 ; Filament gcode LA 1.5
M900 K30 ; Filament gcode LA 1.0
M107
;LAYER_CHANGE
;Z:0.2
;HEIGHT:0.2
;BEFORE_LAYER_CHANGE
G92 E0.0
;0.2


G1 E-.8 F2100
G1 Z.4 F720
;AFTER_LAYER_CHANGE
;0.2
G1 X18.937 Y82.968 F10800
G1 Z.2 F720
G1 E.8 F2100
M204 S800
;TYPE:Skirt/Brim
;WIDTH:0.42
G1 F1200
G1 X19.064 Y82.939 E.00407
G1 X22 Y82.623 E.0926
G1 X210 Y82.623 E5.89461
G1 X211.307 Y83.015 E.04278
G1 X212.183 Y84.06 E.04278
G1 X212.377 Y85 E.03008
G1 X212.377 Y135 E1.56771
G1 X211.985 Y136.307 E.04278
G1 X210.94 Y137.183 E.04278
G1 X210 Y137.377 E.03008
G1 X10 Y137.377 E6.27086
G1 X8.693 Y136.985 E.04278
G1 X7.817 Y135.94 E.04278
G1 X7.623 Y135 E.03008
G1 X7.623 Y97 E1.19146
G1 X7.939 Y94.064 E.0926
G1 X8.945 Y91.008 E.10086
G1 X9.348 Y90.254 E.02683
G1 X10.937 Y87.837 E.09068
G1 X12.837 Y85.937 E.08425
G1 X15.529 Y84.176 E.10086
G1 X18.545 Y83.057 E.10086
G1 X18.878 Y82.981 E.01074
M204 S1000
; printing object brick-laundromat-1.stl id:0 copy 0
;WIPE_START
G1 F8640
G1 X19.064 Y82.939 E-.04384
G1 X22 Y82.623 E-.68193
G1 X22.148 Y82.623 E-.03423
;WIPE_END
G1 E-.04 F2100
G1 Z.6 F720
G1 X209.213 Y134.213 F10800
G1 Z.2 F720
G1 E.8 F2100
M204 S800
;TYPE:Perimeter
;WIDTH:0.419999
G1 F1200
G1 X10.787 Y134.213 E6.22149
G1 X10.787 Y97.044 E1.1654
M73 P0 R136
G1 X11.073 Y94.506 E.08009
G1 X11.902 Y92.137 E.07869
G1 X13.237 Y90.012 E.07869
G1 X15.012 Y88.237 E.07869
G1 X17.137 Y86.902 E.07869
G1 X19.506 Y86.073 E.07869
G1 X22.044 Y85.787 E.08009
G1 X209.213 Y85.787 E5.86853
G1 X209.213 Y134.153 E1.51647
M204 S1000
G1 X209.59 Y134.59 F10800
M204 S800
;TYPE:External perimeter
G1 F1200
G1 X10.41 Y134.59 E6.24514
G1 X10.41 Y97.023 E1.17788
G1 X10.703 Y94.422 E.08208
G1 X11.56 Y91.972 E.08136
G1 X12.941 Y89.775 E.08136
G1 X14.775 Y87.941 E.08136
G1 X16.972 Y86.56 E.08136
G1 X19.422 Y85.703 E.08136
G1 X22.023 Y85.41 E.08208
G1 X209.59 Y85.41 E5.88102
G1 X209.59 Y134.53 E1.54012
M204 S1000
G1 X209.191 Y134.556 F10800
;WIPE_START
M73 P1 R136
G1 F8640
G1 X206.299 Y134.531 E-.76
;WIPE_END
G1 E-.04 F2100
G1 Z.6 F720
G1 X208.337 Y85.9 F10800
G1 Z.2 F720
G1 E.8 F2100
M204 S800
;TYPE:Solid infill
;WIDTH:0.420157
G1 F1200
G1 X208.93 Y86.493 E.0263
G1 X208.93 Y87.027 E.01673
G1 X207.973 Y86.07 E.04244
G1 X207.44 Y86.07 E.01673
G1 X208.93 Y87.56 E.06611
G1 X208.93 Y88.094 E.01673
G1 X206.906 Y86.07 E.08977
G1 X206.373 Y86.07 E.01673
G1 X208.93 Y88.627 E.11344
G1 X208.93 Y89.161 E.01673
G1 X205.839 Y86.07 E.1371
G1 X205.306 Y86.07 E.01673
G1 X208.93 Y89.694 E.16077
G1 X208.93 Y90.228 E.01673
G1 X204.772 Y86.07 E.18444
G1 X204.239 Y86.07 E.01673
G1 X208.93 Y90.761 E.2081
G1 X208.93 Y91.295 E.01673
G1 X203.705 Y86.07 E.23177
G1 X203.172 Y86.07 E.01673
G1 X208.93 Y91.828 E.25543
G1 X208.93 Y92.362 E.01673
G1 X202.638 Y86.07 E.2791
G1 X202.105 Y86.07 E.01673
G1 X208.93 Y92.895 E.30277
G1 X208.93 Y93.429 E.01673
G1 X201.571 Y86.07 E.32643
G1 X201.038 Y86.07 E.01673
G1 X208.93 Y93.962 E.3501
G1 X208.93 Y94.496 E.01673
G1 X200.504 Y86.07 E.37376
G1 X199.971 Y86.07 E.01673
G1 X208.93 Y95.029 E.39743
G1 X208.93 Y95.563 E.01673
G1 X199.437 Y86.07 E.42109
G1 X198.904 Y86.07 E.01673
G1 X208.93 Y96.096 E.44476
G1 X208.93 Y96.629 E.01673
G1 X198.371 Y86.07 E.46843
G1 X197.837 Y86.07 E.01673
G1 X208.93 Y97.163 E.49209
G1 X208.93 Y97.696 E.01673
G1 X197.304 Y86.07 E.51576
G1 X196.77 Y86.07 E.01673
G1 X208.93 Y98.23 E.53942
G1 X208.93 Y98.763 E.01673
G1 X196.237 Y86.07 E.56309
G1 X195.703 Y86.07 E.01673
G1 X208.93 Y99.297 E.58676
G1 X208.93 Y99.83 E.01673
G1 X195.17 Y86.07 E.61042
G1 X194.636 Y86.07 E.01673
G1 X208.93 Y100.364 E.63409
G1 X208.93 Y100.897 E.01673
G1 X194.103 Y86.07 E.65775
G1 X193.569 Y86.07 E.01673
G1 X208.93 Y101.431 E.68142
G1 X208.93 Y101.964 E.01673
G1 X193.036 Y86.07 E.70509
G1 X192.502 Y86.07 E.01673
G1 X208.93 Y102.498 E.72875
G1 X208.93 Y103.031 E.01673
M73 P1 R135
G1 X191.969 Y86.07 E.75242
G1 X191.435 Y86.07 E.01673
G1 X208.93 Y103.565 E.77608
G1 X208.93 Y104.098 E.01673
G1 X190.902 Y86.07 E.79975
G1 X190.368 Y86.07 E.01673
G1 X208.93 Y104.632 E.82341
G1 X208.93 Y105.165 E.01673
G1 X189.835 Y86.07 E.84708
G1 X189.301 Y86.07 E.01673
G1 X208.93 Y105.699 E.87075
G1 X208.93 Y106.232 E.01673
G1 X188.768 Y86.07 E.89441
G1 X188.234 Y86.07 E.01673
G1 X208.93 Y106.766 E.91808
G1 X208.93 Y107.299 E.01673
G1 X187.701 Y86.07 E.94174
G1 X187.167 Y86.07 E.01673
G1 X208.93 Y107.833 E.96541
G1 X208.93 Y108.366 E.01673
G1 X186.634 Y86.07 E.98908
G1 X186.1 Y86.07 E.01673
G1 X208.93 Y108.9 E1.01274
G1 X208.93 Y109.433 E.01673
G1 X185.567 Y86.07 E1.03641
G1 X185.033 Y86.07 E.01673
G1 X208.93 Y109.967 E1.06007
G1 X208.93 Y110.5 E.01673
G1 X184.5 Y86.07 E1.08374
G1 X183.966 Y86.07 E.01673
G1 X208.93 Y111.034 E1.10741
G1 X208.93 Y111.567 E.01673
G1 X183.433 Y86.07 E1.13107
G1 X182.899 Y86.07 E.01673
G1 X208.93 Y112.101 E1.15474
G1 X208.93 Y112.634 E.01673
G1 X182.366 Y86.07 E1.1784
G1 X181.832 Y86.07 E.01673
G1 X208.93 Y113.168 E1.20207
G1 X208.93 Y113.701 E.01673
G1 X181.299 Y86.07 E1.22573
G1 X180.765 Y86.07 E.01673
G1 X208.93 Y114.235 E1.2494
G1 X208.93 Y114.768 E.01673
G1 X180.232 Y86.07 E1.27307
G1 X179.698 Y86.07 E.01673
G1 X208.93 Y115.302 E1.29673
G1 X208.93 Y115.835 E.01673
G1 X179.165 Y86.07 E1.3204
G1 X178.631 Y86.07 E.01673
G1 X208.93 Y116.369 E1.34406
G1 X208.93 Y116.902 E.01673
G1 X178.098 Y86.07 E1.36773
G1 X177.564 Y86.07 E.01673
G1 X208.93 Y117.436 E1.3914
G1 X208.93 Y117.969 E.01673
G1 X177.031 Y86.07 E1.41506
G1 X176.497 Y86.07 E.01673
G1 X208.93 Y118.503 E1.43873
G1 X208.93 Y119.036 E.01673
G1 X175.964 Y86.07 E1.46239
G1 X175.43 Y86.07 E.01673
G1 X208.93 Y119.57 E1.48606
G1 X208.93 Y120.103 E.01673
G1 X174.897 Y86.07 E1.50972
G1 X174.363 Y86.07 E.01673
M73 P1 R134
G1 X208.93 Y120.637 E1.53339
G1 X208.93 Y121.17 E.01673
M73 P2 R134
G1 X173.83 Y86.07 E1.55706
G1 X173.296 Y86.07 E.01673
G1 X208.93 Y121.704 E1.58072
G1 X208.93 Y122.237 E.01673
G1 X172.763 Y86.07 E1.60439
G1 X172.229 Y86.07 E.01673
G1 X208.93 Y122.771 E1.62805
G1 X208.93 Y123.304 E.01673
G1 X171.696 Y86.07 E1.65172
G1 X171.162 Y86.07 E.01673
G1 X208.93 Y123.838 E1.67539
G1 X208.93 Y124.371 E.01673
G1 X170.629 Y86.07 E1.69905
G1 X170.095 Y86.07 E.01673
G1 X208.93 Y124.905 E1.72272
G1 X208.93 Y125.438 E.01673
G1 X169.562 Y86.07 E1.74638
G1 X169.028 Y86.07 E.01673
G1 X208.93 Y125.972 E1.77005
G1 X208.93 Y126.505 E.01673
G1 X168.495 Y86.07 E1.79372
G1 X167.961 Y86.07 E.01673
G1 X208.93 Y127.039 E1.81738
G1 X208.93 Y127.572 E.01673
G1 X167.428 Y86.07 E1.84105
G1 X166.894 Y86.07 E.01673
G1 X208.93 Y128.106 E1.86471
G1 X208.93 Y128.639 E.01673
G1 X166.361 Y86.07 E1.88838
G1 X165.827 Y86.07 E.01673
G1 X208.93 Y129.173 E1.91204
G1 X208.93 Y129.706 E.01673
G1 X165.294 Y86.07 E1.93571
G1 X164.76 Y86.07 E.01673
G1 X208.93 Y130.24 E1.95938
G1 X208.93 Y130.773 E.01673
G1 X164.227 Y86.07 E1.98304
G1 X163.693 Y86.07 E.01673
G1 X208.93 Y131.307 E2.00671
G1 X208.93 Y131.84 E.01673
M73 P2 R133
G1 X163.16 Y86.07 E2.03037
G1 X162.626 Y86.07 E.01673
G1 X208.93 Y132.374 E2.05404
G1 X208.93 Y132.907 E.01673
G1 X162.093 Y86.07 E2.07771
G1 X161.559 Y86.07 E.01673
G1 X208.93 Y133.441 E2.10137
G1 X208.93 Y133.93 E.01536
G1 X208.886 Y133.93 E.00138
G1 X161.026 Y86.07 E2.12309
G1 X160.492 Y86.07 E.01673
G1 X208.353 Y133.93 E2.12309
G1 X207.819 Y133.93 E.01673
G1 X159.959 Y86.07 E2.12309
G1 X159.425 Y86.07 E.01673
G1 X207.286 Y133.93 E2.12309
G1 X206.752 Y133.93 E.01673
M73 P3 R133
G1 X158.892 Y86.07 E2.12309
G1 X158.358 Y86.07 E.01673
G1 X206.219 Y133.93 E2.12309
G1 X205.685 Y133.93 E.01673
G1 X157.825 Y86.07 E2.12309
G1 X157.291 Y86.07 E.01673
G1 X205.152 Y133.93 E2.12309
G1 X204.618 Y133.93 E.01673
G1 X156.758 Y86.07 E2.12309
G1 X156.225 Y86.07 E.01673
G1 X204.085 Y133.93 E2.12309
G1 X203.551 Y133.93 E.01673
G1 X155.691 Y86.07 E2.12309
G1 X155.158 Y86.07 E.01673
G1 X203.018 Y133.93 E2.12309
G1 X202.484 Y133.93 E.01673
G1 X154.624 Y86.07 E2.12309
G1 X154.091 Y86.07 E.01673
G1 X201.951 Y133.93 E2.12309
G1 X201.417 Y133.93 E.01673
M73 P3 R132
G1 X153.557 Y86.07 E2.12309
G1 X153.024 Y86.07 E.01673
G1 X200.884 Y133.93 E2.12309
G1 X200.35 Y133.93 E.01673
G1 X152.49 Y86.07 E2.12309
G1 X151.957 Y86.07 E.01673
G1 X199.817 Y133.93 E2.12309
G1 X199.283 Y133.93 E.01673
G1 X151.423 Y86.07 E2.12309
G1 X150.89 Y86.07 E.01673
G1 X198.75 Y133.93 E2.12309
G1 X198.216 Y133.93 E.01673
G1 X150.356 Y86.07 E2.12309
G1 X149.823 Y86.07 E.01673
G1 X197.683 Y133.93 E2.12309
G1 X197.149 Y133.93 E.01673
G1 X149.289 Y86.07 E2.12309
G1 X148.756 Y86.07 E.01673
G1 X196.616 Y133.93 E2.12309
G1 X196.082 Y133.93 E.01673
G1 X148.222 Y86.07 E2.12309
G1 X147.689 Y86.07 E.01673
G1 X195.549 Y133.93 E2.12309
G1 X195.015 Y133.93 E.01673
G1 X147.155 Y86.07 E2.12309
G1 X146.622 Y86.07 E.01673
G1 X194.482 Y133.93 E2.12309
G1 X193.948 Y133.93 E.01673
M73 P4 R132
G1 X146.088 Y86.07 E2.12309
G1 X145.555 Y86.07 E.01673
G1 X193.415 Y133.93 E2.12309
G1 X192.881 Y133.93 E.01673
G1 X145.021 Y86.07 E2.12309
G1 X144.488 Y86.07 E.01673
M73 P4 R131
G1 X192.348 Y133.93 E2.12309
G1 X191.814 Y133.93 E.01673
G1 X143.954 Y86.07 E2.12309
G1 X143.421 Y86.07 E.01673
G1 X191.281 Y133.93 E2.12309
G1 X190.747 Y133.93 E.01673
G1 X142.887 Y86.07 E2.12309
G1 X142.354 Y86.07 E.01673
G1 X190.214 Y133.93 E2.12309
G1 X189.68 Y133.93 E.01673
G1 X141.82 Y86.07 E2.12309
G1 X141.287 Y86.07 E.01673
G1 X189.147 Y133.93 E2.12309
G1 X188.613 Y133.93 E.01673
G1 X140.753 Y86.07 E2.12309
G1 X140.22 Y86.07 E.01673
G1 X188.08 Y133.93 E2.12309
G1 X187.546 Y133.93 E.01673
G1 X139.686 Y86.07 E2.12309
G1 X139.153 Y86.07 E.01673
G1 X187.013 Y133.93 E2.12309
G1 X186.479 Y133.93 E.01673
G1 X138.619 Y86.07 E2.12309
G1 X138.086 Y86.07 E.01673
G1 X185.946 Y133.93 E2.12309
G1 X185.412 Y133.93 E.01673
G1 X137.552 Y86.07 E2.12309
G1 X137.019 Y86.07 E.01673
G1 X184.879 Y133.93 E2.12309
G1 X184.345 Y133.93 E.01673
G1 X136.485 Y86.07 E2.12309
G1 X135.952 Y86.07 E.01673
G1 X183.812 Y133.93 E2.12309
G1 X183.279 Y133.93 E.01673
G1 X135.418 Y86.07 E2.12309
G1 X134.885 Y86.07 E.01673
M73 P4 R130
G1 X182.745 Y133.93 E2.12309
G1 X182.212 Y133.93 E.01673
G1 X134.351 Y86.07 E2.12309
G1 X133.818 Y86.07 E.01673
G1 X181.678 Y133.93 E2.12309
G1 X181.145 Y133.93 E.01673
M73 P5 R130
G1 X133.284 Y86.07 E2.12309
G1 X132.751 Y86.07 E.01673
G1 X180.611 Y133.93 E2.12309
G1 X180.078 Y133.93 E.01673
G1 X132.217 Y86.07 E2.12309
G1 X131.684 Y86.07 E.01673
G1 X179.544 Y133.93 E2.12309
G1 X179.011 Y133.93 E.01673
G1 X131.15 Y86.07 E2.12309
G1 X130.617 Y86.07 E.01673
G1 X178.477 Y133.93 E2.12309
G1 X177.944 Y133.93 E.01673
G1 X130.083 Y86.07 E2.12309
G1 X129.55 Y86.07 E.01673
G1 X177.41 Y133.93 E2.12309
G1 X176.877 Y133.93 E.01673
G1 X129.016 Y86.07 E2.12309
G1 X128.483 Y86.07 E.01673
G1 X176.343 Y133.93 E2.12309
G1 X175.81 Y133.93 E.01673
G1 X127.949 Y86.07 E2.12309
G1 X127.416 Y86.07 E.01673
G1 X175.276 Y133.93 E2.12309
G1 X174.743 Y133.93 E.01673
G1 X126.882 Y86.07 E2.12309
G1 X126.349 Y86.07 E.01673
G1 X174.209 Y133.93 E2.12309
G1 X173.676 Y133.93 E.01673
G1 X125.815 Y86.07 E2.12309
G1 X125.282 Y86.07 E.01673
M73 P5 R129
G1 X173.142 Y133.93 E2.12309
G1 X172.609 Y133.93 E.01673
G1 X124.748 Y86.07 E2.12309
G1 X124.215 Y86.07 E.01673
G1 X172.075 Y133.93 E2.12309
G1 X171.542 Y133.93 E.01673
G1 X123.681 Y86.07 E2.12309
G1 X123.148 Y86.07 E.01673
G1 X171.008 Y133.93 E2.12309
G1 X170.475 Y133.93 E.01673
G1 X122.614 Y86.07 E2.12309
G1 X122.081 Y86.07 E.01673
G1 X169.941 Y133.93 E2.12309
G1 X169.408 Y133.93 E.01673
G1 X121.547 Y86.07 E2.12309
G1 X121.014 Y86.07 E.01673
G1 X168.874 Y133.93 E2.12309
G1 X168.341 Y133.93 E.01673
M73 P6 R129
G1 X120.48 Y86.07 E2.12309
G1 X119.947 Y86.07 E.01673
G1 X167.807 Y133.93 E2.12309
G1 X167.274 Y133.93 E.01673
G1 X119.413 Y86.07 E2.12309
G1 X118.88 Y86.07 E.01673
G1 X166.74 Y133.93 E2.12309
G1 X166.207 Y133.93 E.01673
G1 X118.346 Y86.07 E2.12309
G1 X117.813 Y86.07 E.01673
G1 X165.673 Y133.93 E2.12309
G1 X165.14 Y133.93 E.01673
G1 X117.279 Y86.07 E2.12309
G1 X116.746 Y86.07 E.01673
G1 X164.606 Y133.93 E2.12309
G1 X164.073 Y133.93 E.01673
M73 P6 R128
G1 X116.212 Y86.07 E2.12309
G1 X115.679 Y86.07 E.01673
G1 X163.539 Y133.93 E2.12309
G1 X163.006 Y133.93 E.01673
G1 X115.145 Y86.07 E2.12309
G1 X114.612 Y86.07 E.01673
G1 X162.472 Y133.93 E2.12309
G1 X161.939 Y133.93 E.01673
G1 X114.079 Y86.07 E2.12309
G1 X113.545 Y86.07 E.01673
G1 X161.405 Y133.93 E2.12309
G1 X160.872 Y133.93 E.01673
G1 X113.012 Y86.07 E2.12309
G1 X112.478 Y86.07 E.01673
G1 X160.338 Y133.93 E2.12309
G1 X159.805 Y133.93 E.01673
G1 X111.945 Y86.07 E2.12309
G1 X111.411 Y86.07 E.01673
G1 X159.271 Y133.93 E2.12309
G1 X158.738 Y133.93 E.01673
G1 X110.878 Y86.07 E2.12309
G1 X110.344 Y86.07 E.01673
G1 X158.204 Y133.93 E2.12309
G1 X157.671 Y133.93 E.01673
G1 X109.811 Y86.07 E2.12309
G1 X109.277 Y86.07 E.01673
G1 X157.137 Y133.93 E2.12309
G1 X156.604 Y133.93 E.01673
G1 X108.744 Y86.07 E2.12309
G1 X108.21 Y86.07 E.01673
G1 X156.07 Y133.93 E2.12309
G1 X155.537 Y133.93 E.01673
M73 P7 R128
G1 X107.677 Y86.07 E2.12309
G1 X107.143 Y86.07 E.01673
G1 X155.003 Y133.93 E2.12309
G1 X154.47 Y133.93 E.01673
M73 P7 R127
G1 X106.61 Y86.07 E2.12309
G1 X106.076 Y86.07 E.01673
G1 X153.936 Y133.93 E2.12309
G1 X153.403 Y133.93 E.01673
G1 X105.543 Y86.07 E2.12309
G1 X105.009 Y86.07 E.01673
G1 X152.869 Y133.93 E2.12309
G1 X152.336 Y133.93 E.01673
G1 X104.476 Y86.07 E2.12309
G1 X103.942 Y86.07 E.01673
G1 X151.802 Y133.93 E2.12309
G1 X151.269 Y133.93 E.01673
G1 X103.409 Y86.07 E2.12309
G1 X102.875 Y86.07 E.01673
G1 X150.735 Y133.93 E2.12309
G1 X150.202 Y133.93 E.01673
G1 X102.342 Y86.07 E2.12309
G1 X101.808 Y86.07 E.01673
G1 X149.668 Y133.93 E2.12309
G1 X149.135 Y133.93 E.01673
G1 X101.275 Y86.07 E2.12309
G1 X100.741 Y86.07 E.01673
G1 X148.601 Y133.93 E2.12309
G1 X148.068 Y133.93 E.01673
G1 X100.208 Y86.07 E2.12309
G1 X99.674 Y86.07 E.01673
G1 X147.534 Y133.93 E2.12309
G1 X147.001 Y133.93 E.01673
G1 X99.141 Y86.07 E2.12309
G1 X98.607 Y86.07 E.01673
G1 X146.467 Y133.93 E2.12309
G1 X145.934 Y133.93 E.01673
G1 X98.074 Y86.07 E2.12309
G1 X97.54 Y86.07 E.01673
M73 P7 R126
G1 X145.4 Y133.93 E2.12309
G1 X144.867 Y133.93 E.01673
G1 X97.007 Y86.07 E2.12309
G1 X96.473 Y86.07 E.01673
G1 X144.333 Y133.93 E2.12309
G1 X143.8 Y133.93 E.01673
G1 X95.94 Y86.07 E2.12309
G1 X95.406 Y86.07 E.01673
G1 X143.266 Y133.93 E2.12309
G1 X142.733 Y133.93 E.01673
M73 P8 R126
G1 X94.873 Y86.07 E2.12309
G1 X94.339 Y86.07 E.01673
G1 X142.199 Y133.93 E2.12309
G1 X141.666 Y133.93 E.01673
G1 X93.806 Y86.07 E2.12309
G1 X93.272 Y86.07 E.01673
G1 X141.133 Y133.93 E2.12309
G1 X140.599 Y133.93 E.01673
G1 X92.739 Y86.07 E2.12309
G1 X92.205 Y86.07 E.01673
G1 X140.066 Y133.93 E2.12309
G1 X139.532 Y133.93 E.01673
G1 X91.672 Y86.07 E2.12309
G1 X91.138 Y86.07 E.01673
G1 X138.999 Y133.93 E2.12309
G1 X138.465 Y133.93 E.01673
G1 X90.605 Y86.07 E2.12309
G1 X90.071 Y86.07 E.01673
