; generated by PrusaSlicer 2.5.0+win64 on 2022-11-03 at 12:41:51 UTC

; 

; external perimeters extrusion width = 0.45mm
; perimeters extrusion width = 0.45mm
; infill extrusion width = 0.45mm
; solid infill extrusion width = 0.45mm
; top infill extrusion width = 0.45mm
; first layer extrusion width = 0.42mm

M73 P0 R48
M201 X9000 Y9000 Z500 E10000 ; sets maximum accelerations, mm/sec^2
M203 X500 Y500 Z12 E120 ; sets maximum feedrates, mm / sec
M204 P2000 R1500 T2000 ; sets acceleration (P, T) and retract acceleration (R), mm/sec^2
M205 X10.00 Y10.00 Z0.20 E2.50 ; sets the jerk limits, mm/sec
M205 S0 T0 ; sets the minimum extruding and travel feed rate, mm/sec
M107
;TYPE:Custom
M862.3 P "MK2S" ; printer model check
M862.1 P0.4 ; nozzle diameter check
M115 U3.2.3 ; tell printer latest fw version
G90 ; use absolute coordinates
M83 ; extruder relative mode
M204 S2000 T1500 ; MK2 firmware only supports the old M204 format
M104 S215 ; set extruder temp
M140 S60 ; set bed temp
M190 S60 ; wait for bed temp
M109 S215 ; wait for extruder temp
G28 W ; home all without mesh bed level
G80 ; mesh bed leveling
G1 Z0.2 F720
G1 Y-2 F1000 ; go outside print area
G92 E0
G1 X60 E9 F1000 ; intro line
G1 X100 E12.5 F1000 ; intro line
G92 E0
G21 ; set units to millimeters
G90 ; use absolute coordinates
M83 ; use relative distances for extrusion
M900 K0.05 ; Filament gcode LA 1.5
M900 K30 ; Filament gcode LA 1.0
M107
;LAYER_CHANGE
;Z:0.2
;HEIGHT:0.2
;BEFORE_LAYER_CHANGE
G92 E0.0
;0.2


G1 E-.8 F2100
G1 Z.4 F720
;AFTER_LAYER_CHANGE
;0.2
G1 X118.015 Y87.693 F10800
G1 Z.2 F720
G1 E.8 F2100
M204 S800
;TYPE:Skirt/Brim
;WIDTH:0.42
G1 F1200
G1 X119.06 Y86.817 E.04278
G1 X120 Y86.623 E.03008
G1 X130 Y86.623 E.31354
G1 X131.681 Y87.319 E.05704
G1 X194.181 Y149.819 E2.77135
G1 X194.877 Y151.5 E.05704
G1 X194.877 Y183.5 E1.00334
G1 X194.485 Y184.807 E.04278
G1 X193.44 Y185.683 E.04278
G1 X192.5 Y185.877 E.03008
G1 X182.5 Y185.877 E.31354
G1 X180.819 Y185.181 E.05704
G1 X118.319 Y122.681 E2.77135
G1 X117.623 Y121 E.05704
G1 X117.623 Y89 E1.00334
G1 X117.997 Y87.75 E.0409
M204 S1000
; printing object brick-window-1.stl id:0 copy 5
;WIPE_START
G1 F8640
G1 X119.06 Y86.817 E-.32671
G1 X120 Y86.623 E-.22155
G1 X120.917 Y86.623 E-.21174
;WIPE_END
G1 E-.04 F2100
G1 Z.6 F720
G1 X182.881 Y151.881 F10800
G1 Z.2 F720
G1 E.8 F2100
M204 S800
;TYPE:External perimeter
;WIDTH:0.465403
G1 F1200
G1 X183.508 Y151.811 E.02215
;WIDTH:0.419999
G1 X191.499 Y151.812 E.25055
;WIDTH:0.462639
G1 X192.12 Y151.886 E.02185
G1 X192.189 Y152.515 E.02206
;WIDTH:0.42
G1 X192.188 Y182.499 E.94013
;WIDTH:0.465401
G1 X192.119 Y183.119 E.0219
G1 X191.492 Y183.189 E.02215
;WIDTH:0.42
G1 X183.501 Y183.188 E.25056
;WIDTH:0.465403
G1 X182.881 Y183.119 E.0219
G1 X182.811 Y182.492 E.02215
;WIDTH:0.42
G1 X182.812 Y152.501 E.94036
;WIDTH:0.465403
G1 X182.875 Y151.941 E.01979
M204 S1000
G1 X183.456 Y152.197 F10800
M204 S800
G1 F1200
G1 X183.515 Y152.189 E.00209
;WIDTH:0.42
G1 X191.481 Y152.189 E.24976
;WIDTH:0.462639
G1 X191.774 Y152.231 E.01034
G1 X191.809 Y152.377 E.00523
;WIDTH:0.42
G1 X191.811 Y182.485 E.94401
;WIDTH:0.465401
G1 X191.772 Y182.772 E.01018
G1 X191.485 Y182.811 E.01018
;WIDTH:0.42
G1 X183.515 Y182.811 E.2499
;WIDTH:0.465403
G1 X183.228 Y182.772 E.01018
G1 X183.189 Y182.485 E.01018
;WIDTH:0.42
G1 X183.189 Y152.515 E.93969
;WIDTH:0.465403
G1 X183.228 Y152.228 E.01018
M73 P1 R48
G1 X183.397 Y152.205 E.00599
M204 S1000
G1 X183.464 Y152.138 F10800
; stop printing object brick-window-1.stl id:0 copy 5
; printing object brick-window-1.stl id:0 copy 4
;WIPE_START
G1 F8640
G1 X183.515 Y152.189 E-.0276
G1 X186.687 Y152.189 E-.7324
;WIPE_END
G1 E-.04 F2100
G1 Z.6 F720
G1 X170.381 Y139.381 F10800
G1 Z.2 F720
G1 E.8 F2100
M204 S800
G1 F1200
G1 X171.008 Y139.311 E.02215
;WIDTH:0.419999
G1 X178.999 Y139.312 E.25055
;WIDTH:0.462639
G1 X179.62 Y139.386 E.02185
G1 X179.689 Y140.015 E.02206
;WIDTH:0.42
G1 X179.688 Y169.999 E.94013
;WIDTH:0.465401
G1 X179.619 Y170.619 E.0219
G1 X178.992 Y170.689 E.02215
;WIDTH:0.42
G1 X171.001 Y170.688 E.25056
;WIDTH:0.465403
G1 X170.381 Y170.619 E.0219
G1 X170.311 Y169.992 E.02215
;WIDTH:0.42
G1 X170.312 Y140.001 E.94036
;WIDTH:0.465403
G1 X170.375 Y139.441 E.01979
M204 S1000
G1 X170.956 Y139.697 F10800
M204 S800
G1 F1200
G1 X171.015 Y139.689 E.00209
;WIDTH:0.42
G1 X178.981 Y139.689 E.24976
;WIDTH:0.462639
G1 X179.274 Y139.731 E.01034
G1 X179.309 Y139.877 E.00523
;WIDTH:0.42
G1 X179.311 Y169.985 E.94401
;WIDTH:0.465401
G1 X179.272 Y170.272 E.01018
G1 X178.985 Y170.311 E.01018
;WIDTH:0.42
G1 X171.015 Y170.311 E.2499
;WIDTH:0.465403
G1 X170.728 Y170.272 E.01018
G1 X170.689 Y169.985 E.01018
;WIDTH:0.42
G1 X170.689 Y140.015 E.93969
;WIDTH:0.465403
G1 X170.728 Y139.728 E.01018
G1 X170.897 Y139.705 E.00599
M204 S1000
G1 X170.964 Y139.638 F10800
; stop printing object brick-window-1.stl id:0 copy 4
; printing object brick-window-1.stl id:0 copy 3
;WIPE_START
G1 F8640
G1 X171.015 Y139.689 E-.0276
G1 X174.187 Y139.689 E-.7324
;WIPE_END
G1 E-.04 F2100
G1 Z.6 F720
G1 X157.881 Y126.881 F10800
G1 Z.2 F720
G1 E.8 F2100
M204 S800
G1 F1200
G1 X158.508 Y126.811 E.02215
;WIDTH:0.419999
G1 X166.499 Y126.812 E.25055
;WIDTH:0.462639
G1 X167.12 Y126.886 E.02185
G1 X167.189 Y127.515 E.02206
;WIDTH:0.42
G1 X167.188 Y157.499 E.94013
;WIDTH:0.465401
G1 X167.119 Y158.119 E.0219
G1 X166.492 Y158.189 E.02215
;WIDTH:0.42
G1 X158.501 Y158.188 E.25056
;WIDTH:0.465403
G1 X157.881 Y158.119 E.0219
G1 X157.811 Y157.492 E.02215
;WIDTH:0.42
G1 X157.812 Y127.501 E.94036
;WIDTH:0.465403
G1 X157.875 Y126.941 E.01979
M204 S1000
G1 X158.456 Y127.197 F10800
M204 S800
G1 F1200
G1 X158.515 Y127.189 E.00209
;WIDTH:0.42
G1 X166.481 Y127.189 E.24976
;WIDTH:0.462639
G1 X166.774 Y127.231 E.01034
G1 X166.809 Y127.377 E.00523
;WIDTH:0.42
G1 X166.811 Y157.485 E.94401
;WIDTH:0.465401
G1 X166.772 Y157.772 E.01018
G1 X166.485 Y157.811 E.01018
;WIDTH:0.42
G1 X158.515 Y157.811 E.2499
;WIDTH:0.465403
G1 X158.228 Y157.772 E.01018
G1 X158.189 Y157.485 E.01018
;WIDTH:0.42
G1 X158.189 Y127.515 E.93969
;WIDTH:0.465403
G1 X158.228 Y127.228 E.01018
G1 X158.397 Y127.205 E.00599
M204 S1000
G1 X158.464 Y127.138 F10800
; stop printing object brick-window-1.stl id:0 copy 3
; printing object brick-window-1.stl id:0 copy 2
;WIPE_START
G1 F8640
G1 X158.515 Y127.189 E-.0276
G1 X161.687 Y127.189 E-.7324
;WIPE_END
G1 E-.04 F2100
G1 Z.6 F720
G1 X145.381 Y114.381 F10800
G1 Z.2 F720
G1 E.8 F2100
M204 S800
G1 F1200
G1 X146.008 Y114.311 E.02215
;WIDTH:0.419999
G1 X153.999 Y114.312 E.25055
;WIDTH:0.462639
G1 X154.62 Y114.386 E.02185
G1 X154.689 Y115.015 E.02206
;WIDTH:0.42
G1 X154.688 Y144.999 E.94013
;WIDTH:0.465401
G1 X154.619 Y145.619 E.0219
G1 X153.992 Y145.689 E.02215
;WIDTH:0.42
G1 X146.001 Y145.688 E.25056
;WIDTH:0.465403
G1 X145.381 Y145.619 E.0219
G1 X145.311 Y144.992 E.02215
;WIDTH:0.42
G1 X145.312 Y115.001 E.94036
;WIDTH:0.465403
G1 X145.375 Y114.441 E.01979
M204 S1000
G1 X145.956 Y114.697 F10800
M204 S800
G1 F1200
G1 X146.015 Y114.689 E.00209
;WIDTH:0.42
G1 X153.981 Y114.689 E.24976
;WIDTH:0.462639
G1 X154.274 Y114.731 E.01034
G1 X154.309 Y114.877 E.00523
;WIDTH:0.42
G1 X154.311 Y144.985 E.94401
;WIDTH:0.465401
G1 X154.272 Y145.272 E.01018
G1 X153.985 Y145.311 E.01018
;WIDTH:0.42
G1 X146.015 Y145.311 E.2499
;WIDTH:0.465403
G1 X145.728 Y145.272 E.01018
G1 X145.689 Y144.985 E.01018
;WIDTH:0.42
G1 X145.689 Y115.015 E.93969
;WIDTH:0.465403
G1 X145.728 Y114.728 E.01018
M73 P1 R47
G1 X145.897 Y114.705 E.00599
M204 S1000
G1 X145.964 Y114.638 F10800
; stop printing object brick-window-1.stl id:0 copy 2
; printing object brick-window-1.stl id:0 copy 1
;WIPE_START
G1 F8640
G1 X146.015 Y114.689 E-.0276
G1 X149.187 Y114.689 E-.7324
;WIPE_END
G1 E-.04 F2100
G1 Z.6 F720
G1 X132.881 Y101.881 F10800
G1 Z.2 F720
G1 E.8 F2100
M204 S800
G1 F1200
G1 X133.508 Y101.811 E.02215
;WIDTH:0.419999
G1 X141.499 Y101.812 E.25055
;WIDTH:0.462639
G1 X142.12 Y101.886 E.02185
G1 X142.189 Y102.515 E.02206
;WIDTH:0.42
G1 X142.188 Y132.499 E.94013
;WIDTH:0.465401
G1 X142.119 Y133.119 E.0219
G1 X141.492 Y133.189 E.02215
;WIDTH:0.42
G1 X133.501 Y133.188 E.25056
;WIDTH:0.465403
G1 X132.881 Y133.119 E.0219
G1 X132.811 Y132.492 E.02215
;WIDTH:0.42
G1 X132.812 Y102.501 E.94036
;WIDTH:0.465403
G1 X132.875 Y101.941 E.01979
M204 S1000
M73 P2 R47
G1 X133.456 Y102.197 F10800
M204 S800
G1 F1200
G1 X133.515 Y102.189 E.00209
;WIDTH:0.42
G1 X141.481 Y102.189 E.24976
;WIDTH:0.462639
G1 X141.774 Y102.231 E.01034
G1 X141.809 Y102.377 E.00523
;WIDTH:0.42
G1 X141.811 Y132.485 E.94401
;WIDTH:0.465401
G1 X141.772 Y132.772 E.01018
G1 X141.485 Y132.811 E.01018
;WIDTH:0.42
G1 X133.515 Y132.811 E.2499
;WIDTH:0.465403
G1 X133.228 Y132.772 E.01018
G1 X133.189 Y132.485 E.01018
;WIDTH:0.42
G1 X133.189 Y102.515 E.93969
;WIDTH:0.465403
G1 X133.228 Y102.228 E.01018
G1 X133.397 Y102.205 E.00599
M204 S1000
G1 X133.464 Y102.138 F10800
; stop printing object brick-window-1.stl id:0 copy 1
; printing object brick-window-1.stl id:0 copy 0
;WIPE_START
G1 F8640
G1 X133.515 Y102.189 E-.0276
G1 X136.687 Y102.189 E-.7324
;WIPE_END
G1 E-.04 F2100
G1 Z.6 F720
G1 X120.381 Y89.381 F10800
G1 Z.2 F720
G1 E.8 F2100
M204 S800
G1 F1200
G1 X121.008 Y89.311 E.02215
;WIDTH:0.419999
G1 X128.999 Y89.312 E.25055
;WIDTH:0.462639
G1 X129.62 Y89.386 E.02185
G1 X129.689 Y90.015 E.02206
;WIDTH:0.42
G1 X129.688 Y119.999 E.94013
;WIDTH:0.465401
G1 X129.619 Y120.619 E.0219
G1 X128.992 Y120.689 E.02215
;WIDTH:0.42
G1 X121.001 Y120.688 E.25056
;WIDTH:0.465403
G1 X120.381 Y120.619 E.0219
G1 X120.311 Y119.992 E.02215
;WIDTH:0.42
G1 X120.312 Y90.001 E.94036
;WIDTH:0.465403
G1 X120.375 Y89.441 E.01979
M204 S1000
G1 X120.956 Y89.697 F10800
M204 S800
G1 F1200
G1 X121.015 Y89.689 E.00209
;WIDTH:0.42
G1 X128.981 Y89.689 E.24976
;WIDTH:0.462639
G1 X129.274 Y89.731 E.01034
G1 X129.309 Y89.877 E.00523
;WIDTH:0.42
G1 X129.311 Y119.985 E.94401
;WIDTH:0.465401
G1 X129.272 Y120.272 E.01018
G1 X128.985 Y120.311 E.01018
;WIDTH:0.42
G1 X121.015 Y120.311 E.2499
;WIDTH:0.465403
G1 X120.728 Y120.272 E.01018
G1 X120.689 Y119.985 E.01018
;WIDTH:0.42
G1 X120.689 Y90.015 E.93969
;WIDTH:0.465403
G1 X120.728 Y89.728 E.01018
G1 X120.897 Y89.705 E.00599
M204 S1000
G1 X120.964 Y89.638 F10800
; stop printing object brick-window-1.stl id:0 copy 0
M106 S84.15
;LAYER_CHANGE
;Z:0.35
;HEIGHT:0.15
;BEFORE_LAYER_CHANGE
G92 E0.0
;0.35


;WIPE_START
G1 F8640
G1 X121.015 Y89.689 E-.0276
G1 X124.187 Y89.689 E-.7324
;WIPE_END
G1 E-.04 F2100
G1 Z.6 F720
;AFTER_LAYER_CHANGE
;0.35
M104 S210 ; set temperature
G1 X124.187 Y86.623 F10800
G1 Z.35 F720
G1 E.8 F2100
;TYPE:Skirt/Brim
;WIDTH:0.42
G1 F3000
G1 X130 Y86.623 E.14059
G1 X131.681 Y87.319 E.044
G1 X194.181 Y149.819 E2.13766
G1 X194.877 Y151.5 E.044
G1 X194.877 Y183.5 E.77392
G1 X194.485 Y184.807 E.033
G1 X193.44 Y185.683 E.033
G1 X192.5 Y185.877 E.02321
G1 X182.5 Y185.877 E.24185
G1 X180.819 Y185.181 E.044
G1 X118.319 Y122.681 E2.13766
G1 X117.623 Y121 E.044
G1 X117.623 Y89 E.77392
G1 X118.015 Y87.693 E.033
G1 X119.06 Y86.817 E.033
G1 X120 Y86.623 E.02321
G1 X124.127 Y86.623 E.09981
; printing object brick-window-1.stl id:0 copy 5
;WIPE_START
G1 F8640
G1 X127.418 Y86.623 E-.76
;WIPE_END
G1 E-.04 F2100
G1 Z.75 F720
G1 X182.78 Y152.129 F10800
G1 Z.35 F720
G1 E.8 F2100
M204 S800
;TYPE:External perimeter
;WIDTH:0.599119
G1 F2400
G1 X182.8 Y151.8 E.01165
G1 X183.142 Y151.779 E.01212
;WIDTH:0.557607
G1 X183.484 Y151.758 E.01123
;WIDTH:0.516095
G1 X191.516 Y151.758 E.24239
;WIDTH:0.557608
G1 X191.858 Y151.779 E.01123
;WIDTH:0.59912
G1 X192.2 Y151.8 E.01212
G1 X192.2 Y152.083 E.01002
G1 X192.221 Y152.283 E.00712
;WIDTH:0.557608
G1 X192.242 Y152.484 E.0066
;WIDTH:0.516095
G1 X192.242 Y182.516 E.9063
;WIDTH:0.519761
G1 X192.24 Y182.6 E.00256
;WIDTH:0.559441
G1 X192.22 Y182.9 E.00989
;WIDTH:0.59912
G1 X192.2 Y183.2 E.01063
G1 X191.858 Y183.221 E.01212
;WIDTH:0.557608
G1 X191.516 Y183.242 E.01123
;WIDTH:0.516095
G1 X183.484 Y183.242 E.24239
;WIDTH:0.557607
G1 X183.142 Y183.221 E.01123
;WIDTH:0.599119
G1 X182.8 Y183.2 E.01212
G1 X182.779 Y182.858 E.01212
;WIDTH:0.557607
G1 X182.758 Y182.516 E.01123
;WIDTH:0.516095
G1 X182.758 Y152.484 E.9063
;WIDTH:0.557607
G1 X182.776 Y152.188 E.0097
M204 S1000
G1 X183.384 Y152.263 F10800
M204 S800
G1 F2400
G1 X183.484 Y152.242 E.00335
;WIDTH:0.516095
G1 X191.516 Y152.242 E.24239
;WIDTH:0.557608
G1 X191.616 Y152.263 E.00335
;WIDTH:0.59912
G1 X191.717 Y152.283 E.00362
G1 X191.737 Y152.384 E.00362
;WIDTH:0.557608
G1 X191.758 Y152.484 E.00335
;WIDTH:0.516095
G1 X191.758 Y182.516 E.9063
;WIDTH:0.557608
G1 X191.737 Y182.616 E.00335
;WIDTH:0.59912
G1 X191.717 Y182.717 E.00362
G1 X191.637 Y182.736 E.00289
;WIDTH:0.559441
G1 X191.558 Y182.756 E.00268
;WIDTH:0.519761
G1 X191.516 Y182.758 E.00128
;WIDTH:0.516095
G1 X183.484 Y182.758 E.24239
;WIDTH:0.557607
G1 X183.384 Y182.737 E.00335
;WIDTH:0.599119
G1 X183.283 Y182.717 E.00362
G1 X183.263 Y182.616 E.00362
;WIDTH:0.557607
G1 X183.242 Y182.516 E.00335
;WIDTH:0.516095
G1 X183.242 Y152.484 E.9063
;WIDTH:0.557607
G1 X183.263 Y152.384 E.00335
;WIDTH:0.599119
G1 X183.283 Y152.283 E.00362
G1 X183.325 Y152.275 E.0015
M204 S1000
G1 X183.397 Y152.161 F10800
; stop printing object brick-window-1.stl id:0 copy 5
; printing object brick-window-1.stl id:0 copy 4
;WIPE_START
G1 F8640
G1 X183.484 Y152.242 E-.03749
G1 X186.613 Y152.242 E-.72251
;WIPE_END
G1 E-.04 F2100
G1 Z.75 F720
G1 X170.28 Y139.629 F10800
G1 Z.35 F720
G1 E.8 F2100
M204 S800
G1 F2400
G1 X170.3 Y139.3 E.01165
G1 X170.642 Y139.279 E.01212
;WIDTH:0.557607
G1 X170.984 Y139.258 E.01123
;WIDTH:0.516095
G1 X179.016 Y139.258 E.24239
;WIDTH:0.557608
G1 X179.358 Y139.279 E.01123
;WIDTH:0.59912
G1 X179.7 Y139.3 E.01212
G1 X179.7 Y139.583 E.01002
G1 X179.721 Y139.783 E.00712
;WIDTH:0.557608
G1 X179.742 Y139.984 E.0066
;WIDTH:0.516095
G1 X179.742 Y170.016 E.9063
;WIDTH:0.519761
G1 X179.74 Y170.1 E.00256
;WIDTH:0.559441
G1 X179.72 Y170.4 E.00989
;WIDTH:0.59912
G1 X179.7 Y170.7 E.01063
G1 X179.358 Y170.721 E.01212
;WIDTH:0.557608
G1 X179.016 Y170.742 E.01123
;WIDTH:0.516095
G1 X170.984 Y170.742 E.24239
;WIDTH:0.557607
G1 X170.642 Y170.721 E.01123
;WIDTH:0.599119
G1 X170.3 Y170.7 E.01212
G1 X170.279 Y170.358 E.01212
;WIDTH:0.557607
G1 X170.258 Y170.016 E.01123
;WIDTH:0.516095
G1 X170.258 Y139.984 E.9063
;WIDTH:0.557607
G1 X170.276 Y139.688 E.0097
M204 S1000
G1 X170.884 Y139.763 F10800
M204 S800
G1 F2400
G1 X170.984 Y139.742 E.00335
;WIDTH:0.516095
G1 X179.016 Y139.742 E.24239
;WIDTH:0.557608
G1 X179.116 Y139.763 E.00335
;WIDTH:0.59912
G1 X179.217 Y139.783 E.00362
G1 X179.237 Y139.884 E.00362
;WIDTH:0.557608
G1 X179.258 Y139.984 E.00335
;WIDTH:0.516095
G1 X179.258 Y170.016 E.9063
;WIDTH:0.557608
G1 X179.237 Y170.116 E.00335
;WIDTH:0.59912
G1 X179.217 Y170.217 E.00362
G1 X179.137 Y170.236 E.00289
;WIDTH:0.559441
G1 X179.058 Y170.256 E.00268
;WIDTH:0.519761
G1 X179.016 Y170.258 E.00128
;WIDTH:0.516095
G1 X170.984 Y170.258 E.24239
;WIDTH:0.557607
G1 X170.884 Y170.237 E.00335
;WIDTH:0.599119
G1 X170.783 Y170.217 E.00362
G1 X170.763 Y170.116 E.00362
;WIDTH:0.557607
G1 X170.742 Y170.016 E.00335
;WIDTH:0.516095
G1 X170.742 Y139.984 E.9063
;WIDTH:0.557607
G1 X170.763 Y139.884 E.00335
;WIDTH:0.599119
M73 P3 R47
G1 X170.783 Y139.783 E.00362
G1 X170.825 Y139.775 E.0015
M204 S1000
G1 X170.897 Y139.661 F10800
; stop printing object brick-window-1.stl id:0 copy 4
; printing object brick-window-1.stl id:0 copy 3
;WIPE_START
G1 F8640
G1 X170.984 Y139.742 E-.03749
G1 X174.113 Y139.742 E-.72251
;WIPE_END
G1 E-.04 F2100
G1 Z.75 F720
G1 X157.78 Y127.129 F10800
G1 Z.35 F720
G1 E.8 F2100
M204 S800
G1 F2400
G1 X157.8 Y126.8 E.01165
G1 X158.142 Y126.779 E.01212
;WIDTH:0.557607
G1 X158.484 Y126.758 E.01123
;WIDTH:0.516095
G1 X166.516 Y126.758 E.24239
;WIDTH:0.557608
G1 X166.858 Y126.779 E.01123
;WIDTH:0.59912
G1 X167.2 Y126.8 E.01212
G1 X167.2 Y127.083 E.01002
G1 X167.221 Y127.283 E.00712
;WIDTH:0.557608
G1 X167.242 Y127.484 E.0066
;WIDTH:0.516095
G1 X167.242 Y157.516 E.9063
;WIDTH:0.519761
G1 X167.24 Y157.6 E.00256
;WIDTH:0.559441
G1 X167.22 Y157.9 E.00989
;WIDTH:0.59912
G1 X167.2 Y158.2 E.01063
G1 X166.858 Y158.221 E.01212
