; generated by PrusaSlicer 2.5.0+win64 on 2022-11-01 at 09:21:22 UTC

; 

; external perimeters extrusion width = 0.60mm
; perimeters extrusion width = 0.43mm
; infill extrusion width = 0.45mm
; solid infill extrusion width = 0.70mm
; top infill extrusion width = 0.45mm
; first layer extrusion width = 0.42mm

M73 P0 R89
M201 X9000 Y9000 Z500 E10000 ; sets maximum accelerations, mm/sec^2
M203 X500 Y500 Z12 E120 ; sets maximum feedrates, mm / sec
M204 P2000 R1500 T2000 ; sets acceleration (P, T) and retract acceleration (R), mm/sec^2
M205 X10.00 Y10.00 Z0.20 E2.50 ; sets the jerk limits, mm/sec
M205 S0 T0 ; sets the minimum extruding and travel feed rate, mm/sec
M107
;TYPE:Custom
M862.3 P "MK2S" ; printer model check
M862.1 P0.4 ; nozzle diameter check
M115 U3.2.3 ; tell printer latest fw version
G90 ; use absolute coordinates
M83 ; extruder relative mode
M204 S2000 T1500 ; MK2 firmware only supports the old M204 format
M104 S215 ; set extruder temp
M140 S60 ; set bed temp
M190 S60 ; wait for bed temp
M109 S215 ; wait for extruder temp
G28 W ; home all without mesh bed level
G80 ; mesh bed leveling
G1 Z0.2 F720
G1 Y-2 F1000 ; go outside print area
G92 E0
G1 X60 E9 F1000 ; intro line
G1 X100 E12.5 F1000 ; intro line
G92 E0
G21 ; set units to millimeters
G90 ; use absolute coordinates
M83 ; use relative distances for extrusion
M900 K0.05 ; Filament gcode LA 1.5
M900 K30 ; Filament gcode LA 1.0
M107
;LAYER_CHANGE
;Z:0.2
;HEIGHT:0.2
;BEFORE_LAYER_CHANGE
G92 E0.0
;0.2


G1 E-.8 F2100
G1 Z.4 F720
;AFTER_LAYER_CHANGE
;0.2
G1 X106.673 Y69.654 F10800
G1 Z.2 F720
G1 E.8 F2100
M204 S800
;TYPE:Skirt/Brim
;WIDTH:0.42
G1 F1200
G1 X106.844 Y69.393 E.00977
G1 X107.681 Y68.561 E.03703
G1 X108.633 Y67.795 E.0383
G1 X110.214 Y66.96 E.05606
G1 X111.608 Y66.499 E.04605
G1 X112.556 Y66.286 E.03044
G1 X114.57 Y66.123 E.06338
G1 X135.568 Y66.127 E.65837
G1 X137.444 Y66.286 E.05904
G1 X138.996 Y66.678 E.05018
G1 X140.104 Y67.101 E.03716
G1 X141.727 Y68.051 E.05898
G1 X142.796 Y68.988 E.04456
G1 X143.955 Y70.531 E.06051
G1 X144.22 Y71.022 E.01751
G1 X144.847 Y72.728 E.05697
G1 X156.018 Y132.06 E1.89301
G1 X156.059 Y141.5 E.29598
G1 X155.667 Y142.807 E.04278
G1 X154.621 Y143.683 E.04278
G1 X153.682 Y143.877 E.03008
G1 X96.318 Y143.877 E1.79859
G1 X95.011 Y143.485 E.04278
G1 X94.135 Y142.44 E.04278
G1 X93.941 Y141.5 E.03008
G1 X93.982 Y132.06 E.29598
G1 X105.067 Y73.17 E1.87888
G1 X105.275 Y72.303 E.02797
G1 X105.78 Y71.022 E.04316
G1 X106.641 Y69.704 E.04935
M204 S1000
; printing object end-effector-suction-2.stl id:0 copy 0
;WIPE_START
G1 F8640
G1 X106.844 Y69.393 E-.08582
G1 X107.681 Y68.561 E-.27269
G1 X108.633 Y67.795 E-.28203
G1 X109.09 Y67.553 E-.11946
;WIPE_END
G1 E-.04 F2100
G1 Z.6 F720
G1 X116.689 Y73.738 F10800
G1 Z.2 F720
G1 E.8 F2100
M204 S800
;TYPE:Perimeter
;WIDTH:0.419999
G1 F1200
G1 X116.483 Y73.797 E.00673
G1 X116.276 Y74.02 E.00954
G1 X116.213 Y74.279 E.00835
G1 X116.213 Y140.713 E2.083
G1 X99.644 Y140.713 E.5195
G1 X99.644 Y133.287 E.23283
G1 X101.304 Y133.287 E.05203
G1 X102.378 Y133.157 E.03395
G1 X103.719 Y132.787 E.04361
G1 X104.946 Y132.205 E.04258
G1 X106.037 Y131.431 E.04193
G1 X106.987 Y130.443 E.04299
G1 X107.718 Y129.318 E.04206
G1 X107.775 Y129.206 E.00394
G1 X108.224 Y127.989 E.04067
G1 X108.255 Y127.86 E.00416
G1 X108.412 Y126.513 E.04253
G1 X108.412 Y74.526 E1.63001
G1 X108.449 Y73.986 E.01698
G1 X108.562 Y73.389 E.01904
G1 X108.997 Y72.294 E.03696
G1 X109.676 Y71.355 E.03632
G1 X110.537 Y70.595 E.03603
G1 X111.59 Y69.989 E.03809
G1 X112.701 Y69.592 E.03699
G1 X113.953 Y69.356 E.03996
G1 X115.138 Y69.287 E.03721
G1 X119.213 Y69.287 E.12777
G1 X119.213 Y73.713 E.13877
G1 X116.747 Y73.722 E.07732
M204 S1000
G1 X116.779 Y74.09 F10800
M204 S800
;TYPE:External perimeter
G1 F1200
G1 X116.637 Y74.154 E.00487
G1 X116.59 Y74.279 E.00417
G1 X116.59 Y141.09 E2.09482
G1 X99.267 Y141.09 E.54315
G1 X99.267 Y132.91 E.25648
G1 X101.304 Y132.91 E.06385
G1 X101.727 Y132.844 E.01344
G1 X102.28 Y132.792 E.01742
G1 X103.559 Y132.445 E.04155
G1 X104.733 Y131.893 E.04066
G1 X105.805 Y131.133 E.04122
G1 X106.671 Y130.238 E.03905
G1 X107.421 Y129.075 E.04336
G1 X107.881 Y127.816 E.04204
G1 X108.035 Y126.513 E.04112
G1 X108.035 Y74.514 E1.63041
G1 X108.074 Y73.938 E.01809
G1 X108.198 Y73.284 E.02088
G1 X108.663 Y72.111 E.03957
G1 X109.395 Y71.1 E.03911
G1 X110.316 Y70.287 E.03853
G1 X111.431 Y69.645 E.04035
G1 X112.602 Y69.227 E.03898
G1 X113.907 Y68.981 E.04164
G1 X115.127 Y68.91 E.03831
G1 X119.59 Y68.91 E.13994
G1 X119.59 Y74.09 E.16242
G1 X116.839 Y74.09 E.08627
M204 S1000
G1 X116.636 Y74.029 F10800
;WIPE_START
G1 F8640
G1 X116.637 Y74.154 E-.04885
G1 X116.59 Y74.279 E-.03072
G1 X116.59 Y77.225 E-.68044
;WIPE_END
G1 E-.04 F2100
G1 Z.6 F720
G1 X119.1 Y70.167 F10800
G1 Z.2 F720
G1 E.8 F2100
M204 S800
;TYPE:Solid infill
;WIDTH:0.42207
G1 F1200
G1 X118.503 Y69.57 E.02662
G1 X117.967 Y69.57 E.0169
G1 X118.93 Y70.533 E.04296
G1 X118.93 Y71.07 E.0169
G1 X117.43 Y69.57 E.06686
G1 X116.894 Y69.57 E.0169
G1 X118.93 Y71.606 E.09077
G1 X118.93 Y72.142 E.0169
G1 X116.358 Y69.57 E.11468
G1 X115.822 Y69.57 E.0169
G1 X118.93 Y72.678 E.13858
G1 X118.93 Y73.214 E.0169
G1 X115.286 Y69.57 E.16249
G1 X114.771 Y69.592 E.01623
G1 X118.61 Y73.43 E.17113
G1 X118.074 Y73.43 E.0169
G1 X114.265 Y69.621 E.16982
G1 X113.988 Y69.638 E.00874
G1 X113.783 Y69.676 E.00656
G1 X117.537 Y73.43 E.16738
G1 X117.001 Y73.43 E.0169
G1 X113.332 Y69.761 E.16359
G1 X112.881 Y69.846 E.01448
G1 X116.511 Y73.477 E.16188
G1 X116.334 Y73.555 E.00613
G1 X116.182 Y73.683 E.00626
G1 X112.472 Y69.974 E.16538
G1 X112.077 Y70.115 E.01323
G1 X115.974 Y74.011 E.17372
G1 X115.93 Y74.249 E.00761
G1 X115.93 Y74.504 E.00805
G1 X111.686 Y70.26 E.18924
G1 X111.346 Y70.456 E.01238
G1 X115.93 Y75.04 E.20442
G1 X115.93 Y75.577 E.0169
G1 X111.005 Y70.651 E.21959
G1 X110.671 Y70.853 E.01231
G1 X115.93 Y76.113 E.23449
G1 X115.93 Y76.649 E.0169
G1 X110.386 Y71.105 E.24719
G1 X110.101 Y71.356 E.01198
G1 X115.93 Y77.185 E.25988
G1 X115.93 Y77.721 E.0169
G1 X109.831 Y71.622 E.27193
G1 X109.606 Y71.933 E.01211
G1 X115.93 Y78.258 E.28197
G1 X115.93 Y78.794 E.0169
G1 X109.381 Y72.245 E.292
G1 X109.246 Y72.431 E.00725
G1 X109.185 Y72.585 E.00523
G1 X115.93 Y79.33 E.30074
G1 X115.93 Y79.866 E.0169
G1 X109.033 Y72.969 E.30753
G1 X108.88 Y73.352 E.01302
G1 X115.93 Y80.402 E.31432
G1 X115.93 Y80.939 E.0169
G1 X108.775 Y73.783 E.31903
G1 X108.73 Y74.022 E.00767
G1 X108.713 Y74.258 E.00745
G1 X115.93 Y81.475 E.32177
G1 X115.93 Y82.011 E.0169
G1 X108.695 Y74.775 E.32261
G1 X108.695 Y75.311 E.0169
G1 X115.93 Y82.547 E.32261
G1 X115.93 Y83.083 E.0169
G1 X108.695 Y75.848 E.32261
G1 X108.695 Y76.384 E.0169
G1 X115.93 Y83.62 E.32261
G1 X115.93 Y84.156 E.0169
G1 X108.695 Y76.92 E.32261
G1 X108.695 Y77.456 E.0169
G1 X115.93 Y84.692 E.32261
G1 X115.93 Y85.228 E.0169
G1 X108.695 Y77.992 E.32261
G1 X108.695 Y78.529 E.0169
G1 X115.93 Y85.764 E.32261
G1 X115.93 Y86.301 E.0169
G1 X108.695 Y79.065 E.32261
G1 X108.695 Y79.601 E.0169
G1 X115.93 Y86.837 E.32261
G1 X115.93 Y87.373 E.0169
G1 X108.695 Y80.137 E.32261
G1 X108.695 Y80.673 E.0169
G1 X115.93 Y87.909 E.32261
G1 X115.93 Y88.445 E.0169
M73 P1 R89
G1 X108.695 Y81.21 E.32261
G1 X108.695 Y81.746 E.0169
G1 X115.93 Y88.982 E.32261
G1 X115.93 Y89.518 E.0169
M73 P1 R88
G1 X108.695 Y82.282 E.32261
G1 X108.695 Y82.818 E.0169
G1 X115.93 Y90.054 E.32261
G1 X115.93 Y90.59 E.0169
G1 X108.695 Y83.354 E.32261
G1 X108.695 Y83.891 E.0169
G1 X115.93 Y91.126 E.32261
G1 X115.93 Y91.663 E.0169
G1 X108.695 Y84.427 E.32261
G1 X108.695 Y84.963 E.0169
G1 X115.93 Y92.199 E.32261
G1 X115.93 Y92.735 E.0169
G1 X108.695 Y85.499 E.32261
G1 X108.695 Y86.035 E.0169
G1 X115.93 Y93.271 E.32261
G1 X115.93 Y93.807 E.0169
G1 X108.695 Y86.572 E.32261
G1 X108.695 Y87.108 E.0169
G1 X115.93 Y94.344 E.32261
G1 X115.93 Y94.88 E.0169
G1 X108.695 Y87.644 E.32261
G1 X108.695 Y88.18 E.0169
G1 X115.93 Y95.416 E.32261
G1 X115.93 Y95.952 E.0169
G1 X108.695 Y88.716 E.32261
G1 X108.695 Y89.253 E.0169
G1 X115.93 Y96.488 E.32261
G1 X115.93 Y97.025 E.0169
G1 X108.695 Y89.789 E.32261
G1 X108.695 Y90.325 E.0169
G1 X115.93 Y97.561 E.32261
G1 X115.93 Y98.097 E.0169
G1 X108.695 Y90.861 E.32261
G1 X108.695 Y91.397 E.0169
G1 X115.93 Y98.633 E.32261
G1 X115.93 Y99.169 E.0169
G1 X108.695 Y91.934 E.32261
G1 X108.695 Y92.47 E.0169
G1 X115.93 Y99.705 E.32261
G1 X115.93 Y100.242 E.0169
G1 X108.695 Y93.006 E.32261
G1 X108.695 Y93.542 E.0169
G1 X115.93 Y100.778 E.32261
G1 X115.93 Y101.314 E.0169
G1 X108.695 Y94.078 E.32261
G1 X108.695 Y94.615 E.0169
G1 X115.93 Y101.85 E.32261
G1 X115.93 Y102.386 E.0169
G1 X108.695 Y95.151 E.32261
G1 X108.695 Y95.687 E.0169
G1 X115.93 Y102.923 E.32261
G1 X115.93 Y103.459 E.0169
G1 X108.695 Y96.223 E.32261
G1 X108.695 Y96.759 E.0169
G1 X115.93 Y103.995 E.32261
G1 X115.93 Y104.531 E.0169
G1 X108.695 Y97.296 E.32261
G1 X108.695 Y97.832 E.0169
G1 X115.93 Y105.067 E.32261
G1 X115.93 Y105.604 E.0169
G1 X108.695 Y98.368 E.32261
G1 X108.695 Y98.904 E.0169
G1 X115.93 Y106.14 E.32261
G1 X115.93 Y106.676 E.0169
G1 X108.695 Y99.44 E.32261
G1 X108.695 Y99.977 E.0169
G1 X115.93 Y107.212 E.32261
G1 X115.93 Y107.748 E.0169
G1 X108.695 Y100.513 E.32261
G1 X108.695 Y101.049 E.0169
G1 X115.93 Y108.285 E.32261
G1 X115.93 Y108.821 E.0169
G1 X108.695 Y101.585 E.32261
G1 X108.695 Y102.121 E.0169
G1 X115.93 Y109.357 E.32261
G1 X115.93 Y109.893 E.0169
G1 X108.695 Y102.658 E.32261
G1 X108.695 Y103.194 E.0169
G1 X115.93 Y110.429 E.32261
G1 X115.93 Y110.966 E.0169
G1 X108.695 Y103.73 E.32261
G1 X108.695 Y104.266 E.0169
G1 X115.93 Y111.502 E.32261
G1 X115.93 Y112.038 E.0169
G1 X108.695 Y104.802 E.3226
G1 X108.695 Y105.339 E.0169
G1 X115.93 Y112.574 E.3226
G1 X115.93 Y113.11 E.0169
G1 X108.695 Y105.875 E.3226
G1 X108.695 Y106.411 E.0169
G1 X115.93 Y113.647 E.3226
G1 X115.93 Y114.183 E.0169
G1 X108.695 Y106.947 E.3226
G1 X108.695 Y107.483 E.0169
G1 X115.93 Y114.719 E.3226
G1 X115.93 Y115.255 E.0169
G1 X108.695 Y108.02 E.3226
G1 X108.695 Y108.556 E.0169
G1 X115.93 Y115.791 E.3226
G1 X115.93 Y116.328 E.0169
G1 X108.695 Y109.092 E.3226
G1 X108.695 Y109.628 E.0169
G1 X115.93 Y116.864 E.3226
G1 X115.93 Y117.4 E.0169
G1 X108.695 Y110.164 E.3226
G1 X108.695 Y110.7 E.0169
G1 X115.93 Y117.936 E.3226
G1 X115.93 Y118.472 E.0169
G1 X108.695 Y111.237 E.3226
G1 X108.695 Y111.773 E.0169
G1 X115.93 Y119.009 E.3226
G1 X115.93 Y119.545 E.0169
G1 X108.695 Y112.309 E.3226
G1 X108.695 Y112.845 E.0169
G1 X115.93 Y120.081 E.3226
G1 X115.93 Y120.617 E.0169
G1 X108.695 Y113.381 E.3226
G1 X108.695 Y113.918 E.0169
G1 X115.93 Y121.153 E.3226
G1 X115.93 Y121.69 E.0169
G1 X108.695 Y114.454 E.3226
G1 X108.695 Y114.99 E.0169
G1 X115.93 Y122.226 E.3226
G1 X115.93 Y122.762 E.0169
G1 X108.695 Y115.526 E.3226
G1 X108.695 Y116.062 E.0169
G1 X115.93 Y123.298 E.3226
G1 X115.93 Y123.834 E.0169
G1 X108.695 Y116.599 E.3226
G1 X108.695 Y117.135 E.0169
G1 X115.93 Y124.371 E.3226
G1 X115.93 Y124.907 E.0169
G1 X108.695 Y117.671 E.3226
G1 X108.695 Y118.207 E.0169
G1 X115.93 Y125.443 E.3226
G1 X115.93 Y125.979 E.0169
G1 X108.695 Y118.743 E.3226
G1 X108.695 Y119.28 E.0169
G1 X115.93 Y126.515 E.3226
G1 X115.93 Y127.052 E.0169
G1 X108.695 Y119.816 E.3226
G1 X108.695 Y120.352 E.0169
G1 X115.93 Y127.588 E.3226
G1 X115.93 Y128.124 E.0169
G1 X108.695 Y120.888 E.3226
G1 X108.695 Y121.424 E.0169
G1 X115.93 Y128.66 E.3226
G1 X115.93 Y129.196 E.0169
G1 X108.695 Y121.961 E.3226
G1 X108.695 Y122.497 E.0169
G1 X115.93 Y129.732 E.3226
G1 X115.93 Y130.269 E.0169
G1 X108.695 Y123.033 E.3226
G1 X108.695 Y123.569 E.0169
G1 X115.93 Y130.805 E.3226
G1 X115.93 Y131.341 E.0169
G1 X108.695 Y124.105 E.3226
G1 X108.695 Y124.642 E.0169
G1 X115.93 Y131.877 E.3226
G1 X115.93 Y132.413 E.0169
G1 X108.695 Y125.178 E.3226
G1 X108.695 Y125.714 E.0169
G1 X115.93 Y132.95 E.3226
G1 X115.93 Y133.486 E.0169
G1 X108.695 Y126.25 E.3226
G1 X108.695 Y126.519 E.00846
G1 X108.667 Y126.759 E.00762
G1 X115.93 Y134.022 E.32384
G1 X115.93 Y134.558 E.0169
G1 X108.611 Y127.239 E.32631
G1 X108.556 Y127.72 E.01526
G1 X115.93 Y135.094 E.32878
G1 X115.93 Y135.631 E.0169
G1 X108.462 Y128.162 E.33299
G1 X108.317 Y128.554 E.01316
G1 X115.93 Y136.167 E.33943
G1 X115.93 Y136.703 E.0169
G1 X108.172 Y128.945 E.34588
G1 X108.025 Y129.334 E.01311
G1 X115.93 Y137.239 E.35244
G1 X115.93 Y137.775 E.0169
G1 X107.826 Y129.671 E.36132
G1 X107.615 Y129.996 E.01222
G1 X115.93 Y138.312 E.37074
G1 X115.93 Y138.848 E.0169
G1 X107.404 Y130.321 E.38015
G1 X107.189 Y130.643 E.01219
G1 X115.93 Y139.384 E.38974
G1 X115.93 Y139.92 E.0169
G1 X106.931 Y130.921 E.40124
G1 X106.665 Y131.191 E.01195
M73 P2 R88
G1 X115.904 Y140.43 E.41191
G1 X115.368 Y140.43 E.0169
G1 X106.4 Y131.462 E.39983
G1 X106.123 Y131.722 E.01196
G1 X114.831 Y140.43 E.38827
G1 X114.295 Y140.43 E.0169
G1 X105.816 Y131.951 E.37803
G1 X105.498 Y132.169 E.01216
G1 X113.759 Y140.43 E.36831
G1 X113.223 Y140.43 E.0169
G1 X105.18 Y132.387 E.3586
G1 X104.828 Y132.572 E.01252
G1 X112.687 Y140.43 E.35038
G1 X112.15 Y140.43 E.0169
G1 X104.465 Y132.745 E.34266
G1 X104.102 Y132.918 E.01268
G1 X111.614 Y140.43 E.33495
G1 X111.078 Y140.43 E.0169
G1 X103.724 Y133.076 E.32788
G1 X103.304 Y133.193 E.01373
G1 X110.542 Y140.43 E.32268
G1 X110.006 Y140.43 E.0169
G1 X102.885 Y133.309 E.31748
G1 X102.465 Y133.426 E.01373
G1 X109.469 Y140.43 E.31228
G1 X108.933 Y140.43 E.0169
M73 P2 R87
G1 X101.982 Y133.478 E.30994
G1 X101.574 Y133.52 E.01291
G1 X101.51 Y133.543 E.00215
G1 X108.397 Y140.43 E.30705
G1 X107.861 Y140.43 E.0169
G1 X101.001 Y133.57 E.30587
G1 X100.464 Y133.57 E.0169
G1 X107.325 Y140.43 E.30587
G1 X106.788 Y140.43 E.0169
G1 X99.928 Y133.57 E.30587
G1 X99.927 Y134.105 E.01686
G1 X106.252 Y140.43 E.28202
G1 X105.716 Y140.43 E.0169
G1 X99.927 Y134.641 E.25811
G1 X99.927 Y135.177 E.0169
G1 X105.18 Y140.43 E.23421
G1 X104.644 Y140.43 E.0169
G1 X99.927 Y135.713 E.2103
G1 X99.927 Y136.25 E.0169
G1 X104.107 Y140.43 E.18639
G1 X103.571 Y140.43 E.0169
G1 X99.927 Y136.786 E.16249
G1 X99.927 Y137.322 E.0169
G1 X103.035 Y140.43 E.13858
G1 X102.499 Y140.43 E.0169
G1 X99.927 Y137.858 E.11467
G1 X99.927 Y138.394 E.0169
G1 X101.963 Y140.43 E.09077
G1 X101.426 Y140.43 E.0169
G1 X99.927 Y138.931 E.06686
G1 X99.927 Y139.467 E.0169
G1 X100.89 Y140.43 E.04295
G1 X100.354 Y140.43 E.0169
G1 X99.757 Y139.833 E.02661
M204 S1000
;WIPE_START
G1 F8640
G1 X100.354 Y140.43 E-.19491
G1 X100.89 Y140.43 E-.12381
G1 X99.927 Y139.467 E-.3146
G1 X99.927 Y138.931 E-.12381
G1 X99.936 Y138.939 E-.00287
;WIPE_END
G1 E-.04 F2100
G1 Z.6 F720
G1 X133.312 Y73.738 F10800
G1 Z.2 F720
G1 E.8 F2100
M204 S800
;TYPE:Perimeter
;WIDTH:0.419999
G1 F1200
G1 X133.221 Y73.713 E.00294
G1 X130.787 Y73.713 E.07633
G1 X130.787 Y69.287 E.13877
G1 X134.861 Y69.287 E.12772
G1 X136.193 Y69.372 E.04187
G1 X137.367 Y69.612 E.03757
G1 X138.409 Y69.988 E.03474
G1 X139.463 Y70.595 E.03813
G1 X140.324 Y71.355 E.03603
G1 X141.003 Y72.294 E.03632
G1 X141.437 Y73.385 E.03682
G1 X141.556 Y74.025 E.0204
G1 X141.588 Y74.525 E.01572
G1 X141.588 Y126.513 E1.63004
G1 X141.745 Y127.86 E.04253
G1 X141.776 Y127.989 E.00416
G1 X142.225 Y129.206 E.04067
G1 X142.282 Y129.318 E.00394
G1 X143.013 Y130.443 E.04206
G1 X143.984 Y131.446 E.04377
G1 X145.048 Y132.2 E.0409
G1 X146.374 Y132.821 E.0459
G1 X147.721 Y133.174 E.04365
G1 X148.697 Y133.287 E.03081
G1 X150.356 Y133.287 E.05202
G1 X150.356 Y140.713 E.23283
G1 X133.787 Y140.713 E.5195
G1 X133.787 Y74.279 E2.083
G1 X133.727 Y74.025 E.00816
G1 X133.516 Y73.796 E.00978
G1 X133.369 Y73.754 E.00478
M204 S1000
G1 X133.221 Y74.09 F10800
M204 S800
;TYPE:External perimeter
G1 F1200
G1 X130.41 Y74.09 E.08815
G1 X130.41 Y68.91 E.16242
G1 X134.873 Y68.91 E.13992
G1 X136.243 Y68.998 E.04306
G1 X137.469 Y69.248 E.03924
G1 X138.568 Y69.645 E.03664
G1 X139.684 Y70.287 E.04036
G1 X140.605 Y71.1 E.03853
G1 X141.337 Y72.111 E.03911
G1 X141.801 Y73.28 E.03944
G1 X141.931 Y73.978 E.02226
G1 X141.965 Y74.513 E.01682
G1 X141.965 Y126.513 E1.63042
G1 X142.119 Y127.816 E.04112
G1 X142.579 Y129.075 E.04204
G1 X143.329 Y130.238 E.04336
G1 X144.202 Y131.138 E.03933
G1 X145.266 Y131.893 E.0409
G1 X146.472 Y132.457 E.04174
G1 X147.754 Y132.798 E.04159
