; generated by PrusaSlicer 2.5.0+win64 on 2022-11-02 at 09:52:54 UTC

; 

; external perimeters extrusion width = 0.60mm
; perimeters extrusion width = 0.43mm
; infill extrusion width = 0.45mm
; solid infill extrusion width = 0.70mm
; top infill extrusion width = 0.45mm
; support material extrusion width = 0.37mm
; first layer extrusion width = 0.42mm

M73 P0 R80
M201 X9000 Y9000 Z500 E10000 ; sets maximum accelerations, mm/sec^2
M203 X500 Y500 Z12 E120 ; sets maximum feedrates, mm / sec
M204 P2000 R1500 T2000 ; sets acceleration (P, T) and retract acceleration (R), mm/sec^2
M205 X10.00 Y10.00 Z0.20 E2.50 ; sets the jerk limits, mm/sec
M205 S0 T0 ; sets the minimum extruding and travel feed rate, mm/sec
M107
;TYPE:Custom
M862.3 P "MK2S" ; printer model check
M862.1 P0.4 ; nozzle diameter check
M115 U3.2.3 ; tell printer latest fw version
G90 ; use absolute coordinates
M83 ; extruder relative mode
M204 S2000 T1500 ; MK2 firmware only supports the old M204 format
M104 S215 ; set extruder temp
M140 S60 ; set bed temp
M190 S60 ; wait for bed temp
M109 S215 ; wait for extruder temp
G28 W ; home all without mesh bed level
G80 ; mesh bed leveling
G1 Z0.2 F720
G1 Y-2 F1000 ; go outside print area
G92 E0
G1 X60 E9 F1000 ; intro line
G1 X100 E12.5 F1000 ; intro line
G92 E0
G21 ; set units to millimeters
G90 ; use absolute coordinates
M83 ; use relative distances for extrusion
M900 K0.05 ; Filament gcode LA 1.5
M900 K30 ; Filament gcode LA 1.0
M107
;LAYER_CHANGE
;Z:0.2
;HEIGHT:0.2
;BEFORE_LAYER_CHANGE
G92 E0.0
;0.2


G1 E-.8 F2100
G1 Z.4 F720
;AFTER_LAYER_CHANGE
;0.2
G1 X106.723 Y78.018 F10800
G1 Z.2 F720
G1 E.8 F2100
M204 S800
;TYPE:Skirt/Brim
;WIDTH:0.42
G1 F1200
G1 X107.612 Y77.076 E.04062
G1 X111.282 Y74 E.15013
G1 X113.769 Y72.097 E.09819
G1 X115.384 Y70.969 E.06176
G1 X117.085 Y69.908 E.06287
G1 X118.973 Y68.9 E.06709
G1 X120 Y68.667 E.03303
G1 X130 Y68.667 E.31354
G1 X131.027 Y68.9 E.03303
G1 X133.712 Y70.384 E.09618
G1 X136.175 Y72.057 E.09335
G1 X139.167 Y74.361 E.11839
G1 X142.242 Y76.939 E.12583
G1 X143.277 Y78.018 E.04688
G1 X143.873 Y78.882 E.03292
G1 X144.412 Y79.857 E.03493
G1 X144.823 Y81.027 E.03887
G1 X156.004 Y131.991 E1.63596
G1 X156.059 Y132.5 E.01604
G1 X156.059 Y141.5 E.28219
G1 X155.667 Y142.807 E.04278
G1 X154.621 Y143.683 E.04278
G1 X153.682 Y143.877 E.03008
G1 X96.318 Y143.877 E1.79859
G1 X95.011 Y143.485 E.04278
G1 X94.135 Y142.44 E.04278
G1 X93.941 Y141.5 E.03008
G1 X93.941 Y132.5 E.28219
G1 X93.996 Y131.991 E.01604
G1 X105.103 Y81.291 E1.62736
G1 X105.792 Y79.433 E.06214
G1 X106.69 Y78.068 E.05125
M204 S1000
; printing object end-effector-suction-2.stl id:0 copy 0
;WIPE_START
G1 F8640
G1 X107.612 Y77.076 E-.31276
G1 X109.097 Y75.831 E-.44724
;WIPE_END
G1 E-.04 F2100
G1 Z.6 F720
G1 X119.213 Y74.903 F10800
G1 Z.2 F720
G1 E.8 F2100
M204 S800
;TYPE:Perimeter
;WIDTH:0.419999
G1 F1200
G1 X118.425 Y75.489 E.0308
G1 X117.485 Y76.549 E.04443
G1 X116.786 Y77.779 E.04436
G1 X116.35 Y79.156 E.04527
G1 X116.213 Y80.49 E.04206
G1 X116.213 Y140.713 E1.88823
G1 X99.644 Y140.713 E.5195
G1 X99.644 Y133.287 E.23283
G1 X101.304 Y133.287 E.05203
G1 X102.378 Y133.157 E.03395
G1 X103.719 Y132.787 E.04361
G1 X104.946 Y132.205 E.04258
G1 X106.037 Y131.431 E.04193
G1 X106.987 Y130.443 E.04299
G1 X107.718 Y129.318 E.04206
G1 X107.775 Y129.206 E.00394
G1 X108.224 Y127.989 E.04067
G1 X108.255 Y127.86 E.00416
G1 X108.412 Y126.513 E.04253
G1 X108.412 Y83.032 E1.36333
G1 X108.539 Y81.957 E.03392
G1 X108.888 Y80.991 E.03222
G1 X109.463 Y80.092 E.03344
G1 X110.39 Y79.172 E.04095
G1 X112.226 Y77.668 E.07441
G1 X113.766 Y76.461 E.06136
G1 X115.128 Y75.448 E.05322
G1 X116.413 Y74.551 E.04914
G1 X117.503 Y73.843 E.04075
G1 X118.501 Y73.247 E.03646
G1 X119.213 Y72.86 E.0254
G1 X119.213 Y74.843 E.06216
M204 S1000
G1 X119.59 Y75.095 F10800
M204 S800
;TYPE:External perimeter
G1 F1200
G1 X118.705 Y75.742 E.03438
G1 X117.811 Y76.739 E.04198
G1 X117.144 Y77.896 E.04189
G1 X116.725 Y79.195 E.04279
G1 X116.59 Y80.49 E.04083
G1 X116.59 Y141.09 E1.90005
G1 X99.267 Y141.09 E.54315
G1 X99.267 Y132.91 E.25648
G1 X101.304 Y132.91 E.06385
G1 X101.727 Y132.844 E.01344
G1 X102.28 Y132.792 E.01742
G1 X103.559 Y132.445 E.04155
G1 X104.733 Y131.893 E.04066
G1 X105.805 Y131.133 E.04122
G1 X106.671 Y130.238 E.03905
G1 X107.421 Y129.075 E.04336
G1 X107.881 Y127.816 E.04204
G1 X108.035 Y126.513 E.04112
G1 X108.035 Y83.009 E1.36403
G1 X108.17 Y81.87 E.03598
M73 P0 R79
G1 X108.548 Y80.823 E.0349
G1 X109.166 Y79.856 E.03598
G1 X110.148 Y78.883 E.04333
G1 X111.99 Y77.374 E.07467
G1 X113.537 Y76.161 E.06164
G1 X114.908 Y75.142 E.05355
G1 X116.202 Y74.238 E.04951
G1 X117.303 Y73.522 E.04117
G1 X118.314 Y72.919 E.03692
G1 X119.59 Y72.244 E.04526
G1 X119.59 Y75.035 E.08752
M204 S1000
G1 X119.191 Y75.125 F10800
;WIPE_START
G1 F8640
G1 X118.705 Y75.742 E-.26157
G1 X117.811 Y76.739 E-.30914
G1 X117.402 Y77.449 E-.18928
;WIPE_END
G1 E-.04 F2100
G1 Z.6 F720
G1 X119.1 Y73.8 F10800
G1 Z.2 F720
G1 E.8 F2100
M204 S800
;TYPE:Solid infill
;WIDTH:0.420248
G1 F1200
G1 X118.739 Y73.439 E.01602
G1 X118.401 Y73.635 E.01225
G1 X118.93 Y74.164 E.02346
G1 X118.93 Y74.698 E.01674
G1 X118.067 Y73.835 E.03829
G1 X117.733 Y74.034 E.01221
G1 X118.658 Y74.959 E.04104
G1 X118.351 Y75.185 E.01197
G1 X117.407 Y74.242 E.04186
G1 X117.084 Y74.452 E.0121
G1 X118.082 Y75.451 E.04431
G1 X117.829 Y75.73 E.01185
G1 X116.76 Y74.662 E.0474
G1 X116.441 Y74.876 E.01207
G1 X117.575 Y76.01 E.05032
G1 X117.323 Y76.292 E.01186
G1 X116.127 Y75.096 E.05309
G1 X115.812 Y75.315 E.01202
G1 X117.117 Y76.62 E.05788
G1 X116.921 Y76.957 E.01225
G1 X115.498 Y75.535 E.06312
G1 X115.187 Y75.757 E.012
G1 X116.725 Y77.295 E.06824
G1 X116.538 Y77.642 E.01236
G1 X114.881 Y75.985 E.07354
G1 X114.575 Y76.212 E.01197
G1 X116.403 Y78.04 E.08112
G1 X116.272 Y78.443 E.01328
G1 X114.269 Y76.44 E.08887
G1 X113.963 Y76.667 E.01197
G1 X116.14 Y78.845 E.09663
G1 X116.069 Y79.122 E.00896
G1 X116.052 Y79.29 E.00531
G1 X113.663 Y76.901 E.106
G1 X113.364 Y77.136 E.01193
G1 X116.003 Y79.774 E.11708
G1 X115.953 Y80.259 E.01527
G1 X113.065 Y77.37 E.12817
G1 X112.765 Y77.604 E.01193
G1 X115.93 Y80.769 E.14042
G1 X115.93 Y81.303 E.01674
G1 X112.466 Y77.839 E.1537
G1 X112.172 Y78.078 E.0119
G1 X115.93 Y81.836 E.16676
G1 X115.93 Y82.37 E.01674
G1 X111.878 Y78.318 E.17978
G1 X111.585 Y78.559 E.0119
G1 X115.93 Y82.904 E.19279
G1 X115.93 Y83.437 E.01674
G1 X111.292 Y78.799 E.2058
G1 X110.999 Y79.039 E.0119
G1 X115.93 Y83.971 E.21882
G1 X115.93 Y84.505 E.01674
G1 X110.705 Y79.28 E.23183
G1 X110.415 Y79.523 E.01188
G1 X115.93 Y85.038 E.2447
G1 X115.93 Y85.572 E.01674
G1 X110.151 Y79.793 E.25641
G1 X109.887 Y80.063 E.01184
G1 X115.93 Y86.105 E.26813
G1 X115.93 Y86.639 E.01674
G1 X109.636 Y80.345 E.27926
G1 X109.428 Y80.671 E.01212
G1 X115.93 Y87.173 E.28849
G1 X115.93 Y87.706 E.01674
G1 X109.22 Y80.996 E.29772
G1 X109.144 Y81.116 E.00447
G1 X109.054 Y81.364 E.00826
G1 X115.93 Y88.24 E.3051
G1 X115.93 Y88.774 E.01674
G1 X108.912 Y81.756 E.31138
G1 X108.816 Y82.023 E.00891
G1 X108.798 Y82.175 E.00481
G1 X115.93 Y89.307 E.31646
G1 X115.93 Y89.841 E.01674
G1 X108.741 Y82.652 E.31897
G1 X108.695 Y83.048 E.01252
G1 X108.695 Y83.139 E.00284
G1 X115.93 Y90.374 E.32105
G1 X115.93 Y90.908 E.01674
G1 X108.695 Y83.672 E.32105
G1 X108.695 Y84.206 E.01674
G1 X115.93 Y91.442 E.32105
G1 X115.93 Y91.975 E.01674
G1 X108.695 Y84.74 E.32105
G1 X108.695 Y85.273 E.01674
M73 P1 R79
G1 X115.93 Y92.509 E.32105
G1 X115.93 Y93.043 E.01674
G1 X108.695 Y85.807 E.32105
G1 X108.695 Y86.341 E.01674
G1 X115.93 Y93.576 E.32105
G1 X115.93 Y94.11 E.01674
G1 X108.695 Y86.874 E.32105
G1 X108.695 Y87.408 E.01674
G1 X115.93 Y94.643 E.32105
G1 X115.93 Y95.177 E.01674
G1 X108.695 Y87.941 E.32105
G1 X108.695 Y88.475 E.01674
G1 X115.93 Y95.711 E.32105
G1 X115.93 Y96.244 E.01674
G1 X108.695 Y89.009 E.32105
G1 X108.695 Y89.542 E.01674
G1 X115.93 Y96.778 E.32105
G1 X115.93 Y97.311 E.01674
G1 X108.695 Y90.076 E.32105
G1 X108.695 Y90.61 E.01674
G1 X115.93 Y97.845 E.32105
G1 X115.93 Y98.379 E.01674
G1 X108.695 Y91.143 E.32105
G1 X108.695 Y91.677 E.01674
G1 X115.93 Y98.912 E.32105
G1 X115.93 Y99.446 E.01674
G1 X108.695 Y92.21 E.32105
G1 X108.695 Y92.744 E.01674
G1 X115.93 Y99.98 E.32105
G1 X115.93 Y100.513 E.01674
G1 X108.695 Y93.278 E.32105
G1 X108.695 Y93.811 E.01674
G1 X115.93 Y101.047 E.32105
G1 X115.93 Y101.58 E.01674
G1 X108.695 Y94.345 E.32105
G1 X108.695 Y94.879 E.01674
G1 X115.93 Y102.114 E.32105
G1 X115.93 Y102.648 E.01674
G1 X108.695 Y95.412 E.32105
G1 X108.695 Y95.946 E.01674
G1 X115.93 Y103.181 E.32105
G1 X115.93 Y103.715 E.01674
G1 X108.695 Y96.479 E.32105
G1 X108.695 Y97.013 E.01674
G1 X115.93 Y104.249 E.32105
G1 X115.93 Y104.782 E.01674
G1 X108.695 Y97.547 E.32105
G1 X108.695 Y98.08 E.01674
G1 X115.93 Y105.316 E.32105
G1 X115.93 Y105.849 E.01674
G1 X108.695 Y98.614 E.32105
G1 X108.695 Y99.147 E.01674
G1 X115.93 Y106.383 E.32105
G1 X115.93 Y106.917 E.01674
G1 X108.695 Y99.681 E.32105
G1 X108.695 Y100.215 E.01674
G1 X115.93 Y107.45 E.32105
G1 X115.93 Y107.984 E.01674
G1 X108.695 Y100.748 E.32105
G1 X108.695 Y101.282 E.01674
G1 X115.93 Y108.518 E.32105
G1 X115.93 Y109.051 E.01674
G1 X108.695 Y101.816 E.32105
G1 X108.695 Y102.349 E.01674
G1 X115.93 Y109.585 E.32105
G1 X115.93 Y110.118 E.01674
G1 X108.695 Y102.883 E.32105
G1 X108.695 Y103.416 E.01674
G1 X115.93 Y110.652 E.32105
G1 X115.93 Y111.186 E.01674
G1 X108.695 Y103.95 E.32105
G1 X108.695 Y104.484 E.01674
G1 X115.93 Y111.719 E.32105
G1 X115.93 Y112.253 E.01674
G1 X108.695 Y105.017 E.32105
G1 X108.695 Y105.551 E.01674
G1 X115.93 Y112.787 E.32105
G1 X115.93 Y113.32 E.01674
G1 X108.695 Y106.085 E.32105
G1 X108.695 Y106.618 E.01674
G1 X115.93 Y113.854 E.32105
G1 X115.93 Y114.387 E.01674
G1 X108.695 Y107.152 E.32105
G1 X108.695 Y107.685 E.01674
G1 X115.93 Y114.921 E.32105
G1 X115.93 Y115.455 E.01674
G1 X108.695 Y108.219 E.32105
G1 X108.695 Y108.753 E.01674
G1 X115.93 Y115.988 E.32105
G1 X115.93 Y116.522 E.01674
G1 X108.695 Y109.286 E.32105
G1 X108.695 Y109.82 E.01674
G1 X115.93 Y117.056 E.32105
G1 X115.93 Y117.589 E.01674
G1 X108.695 Y110.354 E.32105
G1 X108.695 Y110.887 E.01674
G1 X115.93 Y118.123 E.32105
G1 X115.93 Y118.656 E.01674
G1 X108.695 Y111.421 E.32105
G1 X108.695 Y111.954 E.01674
G1 X115.93 Y119.19 E.32105
G1 X115.93 Y119.724 E.01674
G1 X108.695 Y112.488 E.32105
G1 X108.695 Y113.022 E.01674
G1 X115.93 Y120.257 E.32105
G1 X115.93 Y120.791 E.01674
G1 X108.695 Y113.555 E.32105
G1 X108.695 Y114.089 E.01674
G1 X115.93 Y121.324 E.32105
G1 X115.93 Y121.858 E.01674
G1 X108.695 Y114.623 E.32105
G1 X108.695 Y115.156 E.01674
G1 X115.93 Y122.392 E.32105
G1 X115.93 Y122.925 E.01674
G1 X108.695 Y115.69 E.32105
G1 X108.695 Y116.223 E.01674
G1 X115.93 Y123.459 E.32105
G1 X115.93 Y123.993 E.01674
G1 X108.695 Y116.757 E.32105
G1 X108.695 Y117.291 E.01674
G1 X115.93 Y124.526 E.32105
G1 X115.93 Y125.06 E.01674
G1 X108.695 Y117.824 E.32105
G1 X108.695 Y118.358 E.01674
G1 X115.93 Y125.593 E.32105
G1 X115.93 Y126.127 E.01674
G1 X108.695 Y118.892 E.32105
G1 X108.695 Y119.425 E.01674
G1 X115.93 Y126.661 E.32105
G1 X115.93 Y127.194 E.01674
G1 X108.695 Y119.959 E.32105
G1 X108.695 Y120.492 E.01674
G1 X115.93 Y127.728 E.32105
G1 X115.93 Y128.262 E.01674
G1 X108.695 Y121.026 E.32105
G1 X108.695 Y121.56 E.01674
G1 X115.93 Y128.795 E.32105
G1 X115.93 Y129.329 E.01674
G1 X108.695 Y122.093 E.32105
G1 X108.695 Y122.627 E.01674
G1 X115.93 Y129.862 E.32105
G1 X115.93 Y130.396 E.01674
G1 X108.695 Y123.16 E.32105
G1 X108.695 Y123.694 E.01674
G1 X115.93 Y130.93 E.32105
G1 X115.93 Y131.463 E.01674
G1 X108.695 Y124.228 E.32105
G1 X108.695 Y124.761 E.01674
G1 X115.93 Y131.997 E.32105
G1 X115.93 Y132.531 E.01674
G1 X108.695 Y125.295 E.32105
G1 X108.695 Y125.829 E.01674
G1 X115.93 Y133.064 E.32105
G1 X115.93 Y133.598 E.01674
G1 X108.695 Y126.362 E.32105
G1 X108.655 Y126.857 E.01556
G1 X115.93 Y134.131 E.32279
G1 X115.93 Y134.665 E.01674
G1 X108.6 Y127.335 E.32526
G1 X108.544 Y127.813 E.0151
G1 X115.93 Y135.199 E.32773
G1 X115.93 Y135.732 E.01674
G1 X108.427 Y128.229 E.33294
G1 X108.285 Y128.621 E.01309
G1 X115.93 Y136.266 E.3392
G1 X115.93 Y136.8 E.01674
G1 X108.144 Y129.014 E.34546
G1 X107.994 Y129.397 E.01292
M73 P1 R78
G1 X115.93 Y137.333 E.35214
G1 X115.93 Y137.867 E.01674
G1 X107.79 Y129.727 E.36118
G1 X107.58 Y130.05 E.0121
G1 X115.93 Y138.4 E.37051
G1 X115.93 Y138.934 E.01674
G1 X107.37 Y130.374 E.37983
G1 X107.152 Y130.689 E.01203
M73 P2 R78
G1 X115.93 Y139.468 E.38951
G1 X115.93 Y140.001 E.01674
G1 X106.891 Y130.962 E.4011
G1 X106.626 Y131.231 E.01184
G1 X115.825 Y140.43 E.40817
G1 X115.292 Y140.43 E.01674
G1 X106.362 Y131.501 E.39621
G1 X106.215 Y131.651 E.00659
G1 X106.082 Y131.754 E.00529
G1 X114.758 Y140.43 E.38499
G1 X114.225 Y140.43 E.01674
G1 X105.774 Y131.98 E.37494
G1 X105.458 Y132.197 E.01204
G1 X113.691 Y140.43 E.36531
G1 X113.157 Y140.43 E.01674
G1 X105.141 Y132.414 E.35569
G1 X104.785 Y132.592 E.01248
G1 X112.624 Y140.43 E.34779
G1 X112.09 Y140.43 E.01674
G1 X104.424 Y132.764 E.34015
G1 X104.063 Y132.936 E.01256
G1 X111.556 Y140.43 E.33251
G1 X111.023 Y140.43 E.01674
G1 X103.681 Y133.088 E.32577
G1 X103.263 Y133.204 E.0136
G1 X110.489 Y140.43 E.32062
G1 X109.956 Y140.43 E.01674
G1 X102.846 Y133.32 E.31547
G1 X102.425 Y133.434 E.01366
G1 X109.422 Y140.43 E.31045
G1 X108.888 Y140.43 E.01674
G1 X101.941 Y133.483 E.30827
G1 X101.574 Y133.52 E.01156
G1 X101.475 Y133.551 E.00326
G1 X108.355 Y140.43 E.30525
G1 X107.821 Y140.43 E.01674
G1 X100.961 Y133.57 E.3044
G1 X100.427 Y133.57 E.01674
G1 X107.287 Y140.43 E.3044
G1 X106.754 Y140.43 E.01674
G1 X99.927 Y133.603 E.30292
G1 X99.927 Y134.137 E.01674
G1 X106.22 Y140.43 E.27924
G1 X105.687 Y140.43 E.01674
G1 X99.927 Y134.67 E.25556
G1 X99.927 Y135.204 E.01674
G1 X105.153 Y140.43 E.23189
G1 X104.619 Y140.43 E.01674
G1 X99.927 Y135.738 E.20821
G1 X99.927 Y136.271 E.01674
G1 X104.086 Y140.43 E.18453
G1 X103.552 Y140.43 E.01674
G1 X99.927 Y136.805 E.16085
G1 X99.927 Y137.339 E.01674
G1 X103.018 Y140.43 E.13718
G1 X102.485 Y140.43 E.01674
G1 X99.927 Y137.872 E.1135
G1 X99.927 Y138.406 E.01674
G1 X101.951 Y140.43 E.08982
G1 X101.418 Y140.43 E.01674
G1 X99.927 Y138.939 E.06614
G1 X99.927 Y139.473 E.01674
G1 X100.884 Y140.43 E.04247
G1 X100.35 Y140.43 E.01674
G1 X99.757 Y139.837 E.02632
M204 S1000
;WIPE_START
G1 F8640
G1 X100.35 Y140.43 E-.19369
G1 X100.884 Y140.43 E-.12321
G1 X99.927 Y139.473 E-.31253
G1 X99.927 Y138.939 E-.12321
G1 X99.949 Y138.962 E-.00735
;WIPE_END
G1 E-.04 F2100
G1 Z.6 F720
G1 X130.787 Y74.903 F10800
G1 Z.2 F720
G1 E.8 F2100
M204 S800
;TYPE:Perimeter
;WIDTH:0.419999
G1 F1200
G1 X130.787 Y72.859 E.06407
G1 X131.411 Y73.196 E.02223
G1 X132.498 Y73.843 E.03966
G1 X133.587 Y74.551 E.04073
G1 X134.872 Y75.448 E.04914
G1 X136.234 Y76.461 E.05322
G1 X137.774 Y77.668 E.06136
G1 X139.779 Y79.318 E.0814
G1 X140.537 Y80.092 E.03397
G1 X141.112 Y80.991 E.03344
G1 X141.461 Y81.957 E.03222
G1 X141.588 Y83.032 E.03392
G1 X141.588 Y126.513 E1.36333
G1 X141.745 Y127.86 E.04253
G1 X141.776 Y127.989 E.00416
G1 X142.225 Y129.206 E.04067
G1 X142.282 Y129.318 E.00394
G1 X143.013 Y130.443 E.04206
G1 X143.984 Y131.446 E.04377
G1 X145.048 Y132.2 E.0409
G1 X146.374 Y132.821 E.0459
G1 X147.721 Y133.174 E.04365
G1 X148.697 Y133.287 E.03081
G1 X150.356 Y133.287 E.05202
G1 X150.356 Y140.713 E.23283
G1 X133.787 Y140.713 E.5195
G1 X133.787 Y80.49 E1.88823
G1 X133.626 Y79.039 E.04578
G1 X133.166 Y77.671 E.04526
G1 X132.515 Y76.549 E.04066
G1 X131.489 Y75.413 E.04802
G1 X130.836 Y74.938 E.02532
M204 S1000
G1 X130.41 Y75.095 F10800
M204 S800
;TYPE:External perimeter
G1 F1200
G1 X130.41 Y72.244 E.08939
G1 X131.597 Y72.868 E.04205
G1 X132.697 Y73.523 E.04014
G1 X133.798 Y74.238 E.04116
G1 X135.092 Y75.142 E.04951
G1 X136.463 Y76.161 E.05355
G1 X138.01 Y77.374 E.06164
G1 X139.818 Y78.855 E.07327
G1 X140.037 Y79.042 E.00905
G1 X140.834 Y79.856 E.03571
G1 X141.452 Y80.823 E.03598
G1 X141.83 Y81.87 E.0349
G1 X141.965 Y83.009 E.03598
G1 X141.965 Y126.513 E1.36403
G1 X142.119 Y127.816 E.04112
G1 X142.579 Y129.075 E.04204
G1 X143.329 Y130.238 E.04336
G1 X144.202 Y131.138 E.03933
G1 X145.266 Y131.893 E.0409
