; generated by PrusaSlicer 2.5.0+win64 on 2022-10-31 at 16:34:49 UTC

; 

; external perimeters extrusion width = 0.60mm
; perimeters extrusion width = 0.43mm
; infill extrusion width = 0.45mm
; solid infill extrusion width = 0.70mm
; top infill extrusion width = 0.45mm
; support material extrusion width = 0.37mm
; first layer extrusion width = 0.42mm

M73 P0 R105
M201 X9000 Y9000 Z500 E10000 ; sets maximum accelerations, mm/sec^2
M203 X500 Y500 Z12 E120 ; sets maximum feedrates, mm / sec
M204 P2000 R1500 T2000 ; sets acceleration (P, T) and retract acceleration (R), mm/sec^2
M205 X10.00 Y10.00 Z0.20 E2.50 ; sets the jerk limits, mm/sec
M205 S0 T0 ; sets the minimum extruding and travel feed rate, mm/sec
M107
;TYPE:Custom
M862.3 P "MK2S" ; printer model check
M862.1 P0.4 ; nozzle diameter check
M115 U3.2.3 ; tell printer latest fw version
G90 ; use absolute coordinates
M83 ; extruder relative mode
M204 S2000 T1500 ; MK2 firmware only supports the old M204 format
M104 S215 ; set extruder temp
M140 S60 ; set bed temp
M190 S60 ; wait for bed temp
M109 S215 ; wait for extruder temp
G28 W ; home all without mesh bed level
G80 ; mesh bed leveling
G1 Z0.2 F720
G1 Y-2 F1000 ; go outside print area
G92 E0
G1 X60 E9 F1000 ; intro line
G1 X100 E12.5 F1000 ; intro line
G92 E0
G21 ; set units to millimeters
G90 ; use absolute coordinates
M83 ; use relative distances for extrusion
M900 K0.05 ; Filament gcode LA 1.5
M900 K30 ; Filament gcode LA 1.0
M107
;LAYER_CHANGE
;Z:0.2
;HEIGHT:0.2
;BEFORE_LAYER_CHANGE
G92 E0.0
;0.2


G1 E-.8 F2100
G1 Z.4 F720
;AFTER_LAYER_CHANGE
;0.2
G1 X106.052 Y76.527 F10800
G1 Z.2 F720
G1 E.8 F2100
M204 S800
;TYPE:Skirt/Brim
;WIDTH:0.42
G1 F1200
G1 X107.215 Y74.984 E.06059
G1 X114.193 Y68.808 E.29217
G1 X115.768 Y68.211 E.0528
G1 X134.232 Y68.211 E.57894
G1 X135.807 Y68.808 E.0528
G1 X142.785 Y74.984 E.29217
G1 X143.948 Y76.527 E.06059
G1 X167.789 Y119.801 E1.54912
G1 X168.084 Y120.947 E.03711
G1 X168.084 Y133.117 E.38157
G1 X167.692 Y134.424 E.04278
G1 X166.173 Y135.448 E.05744
G1 X134.232 Y141.789 E1.02102
G1 X115.299 Y141.742 E.59364
G1 X95.85 Y137.83 E.62204
G1 X89.675 Y135.312 E.20908
G1 X88.619 Y134.448 E.04278
G1 X88.211 Y133.117 E.04366
G1 X88.211 Y120.947 E.38157
G1 X88.384 Y120.058 E.02841
G1 X105.585 Y77.436 E1.4411
G1 X106.024 Y76.58 E.03017
M204 S1000
; printing object end-effector-suction-1.stl id:0 copy 0
;WIPE_START
G1 F8640
G1 X107.215 Y74.984 E-.45983
G1 X108.189 Y74.122 E-.30017
;WIPE_END
G1 E-.04 F2100
G1 Z.6 F720
G1 X134.232 Y73.93 F10800
G1 Z.2 F720
G1 E.8 F2100
M204 S800
;TYPE:Support material
G1 F1200
G1 X130.164 Y73.93 E.12756
G1 X129.83 Y74.264 E.01481
G1 X129.83 Y80.736 E.20293
G1 X130.164 Y81.07 E.01481
G1 X132.43 Y81.07 E.07105
G1 X132.43 Y116.736 E1.11829
G1 X132.764 Y117.07 E.01481
G1 X142.611 Y117.07 E.30876
G1 X142.945 Y116.736 E.01481
G1 X142.945 Y108.358 E.2627
G1 X153.117 Y108.358 E.31892
G1 X153.117 Y120.947 E.39474
G1 X165.707 Y120.947 E.39474
G1 X165.707 Y133.117 E.38157
G1 X151.713 Y133.117 E.43876
G1 X151.713 Y129.264 E.12081
G1 X151.379 Y128.93 E.01481
G1 X148.773 Y128.93 E.08172
G1 X148.11 Y128.872 E.02087
G1 X147.294 Y128.761 E.02582
G1 X144.024 Y128.181 E.10412
G1 X142.665 Y128.013 E.04294
G1 X141.139 Y127.931 E.0479
G1 X132.764 Y127.93 E.2626
G1 X132.43 Y128.264 E.01481
G1 X132.43 Y135.736 E.23429
G1 X132.764 Y136.07 E.01481
G1 X134.232 Y136.07 E.04604
G1 X134.232 Y139.412 E.10478
G1 X115.768 Y139.412 E.57894
G1 X115.768 Y136.07 E.10478
G1 X117.236 Y136.07 E.04604
G1 X117.57 Y135.736 E.01481
G1 X117.57 Y128.264 E.23429
G1 X117.236 Y127.93 E.01481
G1 X108.861 Y127.931 E.2626
G1 X107.327 Y128.014 E.04817
G1 X105.77 Y128.219 E.04925
G1 X103.973 Y128.524 E.05714
G1 X102.715 Y128.76 E.04011
G1 X101.895 Y128.872 E.02597
G1 X101.227 Y128.93 E.021
G1 X98.621 Y128.93 E.08173
G1 X98.287 Y129.264 E.01481
G1 X98.287 Y133.117 E.12081
G1 X90.588 Y133.117 E.24139
G1 X90.588 Y120.947 E.38157
G1 X96.883 Y120.947 E.19737
G1 X96.883 Y108.358 E.39474
G1 X107.055 Y108.358 E.31892
G1 X107.055 Y116.736 E.2627
G1 X107.389 Y117.07 E.01481
G1 X117.236 Y117.07 E.30876
G1 X117.57 Y116.736 E.01481
G1 X117.57 Y81.07 E1.11829
G1 X119.836 Y81.07 E.07105
G1 X120.17 Y80.736 E.01481
G1 X120.17 Y74.264 E.20293
G1 X119.836 Y73.93 E.01481
G1 X115.768 Y73.93 E.12756
G1 X115.768 Y70.588 E.10478
G1 X134.232 Y70.588 E.57894
G1 X134.232 Y73.873 E.10301
M204 S1000
;WIPE_START
G1 F8640
G1 X134.232 Y70.588 E-.75857
G1 X134.226 Y70.588 E-.00143
;WIPE_END
G1 E-.04 F2100
G1 Z.6 F720
G1 X165.222 Y132.947 F10800
G1 Z.2 F720
G1 E.8 F2100
M204 S800
G1 F1200
G1 X165.222 Y121.287 E.36561
G1 X164.803 Y121.287 E.01314
G1 X164.803 Y132.778 E.36029
G1 X164.384 Y132.778 E.01314
G1 X164.384 Y121.287 E.36029
G1 X163.965 Y121.287 E.01314
G1 X163.965 Y132.778 E.36029
G1 X163.546 Y132.778 E.01314
G1 X163.546 Y121.287 E.36029
G1 X163.127 Y121.287 E.01314
G1 X163.127 Y132.778 E.36029
G1 X162.708 Y132.778 E.01314
G1 X162.708 Y121.287 E.36029
G1 X162.289 Y121.287 E.01314
G1 X162.289 Y132.778 E.36029
G1 X161.87 Y132.778 E.01314
G1 X161.87 Y121.287 E.36029
G1 X161.451 Y121.287 E.01314
G1 X161.451 Y132.778 E.36029
G1 X161.032 Y132.778 E.01314
G1 X161.032 Y121.287 E.36029
G1 X160.613 Y121.287 E.01314
G1 X160.613 Y132.778 E.36029
G1 X160.194 Y132.778 E.01314
G1 X160.194 Y121.287 E.36029
G1 X159.775 Y121.287 E.01314
G1 X159.775 Y132.778 E.36029
G1 X159.356 Y132.778 E.01314
G1 X159.356 Y121.287 E.36029
G1 X158.937 Y121.287 E.01314
G1 X158.937 Y132.778 E.36029
G1 X158.518 Y132.778 E.01314
G1 X158.518 Y121.287 E.36029
G1 X158.099 Y121.287 E.01314
M73 P0 R104
G1 X158.099 Y132.778 E.36029
G1 X157.68 Y132.778 E.01314
G1 X157.68 Y121.287 E.36029
G1 X157.261 Y121.287 E.01314
G1 X157.261 Y132.778 E.36029
G1 X156.842 Y132.778 E.01314
G1 X156.842 Y121.287 E.36029
G1 X156.423 Y121.287 E.01314
G1 X156.423 Y132.778 E.36029
G1 X156.004 Y132.778 E.01314
G1 X156.004 Y121.287 E.36029
G1 X155.585 Y121.287 E.01314
G1 X155.585 Y132.778 E.36029
G1 X155.166 Y132.778 E.01314
G1 X155.166 Y121.287 E.36029
G1 X154.747 Y121.287 E.01314
G1 X154.747 Y132.778 E.36029
G1 X154.328 Y132.778 E.01314
G1 X154.328 Y121.287 E.36029
G1 X153.909 Y121.287 E.01314
G1 X153.909 Y132.778 E.36029
G1 X153.49 Y132.778 E.01314
G1 X153.49 Y121.287 E.36029
G1 X153.071 Y121.287 E.01314
G1 X153.071 Y132.778 E.36029
G1 X152.652 Y132.778 E.01314
G1 X152.652 Y108.697 E.75503
G1 X152.234 Y108.697 E.01314
G1 X152.234 Y132.778 E.75503
G1 X152.052 Y132.778 E.00568
G1 X152.052 Y129.123 E.11458
G1 X151.815 Y128.885 E.01055
G1 X151.815 Y108.697 E.633
G1 X151.396 Y108.697 E.01314
G1 X151.396 Y128.591 E.62375
G1 X150.977 Y128.591 E.01314
G1 X150.977 Y108.697 E.62375
G1 X150.558 Y108.697 E.01314
G1 X150.558 Y128.591 E.62375
G1 X150.139 Y128.591 E.01314
M73 P1 R104
G1 X150.139 Y108.697 E.62375
G1 X149.72 Y108.697 E.01314
G1 X149.72 Y128.591 E.62375
G1 X149.301 Y128.591 E.01314
G1 X149.301 Y108.697 E.62375
G1 X148.882 Y108.697 E.01314
G1 X148.882 Y128.591 E.62375
G1 X148.463 Y128.562 E.01317
G1 X148.463 Y108.697 E.62286
G1 X148.044 Y108.697 E.01314
G1 X148.044 Y128.52 E.62155
G1 X147.625 Y128.464 E.01326
G1 X147.625 Y108.697 E.61977
G1 X147.206 Y108.697 E.01314
G1 X147.206 Y128.394 E.6176
G1 X146.787 Y128.318 E.01335
G1 X146.787 Y108.697 E.6152
G1 X146.368 Y108.697 E.01314
G1 X146.368 Y128.241 E.6128
G1 X145.949 Y128.167 E.01334
G1 X145.949 Y108.697 E.61047
G1 X145.53 Y108.697 E.01314
G1 X145.53 Y128.097 E.60827
G1 X145.111 Y128.027 E.01332
G1 X145.111 Y108.697 E.60607
G1 X144.692 Y108.697 E.01314
G1 X144.692 Y127.956 E.60384
G1 X144.273 Y127.882 E.01334
G1 X144.273 Y108.697 E.60152
G1 X143.854 Y108.697 E.01314
G1 X143.854 Y127.818 E.59953
G1 X143.435 Y127.766 E.01324
G1 X143.435 Y108.697 E.5979
G1 X143.285 Y108.697 E.00471
G1 X143.285 Y116.877 E.25647
G1 X143.016 Y117.145 E.01191
G1 X143.016 Y127.714 E.33138
G1 X142.597 Y127.67 E.01321
G1 X142.597 Y117.409 E.32171
G1 X142.178 Y117.409 E.01314
G1 X142.178 Y127.648 E.32103
G1 X141.759 Y127.627 E.01315
G1 X141.759 Y117.409 E.32035
G1 X141.34 Y117.409 E.01314
G1 X141.34 Y127.605 E.31967
G1 X140.921 Y127.591 E.01314
G1 X140.921 Y117.409 E.31923
G1 X140.502 Y117.409 E.01314
G1 X140.502 Y127.591 E.31923
G1 X140.083 Y127.591 E.01314
G1 X140.083 Y117.409 E.31923
G1 X139.664 Y117.409 E.01314
G1 X139.664 Y127.591 E.31923
G1 X139.245 Y127.591 E.01314
G1 X139.245 Y117.409 E.31923
G1 X138.826 Y117.409 E.01314
G1 X138.826 Y127.591 E.31923
G1 X138.407 Y127.591 E.01314
G1 X138.407 Y117.409 E.31923
G1 X137.988 Y117.409 E.01314
G1 X137.988 Y127.591 E.31923
G1 X137.569 Y127.591 E.01314
G1 X137.569 Y117.409 E.31923
G1 X137.15 Y117.409 E.01314
G1 X137.15 Y127.591 E.31923
G1 X136.731 Y127.591 E.01314
G1 X136.731 Y117.409 E.31923
G1 X136.312 Y117.409 E.01314
G1 X136.312 Y127.591 E.31923
G1 X135.893 Y127.591 E.01314
G1 X135.893 Y117.409 E.31923
G1 X135.474 Y117.409 E.01314
G1 X135.474 Y127.591 E.31923
G1 X135.055 Y127.591 E.01314
G1 X135.055 Y117.409 E.31923
G1 X134.636 Y117.409 E.01314
G1 X134.636 Y127.591 E.31923
G1 X134.217 Y127.591 E.01314
G1 X134.217 Y117.409 E.31923
G1 X133.799 Y117.409 E.01314
G1 X133.799 Y127.591 E.31923
G1 X133.38 Y127.591 E.01314
G1 X133.38 Y117.409 E.31923
G1 X132.961 Y117.409 E.01314
G1 X132.961 Y127.591 E.31923
G1 X132.623 Y127.591 E.01057
G1 X132.542 Y127.672 E.00362
G1 X132.542 Y117.328 E.32435
G1 X132.123 Y116.909 E.01858
G1 X132.123 Y139.072 E.69493
G1 X132.542 Y139.072 E.01314
G1 X132.542 Y136.328 E.08606
G1 X132.623 Y136.409 E.00362
G1 X132.961 Y136.409 E.01057
G1 X132.961 Y139.072 E.0835
G1 X133.38 Y139.072 E.01314
G1 X133.38 Y136.409 E.0835
G1 X133.799 Y136.409 E.01314
G1 X133.799 Y139.242 E.08882
M204 S1000
;WIPE_START
G1 F8640
G1 X133.799 Y136.409 E-.65409
G1 X133.38 Y136.409 E-.09674
G1 X133.38 Y136.449 E-.00917
;WIPE_END
G1 E-.04 F2100
G1 Z.6 F720
G1 X133.799 Y73.76 F10800
G1 Z.2 F720
G1 E.8 F2100
M204 S800
G1 F1200
G1 X133.799 Y70.928 E.08882
G1 X133.38 Y70.928 E.01314
G1 X133.38 Y73.591 E.0835
G1 X132.961 Y73.591 E.01314
G1 X132.961 Y70.928 E.0835
G1 X132.542 Y70.928 E.01314
G1 X132.542 Y73.591 E.0835
G1 X132.123 Y73.591 E.01314
G1 X132.123 Y70.928 E.0835
G1 X131.704 Y70.928 E.01314
G1 X131.704 Y73.591 E.0835
G1 X131.285 Y73.591 E.01314
G1 X131.285 Y70.928 E.0835
G1 X130.866 Y70.928 E.01314
G1 X130.866 Y73.591 E.0835
G1 X130.447 Y73.591 E.01314
G1 X130.447 Y70.928 E.0835
G1 X130.028 Y70.928 E.01314
G1 X130.028 Y73.826 E.09088
M204 S1000
;WIPE_START
G1 F8640
G1 X130.028 Y70.928 E-.6693
G1 X130.421 Y70.928 E-.0907
;WIPE_END
G1 E-.04 F2100
G1 Z.6 F720
G1 X131.704 Y139.242 F10800
G1 Z.2 F720
G1 E.8 F2100
M204 S800
G1 F1200
G1 X131.704 Y81.409 E1.81331
G1 X131.285 Y81.409 E.01314
G1 X131.285 Y139.072 E1.80798
G1 X130.866 Y139.072 E.01314
G1 X130.866 Y81.409 E1.80798
G1 X130.447 Y81.409 E.01314
M73 P1 R103
G1 X130.447 Y139.072 E1.80798
G1 X130.028 Y139.072 E.01314
G1 X130.028 Y81.174 E1.81537
M204 S1000
G1 X129.609 Y139.242 F10800
M204 S800
G1 F1200
G1 X129.609 Y70.928 E2.14195
G1 X129.19 Y70.928 E.01314
G1 X129.19 Y139.072 E2.13663
G1 X128.771 Y139.072 E.01314
G1 X128.771 Y70.928 E2.13663
G1 X128.352 Y70.928 E.01314
G1 X128.352 Y139.072 E2.13663
G1 X127.933 Y139.072 E.01314
M73 P2 R103
G1 X127.933 Y70.928 E2.13663
G1 X127.514 Y70.928 E.01314
G1 X127.514 Y139.072 E2.13663
G1 X127.095 Y139.072 E.01314
G1 X127.095 Y70.928 E2.13663
G1 X126.676 Y70.928 E.01314
G1 X126.676 Y139.072 E2.13663
G1 X126.257 Y139.072 E.01314
G1 X126.257 Y70.928 E2.13663
G1 X125.838 Y70.928 E.01314
G1 X125.838 Y139.072 E2.13663
G1 X125.419 Y139.072 E.01314
G1 X125.419 Y70.928 E2.13663
G1 X125 Y70.928 E.01314
G1 X125 Y139.072 E2.13663
G1 X124.581 Y139.072 E.01314
G1 X124.581 Y70.928 E2.13663
G1 X124.162 Y70.928 E.01314
G1 X124.162 Y139.072 E2.13663
G1 X123.743 Y139.072 E.01314
G1 X123.743 Y70.928 E2.13663
G1 X123.324 Y70.928 E.01314
G1 X123.324 Y139.072 E2.13663
G1 X122.905 Y139.072 E.01314
M73 P2 R102
G1 X122.905 Y70.928 E2.13663
G1 X122.486 Y70.928 E.01314
G1 X122.486 Y139.072 E2.13663
G1 X122.067 Y139.072 E.01314
G1 X122.067 Y70.928 E2.13663
G1 X121.648 Y70.928 E.01314
G1 X121.648 Y139.072 E2.13663
G1 X121.229 Y139.072 E.01314
G1 X121.229 Y70.928 E2.13663
G1 X120.81 Y70.928 E.01314
G1 X120.81 Y139.072 E2.13663
G1 X120.391 Y139.072 E.01314
M73 P3 R102
G1 X120.391 Y70.928 E2.13663
G1 X119.972 Y70.928 E.01314
G1 X119.972 Y73.591 E.0835
G1 X119.553 Y73.591 E.01314
G1 X119.553 Y70.928 E.0835
G1 X119.134 Y70.928 E.01314
G1 X119.134 Y73.591 E.0835
G1 X118.715 Y73.591 E.01314
G1 X118.715 Y70.928 E.0835
G1 X118.296 Y70.928 E.01314
G1 X118.296 Y73.591 E.0835
G1 X117.877 Y73.591 E.01314
G1 X117.877 Y70.928 E.0835
G1 X117.458 Y70.928 E.01314
G1 X117.458 Y73.591 E.0835
G1 X117.039 Y73.591 E.01314
G1 X117.039 Y70.928 E.0835
G1 X116.62 Y70.928 E.01314
G1 X116.62 Y73.591 E.0835
G1 X116.201 Y73.591 E.01314
G1 X116.201 Y70.758 E.08882
M204 S1000
;WIPE_START
G1 F8640
G1 X116.201 Y73.591 E-.65409
G1 X116.62 Y73.591 E-.09674
G1 X116.62 Y73.551 E-.00917
;WIPE_END
G1 E-.04 F2100
G1 Z.6 F720
G1 X119.972 Y139.242 F10800
G1 Z.2 F720
G1 E.8 F2100
M204 S800
G1 F1200
G1 X119.972 Y81.409 E1.81331
G1 X119.553 Y81.409 E.01314
G1 X119.553 Y139.072 E1.80798
G1 X119.134 Y139.072 E.01314
G1 X119.134 Y81.409 E1.80798
G1 X118.715 Y81.409 E.01314
G1 X118.715 Y139.072 E1.80798
G1 X118.296 Y139.072 E.01314
G1 X118.296 Y81.409 E1.80798
G1 X117.909 Y81.409 E.01213
G1 X117.909 Y116.877 E1.11205
G1 X117.877 Y116.909 E.00142
G1 X117.877 Y139.072 E.69493
G1 X117.458 Y139.072 E.01314
G1 X117.458 Y136.328 E.08606
G1 X117.377 Y136.409 E.00362
G1 X117.039 Y136.409 E.01057
G1 X117.039 Y139.072 E.0835
G1 X116.62 Y139.072 E.01314
G1 X116.62 Y136.409 E.0835
G1 X116.201 Y136.409 E.01314
G1 X116.201 Y139.242 E.08882
M204 S1000
;WIPE_START
G1 F8640
G1 X116.201 Y136.409 E-.65409
G1 X116.62 Y136.409 E-.09674
G1 X116.62 Y136.449 E-.00917
;WIPE_END
G1 E-.04 F2100
G1 Z.6 F720
G1 X117.458 Y127.912 F10800
G1 Z.2 F720
G1 E.8 F2100
M204 S800
G1 F1200
G1 X117.458 Y117.328 E.33188
G1 X117.377 Y117.409 E.00362
G1 X117.039 Y117.409 E.01057
G1 X117.039 Y127.591 E.31923
G1 X116.62 Y127.591 E.01314
G1 X116.62 Y117.409 E.31923
G1 X116.201 Y117.409 E.01314
G1 X116.201 Y127.591 E.31923
G1 X115.783 Y127.591 E.01314
G1 X115.783 Y117.409 E.31923
G1 X115.364 Y117.409 E.01314
G1 X115.364 Y127.591 E.31923
G1 X114.945 Y127.591 E.01314
G1 X114.945 Y117.409 E.31923
G1 X114.526 Y117.409 E.01314
G1 X114.526 Y127.591 E.31923
G1 X114.107 Y127.591 E.01314
G1 X114.107 Y117.409 E.31923
G1 X113.688 Y117.409 E.01314
G1 X113.688 Y127.591 E.31923
G1 X113.269 Y127.591 E.01314
G1 X113.269 Y117.409 E.31923
G1 X112.85 Y117.409 E.01314
G1 X112.85 Y127.591 E.31923
G1 X112.431 Y127.591 E.01314
G1 X112.431 Y117.409 E.31923
G1 X112.012 Y117.409 E.01314
G1 X112.012 Y127.591 E.31923
G1 X111.593 Y127.591 E.01314
G1 X111.593 Y117.409 E.31923
G1 X111.174 Y117.409 E.01314
G1 X111.174 Y127.591 E.31923
G1 X110.755 Y127.591 E.01314
G1 X110.755 Y117.409 E.31923
G1 X110.336 Y117.409 E.01314
G1 X110.336 Y127.591 E.31923
G1 X109.917 Y127.591 E.01314
G1 X109.917 Y117.409 E.31923
G1 X109.498 Y117.409 E.01314
G1 X109.498 Y127.591 E.31923
G1 X109.079 Y127.591 E.01314
G1 X109.079 Y117.409 E.31923
G1 X108.66 Y117.409 E.01314
G1 X108.66 Y127.605 E.31967
G1 X108.241 Y127.627 E.01315
G1 X108.241 Y117.409 E.32035
G1 X107.822 Y117.409 E.01314
G1 X107.822 Y127.648 E.32103
G1 X107.403 Y127.67 E.01315
M73 P3 R101
G1 X107.403 Y117.409 E.32171
G1 X107.248 Y117.409 E.00486
G1 X106.984 Y117.145 E.01171
G1 X106.984 Y127.727 E.33178
G1 X106.565 Y127.779 E.01324
G1 X106.565 Y108.697 E.5983
G1 X106.146 Y108.697 E.01314
G1 X106.146 Y127.831 E.59993
G1 X105.727 Y127.883 E.01324
G1 X105.727 Y108.697 E.60156
G1 X105.308 Y108.697 E.01314
G1 X105.308 Y127.956 E.60384
G1 X104.889 Y128.027 E.01332
G1 X104.889 Y108.697 E.60607
G1 X104.47 Y108.697 E.01314
G1 X104.47 Y128.097 E.60827
G1 X104.051 Y128.167 E.01332
G1 X104.051 Y108.697 E.61047
G1 X103.632 Y108.697 E.01314
G1 X103.632 Y128.243 E.61285
G1 X103.213 Y128.322 E.01337
G1 X103.213 Y108.697 E.61532
G1 X102.794 Y108.697 E.01314
G1 X102.794 Y128.4 E.61778
G1 X102.375 Y128.464 E.01329
G1 X102.375 Y108.697 E.61979
