; generated by PrusaSlicer 2.5.0+win64 on 2022-11-02 at 13:50:42 UTC

; 

; external perimeters extrusion width = 0.60mm
; perimeters extrusion width = 0.43mm
; infill extrusion width = 0.45mm
; solid infill extrusion width = 0.70mm
; top infill extrusion width = 0.45mm
; first layer extrusion width = 0.42mm

M73 P0 R63
M201 X9000 Y9000 Z500 E10000 ; sets maximum accelerations, mm/sec^2
M203 X500 Y500 Z12 E120 ; sets maximum feedrates, mm / sec
M204 P2000 R1500 T2000 ; sets acceleration (P, T) and retract acceleration (R), mm/sec^2
M205 X10.00 Y10.00 Z0.20 E2.50 ; sets the jerk limits, mm/sec
M205 S0 T0 ; sets the minimum extruding and travel feed rate, mm/sec
M107
;TYPE:Custom
M862.3 P "MK2S" ; printer model check
M862.1 P0.4 ; nozzle diameter check
M115 U3.2.3 ; tell printer latest fw version
G90 ; use absolute coordinates
M83 ; extruder relative mode
M204 S2000 T1500 ; MK2 firmware only supports the old M204 format
M104 S215 ; set extruder temp
M140 S60 ; set bed temp
M190 S60 ; wait for bed temp
M109 S215 ; wait for extruder temp
G28 W ; home all without mesh bed level
G80 ; mesh bed leveling
G1 Z0.2 F720
G1 Y-2 F1000 ; go outside print area
G92 E0
G1 X60 E9 F1000 ; intro line
G1 X100 E12.5 F1000 ; intro line
G92 E0
G21 ; set units to millimeters
G90 ; use absolute coordinates
M83 ; use relative distances for extrusion
M900 K0.05 ; Filament gcode LA 1.5
M900 K30 ; Filament gcode LA 1.0
M107
;LAYER_CHANGE
;Z:0.2
;HEIGHT:0.2
;BEFORE_LAYER_CHANGE
G92 E0.0
;0.2


M73 P0 R62
G1 E-.8 F2100
G1 Z.4 F720
;AFTER_LAYER_CHANGE
;0.2
G1 X14.817 Y97.161 F10800
G1 Z.2 F720
G1 E.8 F2100
M204 S800
;TYPE:Skirt/Brim
;WIDTH:0.42
G1 F1200
G1 X243.882 Y97.161 E7.18217
G1 X245.189 Y97.553 E.04278
G1 X246.066 Y98.598 E.04278
G1 X246.259 Y99.538 E.03008
G1 X246.259 Y119.538 E.62709
G1 X245.868 Y120.845 E.04278
G1 X244.822 Y121.722 E.04278
G1 X243.882 Y121.915 E.03008
G1 X14.817 Y121.915 E7.18217
G1 X13.51 Y121.524 E.04278
G1 X12.634 Y120.478 E.04278
G1 X12.44 Y119.538 E.03008
G1 X12.44 Y99.538 E.62709
G1 X12.832 Y98.231 E.04278
G1 X13.878 Y97.355 E.04278
G1 X14.759 Y97.173 E.0282
M204 S1000
; printing object gradient-test-1.stl id:0 copy 0
;WIPE_START
G1 F8640
G1 X18.05 Y97.173 E-.76
;WIPE_END
G1 E-.04 F2100
G1 Z.6 F720
G1 X243.095 Y118.751 F10800
G1 Z.2 F720
G1 E.8 F2100
M204 S800
;TYPE:Perimeter
;WIDTH:0.419999
G1 F1200
G1 X15.604 Y118.751 E7.1328
G1 X15.604 Y100.325 E.57773
M73 P1 R62
G1 X243.095 Y100.325 E7.1328
G1 X243.095 Y118.691 E.57585
M204 S1000
G1 X243.472 Y119.128 F10800
M204 S800
;TYPE:External perimeter
G1 F1200
G1 X15.227 Y119.128 E7.15645
G1 X15.227 Y99.948 E.60137
M73 P1 R61
G1 X243.472 Y99.948 E7.15645
G1 X243.472 Y119.068 E.59949
M204 S1000
M73 P2 R61
G1 X243.072 Y119.117 F10800
;WIPE_START
G1 F8640
G1 X240.181 Y119.069 E-.76
;WIPE_END
G1 E-.04 F2100
G1 Z.6 F720
G1 X242.219 Y100.438 F10800
G1 Z.2 F720
G1 E.8 F2100
M204 S800
;TYPE:Solid infill
;WIDTH:0.42036
G1 F1200
G1 X242.812 Y101.032 E.02634
G1 X242.812 Y101.566 E.01675
G1 X241.855 Y100.608 E.0425
G1 X241.321 Y100.608 E.01675
G1 X242.812 Y102.099 E.06619
G1 X242.812 Y102.633 E.01675
G1 X240.787 Y100.608 E.08988
G1 X240.254 Y100.608 E.01675
G1 X242.812 Y103.167 E.11357
G1 X242.812 Y103.701 E.01675
G1 X239.72 Y100.608 E.13726
G1 X239.186 Y100.608 E.01675
G1 X242.812 Y104.234 E.16095
G1 X242.812 Y104.768 E.01675
G1 X238.652 Y100.608 E.18464
G1 X238.118 Y100.608 E.01675
G1 X242.812 Y105.302 E.20833
G1 X242.812 Y105.836 E.01675
G1 X237.585 Y100.608 E.23203
G1 X237.051 Y100.608 E.01675
G1 X242.812 Y106.37 E.25572
G1 X242.812 Y106.903 E.01675
G1 X236.517 Y100.608 E.27941
G1 X235.983 Y100.608 E.01675
G1 X242.812 Y107.437 E.3031
G1 X242.812 Y107.971 E.01675
G1 X235.45 Y100.608 E.32679
G1 X234.916 Y100.608 E.01675
G1 X242.812 Y108.505 E.35048
G1 X242.812 Y109.038 E.01675
G1 X234.382 Y100.608 E.37417
G1 X233.848 Y100.608 E.01675
G1 X242.812 Y109.572 E.39787
G1 X242.812 Y110.106 E.01675
G1 X233.314 Y100.608 E.42156
G1 X232.781 Y100.608 E.01675
G1 X242.812 Y110.64 E.44525
G1 X242.812 Y111.174 E.01675
G1 X232.247 Y100.608 E.46894
G1 X231.713 Y100.608 E.01675
G1 X242.812 Y111.707 E.49263
G1 X242.812 Y112.241 E.01675
G1 X231.179 Y100.608 E.51632
G1 X230.646 Y100.608 E.01675
G1 X242.812 Y112.775 E.54001
G1 X242.812 Y113.309 E.01675
G1 X230.112 Y100.608 E.56371
G1 X229.578 Y100.608 E.01675
G1 X242.812 Y113.843 E.5874
G1 X242.812 Y114.376 E.01675
G1 X229.044 Y100.608 E.61109
G1 X228.51 Y100.608 E.01675
G1 X242.812 Y114.91 E.63478
G1 X242.812 Y115.444 E.01675
G1 X227.977 Y100.608 E.65847
G1 X227.443 Y100.608 E.01675
G1 X242.812 Y115.978 E.68216
G1 X242.812 Y116.511 E.01675
G1 X226.909 Y100.608 E.70585
G1 X226.375 Y100.608 E.01675
G1 X242.812 Y117.045 E.72954
G1 X242.812 Y117.579 E.01675
G1 X225.842 Y100.608 E.75324
G1 X225.308 Y100.608 E.01675
G1 X242.812 Y118.113 E.77693
G1 X242.812 Y118.468 E.01116
G1 X242.634 Y118.468 E.00559
G1 X224.774 Y100.608 E.79271
G1 X224.24 Y100.608 E.01675
G1 X242.1 Y118.468 E.79271
G1 X241.567 Y118.468 E.01675
G1 X223.706 Y100.608 E.79271
G1 X223.173 Y100.608 E.01675
G1 X241.033 Y118.468 E.79271
G1 X240.499 Y118.468 E.01675
G1 X222.639 Y100.608 E.79271
G1 X222.105 Y100.608 E.01675
G1 X239.965 Y118.468 E.79271
G1 X239.432 Y118.468 E.01675
M73 P3 R61
G1 X221.571 Y100.608 E.79271
G1 X221.038 Y100.608 E.01675
G1 X238.898 Y118.468 E.79271
G1 X238.364 Y118.468 E.01675
G1 X220.504 Y100.608 E.79271
G1 X219.97 Y100.608 E.01675
G1 X237.83 Y118.468 E.79271
G1 X237.296 Y118.468 E.01675
G1 X219.436 Y100.608 E.79271
G1 X218.902 Y100.608 E.01675
G1 X236.763 Y118.468 E.79271
G1 X236.229 Y118.468 E.01675
G1 X218.369 Y100.608 E.79271
G1 X217.835 Y100.608 E.01675
M73 P3 R60
G1 X235.695 Y118.468 E.79271
G1 X235.161 Y118.468 E.01675
G1 X217.301 Y100.608 E.79271
G1 X216.767 Y100.608 E.01675
G1 X234.628 Y118.468 E.79271
G1 X234.094 Y118.468 E.01675
G1 X216.233 Y100.608 E.79271
G1 X215.7 Y100.608 E.01675
G1 X233.56 Y118.468 E.79271
G1 X233.026 Y118.468 E.01675
G1 X215.166 Y100.608 E.79271
G1 X214.632 Y100.608 E.01675
G1 X232.492 Y118.468 E.79271
G1 X231.959 Y118.468 E.01675
G1 X214.098 Y100.608 E.79271
G1 X213.565 Y100.608 E.01675
G1 X231.425 Y118.468 E.79271
G1 X230.891 Y118.468 E.01675
G1 X213.031 Y100.608 E.79271
G1 X212.497 Y100.608 E.01675
G1 X230.357 Y118.468 E.79271
G1 X229.823 Y118.468 E.01675
G1 X211.963 Y100.608 E.79271
G1 X211.429 Y100.608 E.01675
G1 X229.29 Y118.468 E.79271
G1 X228.756 Y118.468 E.01675
G1 X210.896 Y100.608 E.79271
G1 X210.362 Y100.608 E.01675
G1 X228.222 Y118.468 E.79271
G1 X227.688 Y118.468 E.01675
G1 X209.828 Y100.608 E.79271
G1 X209.294 Y100.608 E.01675
G1 X227.155 Y118.468 E.79271
G1 X226.621 Y118.468 E.01675
G1 X208.761 Y100.608 E.79271
G1 X208.227 Y100.608 E.01675
G1 X226.087 Y118.468 E.79271
G1 X225.553 Y118.468 E.01675
G1 X207.693 Y100.608 E.79271
G1 X207.159 Y100.608 E.01675
G1 X225.019 Y118.468 E.79271
G1 X224.486 Y118.468 E.01675
G1 X206.625 Y100.608 E.79271
G1 X206.092 Y100.608 E.01675
M73 P4 R60
G1 X223.952 Y118.468 E.79271
G1 X223.418 Y118.468 E.01675
G1 X205.558 Y100.608 E.79271
G1 X205.024 Y100.608 E.01675
G1 X222.884 Y118.468 E.79271
G1 X222.351 Y118.468 E.01675
G1 X204.49 Y100.608 E.79271
G1 X203.957 Y100.608 E.01675
G1 X221.817 Y118.468 E.79271
G1 X221.283 Y118.468 E.01675
G1 X203.423 Y100.608 E.79271
G1 X202.889 Y100.608 E.01675
G1 X220.749 Y118.468 E.79271
G1 X220.215 Y118.468 E.01675
G1 X202.355 Y100.608 E.79271
G1 X201.821 Y100.608 E.01675
G1 X219.682 Y118.468 E.79271
G1 X219.148 Y118.468 E.01675
G1 X201.288 Y100.608 E.79271
G1 X200.754 Y100.608 E.01675
G1 X218.614 Y118.468 E.79271
G1 X218.08 Y118.468 E.01675
G1 X200.22 Y100.608 E.79271
G1 X199.686 Y100.608 E.01675
G1 X217.547 Y118.468 E.79271
G1 X217.013 Y118.468 E.01675
G1 X199.152 Y100.608 E.79271
G1 X198.619 Y100.608 E.01675
G1 X216.479 Y118.468 E.79271
G1 X215.945 Y118.468 E.01675
G1 X198.085 Y100.608 E.79271
G1 X197.551 Y100.608 E.01675
G1 X215.411 Y118.468 E.79271
G1 X214.878 Y118.468 E.01675
G1 X197.017 Y100.608 E.79271
G1 X196.484 Y100.608 E.01675
G1 X214.344 Y118.468 E.79271
G1 X213.81 Y118.468 E.01675
G1 X195.95 Y100.608 E.79271
G1 X195.416 Y100.608 E.01675
G1 X213.276 Y118.468 E.79271
G1 X212.742 Y118.468 E.01675
G1 X194.882 Y100.608 E.79271
G1 X194.348 Y100.608 E.01675
G1 X212.209 Y118.468 E.79271
G1 X211.675 Y118.468 E.01675
G1 X193.815 Y100.608 E.79271
G1 X193.281 Y100.608 E.01675
M73 P4 R59
G1 X211.141 Y118.468 E.79271
G1 X210.607 Y118.468 E.01675
G1 X192.747 Y100.608 E.79271
G1 X192.213 Y100.608 E.01675
G1 X210.074 Y118.468 E.79271
G1 X209.54 Y118.468 E.01675
G1 X191.68 Y100.608 E.79271
G1 X191.146 Y100.608 E.01675
G1 X209.006 Y118.468 E.79271
G1 X208.472 Y118.468 E.01675
M73 P5 R59
G1 X190.612 Y100.608 E.79271
G1 X190.078 Y100.608 E.01675
G1 X207.938 Y118.468 E.79271
G1 X207.405 Y118.468 E.01675
G1 X189.544 Y100.608 E.79271
G1 X189.011 Y100.608 E.01675
G1 X206.871 Y118.468 E.79271
G1 X206.337 Y118.468 E.01675
G1 X188.477 Y100.608 E.79271
G1 X187.943 Y100.608 E.01675
G1 X205.803 Y118.468 E.79271
G1 X205.27 Y118.468 E.01675
G1 X187.409 Y100.608 E.79271
G1 X186.876 Y100.608 E.01675
G1 X204.736 Y118.468 E.79271
G1 X204.202 Y118.468 E.01675
G1 X186.342 Y100.608 E.79271
G1 X185.808 Y100.608 E.01675
G1 X203.668 Y118.468 E.79271
G1 X203.134 Y118.468 E.01675
G1 X185.274 Y100.608 E.79271
G1 X184.74 Y100.608 E.01675
G1 X202.601 Y118.468 E.79271
G1 X202.067 Y118.468 E.01675
G1 X184.207 Y100.608 E.79271
G1 X183.673 Y100.608 E.01675
G1 X201.533 Y118.468 E.79271
G1 X200.999 Y118.468 E.01675
G1 X183.139 Y100.608 E.79271
G1 X182.605 Y100.608 E.01675
G1 X200.466 Y118.468 E.79271
G1 X199.932 Y118.468 E.01675
G1 X182.072 Y100.608 E.79271
G1 X181.538 Y100.608 E.01675
G1 X199.398 Y118.468 E.79271
G1 X198.864 Y118.468 E.01675
G1 X181.004 Y100.608 E.79271
G1 X180.47 Y100.608 E.01675
G1 X198.33 Y118.468 E.79271
G1 X197.797 Y118.468 E.01675
G1 X179.936 Y100.608 E.79271
G1 X179.403 Y100.608 E.01675
G1 X197.263 Y118.468 E.79271
G1 X196.729 Y118.468 E.01675
G1 X178.869 Y100.608 E.79271
G1 X178.335 Y100.608 E.01675
G1 X196.195 Y118.468 E.79271
G1 X195.662 Y118.468 E.01675
G1 X177.801 Y100.608 E.79271
G1 X177.267 Y100.608 E.01675
G1 X195.128 Y118.468 E.79271
G1 X194.594 Y118.468 E.01675
G1 X176.734 Y100.608 E.79271
G1 X176.2 Y100.608 E.01675
G1 X194.06 Y118.468 E.79271
G1 X193.526 Y118.468 E.01675
G1 X175.666 Y100.608 E.79271
G1 X175.132 Y100.608 E.01675
M73 P6 R59
G1 X192.993 Y118.468 E.79271
G1 X192.459 Y118.468 E.01675
G1 X174.599 Y100.608 E.79271
G1 X174.065 Y100.608 E.01675
G1 X191.925 Y118.468 E.79271
G1 X191.391 Y118.468 E.01675
G1 X173.531 Y100.608 E.79271
G1 X172.997 Y100.608 E.01675
G1 X190.857 Y118.468 E.79271
G1 X190.324 Y118.468 E.01675
G1 X172.463 Y100.608 E.79271
G1 X171.93 Y100.608 E.01675
G1 X189.79 Y118.468 E.79271
G1 X189.256 Y118.468 E.01675
G1 X171.396 Y100.608 E.79271
G1 X170.862 Y100.608 E.01675
G1 X188.722 Y118.468 E.79271
G1 X188.189 Y118.468 E.01675
G1 X170.328 Y100.608 E.79271
G1 X169.795 Y100.608 E.01675
G1 X187.655 Y118.468 E.79271
G1 X187.121 Y118.468 E.01675
G1 X169.261 Y100.608 E.79271
G1 X168.727 Y100.608 E.01675
M73 P6 R58
G1 X186.587 Y118.468 E.79271
G1 X186.053 Y118.468 E.01675
G1 X168.193 Y100.608 E.79271
G1 X167.659 Y100.608 E.01675
G1 X185.52 Y118.468 E.79271
G1 X184.986 Y118.468 E.01675
G1 X167.126 Y100.608 E.79271
G1 X166.592 Y100.608 E.01675
G1 X184.452 Y118.468 E.79271
G1 X183.918 Y118.468 E.01675
G1 X166.058 Y100.608 E.79271
G1 X165.524 Y100.608 E.01675
G1 X183.385 Y118.468 E.79271
G1 X182.851 Y118.468 E.01675
G1 X164.991 Y100.608 E.79271
G1 X164.457 Y100.608 E.01675
G1 X182.317 Y118.468 E.79271
G1 X181.783 Y118.468 E.01675
G1 X163.923 Y100.608 E.79271
G1 X163.389 Y100.608 E.01675
G1 X181.249 Y118.468 E.79271
G1 X180.716 Y118.468 E.01675
G1 X162.855 Y100.608 E.79271
G1 X162.322 Y100.608 E.01675
G1 X180.182 Y118.468 E.79271
G1 X179.648 Y118.468 E.01675
G1 X161.788 Y100.608 E.79271
G1 X161.254 Y100.608 E.01675
G1 X179.114 Y118.468 E.79271
G1 X178.581 Y118.468 E.01675
G1 X160.72 Y100.608 E.79271
G1 X160.187 Y100.608 E.01675
G1 X178.047 Y118.468 E.79271
G1 X177.513 Y118.468 E.01675
M73 P7 R58
G1 X159.653 Y100.608 E.79271
G1 X159.119 Y100.608 E.01675
G1 X176.979 Y118.468 E.79271
G1 X176.445 Y118.468 E.01675
G1 X158.585 Y100.608 E.79271
G1 X158.051 Y100.608 E.01675
G1 X175.912 Y118.468 E.79271
G1 X175.378 Y118.468 E.01675
G1 X157.518 Y100.608 E.79271
G1 X156.984 Y100.608 E.01675
G1 X174.844 Y118.468 E.79271
G1 X174.31 Y118.468 E.01675
G1 X156.45 Y100.608 E.79271
G1 X155.916 Y100.608 E.01675
G1 X173.777 Y118.468 E.79271
G1 X173.243 Y118.468 E.01675
G1 X155.382 Y100.608 E.79271
G1 X154.849 Y100.608 E.01675
G1 X172.709 Y118.468 E.79271
G1 X172.175 Y118.468 E.01675
G1 X154.315 Y100.608 E.79271
G1 X153.781 Y100.608 E.01675
G1 X171.641 Y118.468 E.79271
G1 X171.108 Y118.468 E.01675
G1 X153.247 Y100.608 E.79271
G1 X152.714 Y100.608 E.01675
G1 X170.574 Y118.468 E.79271
G1 X170.04 Y118.468 E.01675
G1 X152.18 Y100.608 E.79271
G1 X151.646 Y100.608 E.01675
G1 X169.506 Y118.468 E.79271
G1 X168.972 Y118.468 E.01675
G1 X151.112 Y100.608 E.79271
G1 X150.578 Y100.608 E.01675
G1 X168.439 Y118.468 E.79271
G1 X167.905 Y118.468 E.01675
G1 X150.045 Y100.608 E.79271
G1 X149.511 Y100.608 E.01675
G1 X167.371 Y118.468 E.79271
G1 X166.837 Y118.468 E.01675
G1 X148.977 Y100.608 E.79271
G1 X148.443 Y100.608 E.01675
G1 X166.304 Y118.468 E.79271
G1 X165.77 Y118.468 E.01675
G1 X147.91 Y100.608 E.79271
G1 X147.376 Y100.608 E.01675
G1 X165.236 Y118.468 E.79271
G1 X164.702 Y118.468 E.01675
G1 X146.842 Y100.608 E.79271
G1 X146.308 Y100.608 E.01675
G1 X164.168 Y118.468 E.79271
G1 X163.635 Y118.468 E.01675
G1 X145.774 Y100.608 E.79271
G1 X145.241 Y100.608 E.01675
G1 X163.101 Y118.468 E.79271
G1 X162.567 Y118.468 E.01675
G1 X144.707 Y100.608 E.79271
G1 X144.173 Y100.608 E.01675
M73 P7 R57
G1 X162.033 Y118.468 E.79271
G1 X161.5 Y118.468 E.01675
M73 P8 R57
G1 X143.639 Y100.608 E.79271
G1 X143.106 Y100.608 E.01675
G1 X160.966 Y118.468 E.79271
G1 X160.432 Y118.468 E.01675
G1 X142.572 Y100.608 E.79271
G1 X142.038 Y100.608 E.01675
G1 X159.898 Y118.468 E.79271
G1 X159.364 Y118.468 E.01675
G1 X141.504 Y100.608 E.79271
G1 X140.97 Y100.608 E.01675
G1 X158.831 Y118.468 E.79271
G1 X158.297 Y118.468 E.01675
G1 X140.437 Y100.608 E.79271
G1 X139.903 Y100.608 E.01675
G1 X157.763 Y118.468 E.79271
G1 X157.229 Y118.468 E.01675
G1 X139.369 Y100.608 E.79271
G1 X138.835 Y100.608 E.01675
G1 X156.696 Y118.468 E.79271
G1 X156.162 Y118.468 E.01675
G1 X138.301 Y100.608 E.79271
G1 X137.768 Y100.608 E.01675
G1 X155.628 Y118.468 E.79271
G1 X155.094 Y118.468 E.01675
G1 X137.234 Y100.608 E.79271
G1 X136.7 Y100.608 E.01675
G1 X154.56 Y118.468 E.79271
G1 X154.027 Y118.468 E.01675
G1 X136.166 Y100.608 E.79271
G1 X135.633 Y100.608 E.01675
G1 X153.493 Y118.468 E.79271
G1 X152.959 Y118.468 E.01675
G1 X135.099 Y100.608 E.79271
G1 X134.565 Y100.608 E.01675
G1 X152.425 Y118.468 E.79271
G1 X151.891 Y118.468 E.01675
G1 X134.031 Y100.608 E.79271
G1 X133.497 Y100.608 E.01675
G1 X151.358 Y118.468 E.79271
G1 X150.824 Y118.468 E.01675
G1 X132.964 Y100.608 E.79271
G1 X132.43 Y100.608 E.01675
G1 X150.29 Y118.468 E.79271
G1 X149.756 Y118.468 E.01675
G1 X131.896 Y100.608 E.79271
G1 X131.362 Y100.608 E.01675
G1 X149.223 Y118.468 E.79271
G1 X148.689 Y118.468 E.01675
G1 X130.829 Y100.608 E.79271
G1 X130.295 Y100.608 E.01675
G1 X148.155 Y118.468 E.79271
G1 X147.621 Y118.468 E.01675
G1 X129.761 Y100.608 E.79271
G1 X129.227 Y100.608 E.01675
G1 X147.087 Y118.468 E.79271
G1 X146.554 Y118.468 E.01675
G1 X128.693 Y100.608 E.79271
G1 X128.16 Y100.608 E.01675
M73 P9 R57
G1 X146.02 Y118.468 E.79271
G1 X145.486 Y118.468 E.01675
G1 X127.626 Y100.608 E.79271
G1 X127.092 Y100.608 E.01675
G1 X144.952 Y118.468 E.79271
G1 X144.419 Y118.468 E.01675
G1 X126.558 Y100.608 E.79271
G1 X126.025 Y100.608 E.01675
G1 X143.885 Y118.468 E.79271
G1 X143.351 Y118.468 E.01675
G1 X125.491 Y100.608 E.79271
G1 X124.957 Y100.608 E.01675
G1 X142.817 Y118.468 E.79271
G1 X142.283 Y118.468 E.01675
G1 X124.423 Y100.608 E.79271
G1 X123.889 Y100.608 E.01675
G1 X141.75 Y118.468 E.79271
G1 X141.216 Y118.468 E.01675
G1 X123.356 Y100.608 E.79271
