; generated by PrusaSlicer 2.5.0+win64 on 2022-11-10 at 14:49:38 UTC

; 

; external perimeters extrusion width = 0.60mm
; perimeters extrusion width = 0.43mm
; infill extrusion width = 0.45mm
; solid infill extrusion width = 0.70mm
; top infill extrusion width = 0.45mm
; first layer extrusion width = 0.42mm

M73 P0 R115
M201 X9000 Y9000 Z500 E10000 ; sets maximum accelerations, mm/sec^2
M203 X500 Y500 Z12 E120 ; sets maximum feedrates, mm / sec
M204 P2000 R1500 T2000 ; sets acceleration (P, T) and retract acceleration (R), mm/sec^2
M205 X10.00 Y10.00 Z0.20 E2.50 ; sets the jerk limits, mm/sec
M205 S0 T0 ; sets the minimum extruding and travel feed rate, mm/sec
M107
;TYPE:Custom
M862.3 P "MK2S" ; printer model check
M862.1 P0.4 ; nozzle diameter check
M115 U3.2.3 ; tell printer latest fw version
G90 ; use absolute coordinates
M83 ; extruder relative mode
M204 S2000 T1500 ; MK2 firmware only supports the old M204 format
M104 S215 ; set extruder temp
M140 S60 ; set bed temp
M190 S60 ; wait for bed temp
M109 S215 ; wait for extruder temp
G28 W ; home all without mesh bed level
G80 ; mesh bed leveling
G1 Z0.2 F720
G1 Y-2 F1000 ; go outside print area
G92 E0
G1 X60 E9 F1000 ; intro line
G1 X100 E12.5 F1000 ; intro line
G92 E0
G21 ; set units to millimeters
G90 ; use absolute coordinates
M83 ; use relative distances for extrusion
M900 K0.05 ; Filament gcode LA 1.5
M900 K30 ; Filament gcode LA 1.0
M107
;LAYER_CHANGE
;Z:0.2
;HEIGHT:0.2
;BEFORE_LAYER_CHANGE
G92 E0.0
;0.2


G1 E-.8 F2100
G1 Z.4 F720
;AFTER_LAYER_CHANGE
;0.2
G1 X33.015 Y13.693 F10800
G1 Z.2 F720
G1 E.8 F2100
M204 S800
;TYPE:Skirt/Brim
;WIDTH:0.42
G1 F1200
G1 X34.06 Y12.817 E.04278
G1 X35 Y12.623 E.03008
G1 X95.828 Y12.623 E1.90721
G1 X96.633 Y12.764 E.02564
G1 X103.86 Y15.37 E.24087
G1 X110.977 Y18.262 E.24088
G1 X117.973 Y21.437 E.24089
G1 X125.332 Y25.162 E.2586
G1 X131.559 Y28.612 E.2232
G1 X138.054 Y32.554 E.23821
G1 X144.46 Y36.8 E.24097
G1 X150.738 Y41.333 E.2428
G1 X156.738 Y46.042 E.23916
G1 X162.636 Y51.062 E.24284
G1 X168.283 Y56.276 E.24099
G1 X173.718 Y61.71 E.241
G1 X178.932 Y67.358 E.241
G1 X183.916 Y73.209 E.241
G1 X188.662 Y79.255 E.241
G1 X193.163 Y85.486 E.241
G1 X197.395 Y91.865 E.24002
G1 X201.299 Y98.288 E.23568
G1 X204.585 Y104.185 E.21166
G1 X208.597 Y112.098 E.27817
G1 X211.77 Y119.096 E.24092
G1 X214.337 Y125.409 E.21366
G1 X217.238 Y133.371 E.26572
G1 X217.377 Y134.172 E.02549
G1 X217.377 Y195 E1.90721
G1 X216.985 Y196.307 E.04278
G1 X215.94 Y197.183 E.04278
G1 X215 Y197.377 E.03008
G1 X185 Y197.377 E.94063
G1 X183.319 Y196.681 E.05704
G1 X33.319 Y46.681 E6.65125
G1 X32.623 Y45 E.05704
G1 X32.623 Y15 E.94063
G1 X32.997 Y13.75 E.0409
M204 S1000
; printing object bot-b.stl id:0 copy 0
;WIPE_START
G1 F8640
G1 X34.06 Y12.817 E-.32671
G1 X35 Y12.623 E-.22155
G1 X35.917 Y12.623 E-.21174
;WIPE_END
G1 E-.04 F2100
G1 Z.6 F720
G1 X51.571 Y38.514 F10800
G1 Z.2 F720
G1 E.8 F2100
M204 S800
;TYPE:Perimeter
;WIDTH:0.419999
G1 F1200
G1 X51.785 Y38.442 E.00708
G1 X51.968 Y38.242 E.00852
G1 X52.037 Y37.971 E.00875
G1 X52.037 Y22.029 E.49988
G1 X52.02 Y21.889 E.0044
M73 P0 R114
G1 X51.891 Y21.65 E.00853
G1 X51.711 Y21.516 E.00703
G1 X51.471 Y21.463 E.00769
G1 X35.787 Y21.463 E.49177
G1 X35.787 Y15.787 E.17796
G1 X95.69 Y15.787 E1.87822
G1 X102.688 Y18.309 E.23321
G1 X109.692 Y21.153 E.23703
G1 X116.576 Y24.276 E.23703
G1 X123.331 Y27.671 E.23703
G1 X129.945 Y31.333 E.23703
G1 X136.407 Y35.256 E.23704
G1 X142.707 Y39.434 E.23703
G1 X148.835 Y43.861 E.23704
G1 X154.782 Y48.529 E.23704
G1 X160.537 Y53.431 E.23704
G1 X166.092 Y58.559 E.23704
G1 X171.438 Y63.904 E.23704
G1 X176.566 Y69.459 E.23704
G1 X181.468 Y75.215 E.23704
G1 X186.136 Y81.161 E.23704
G1 X190.563 Y87.29 E.23704
G1 X194.741 Y93.589 E.237
G1 X198.561 Y99.875 E.23063
G1 X202.258 Y106.537 E.23889
G1 X205.748 Y113.473 E.24344
G1 X208.858 Y120.335 E.23621
G1 X211.652 Y127.215 E.23284
G1 X214.213 Y134.31 E.2365
G1 X214.213 Y194.213 E1.87822
G1 X208.537 Y194.213 E.17796
G1 X208.537 Y178.529 E.49177
G1 X208.523 Y178.404 E.00392
G1 X208.424 Y178.189 E.00743
G1 X208.189 Y178.006 E.00933
G1 X207.971 Y177.963 E.00696
G1 X192.029 Y177.963 E.49988
G1 X191.914 Y177.975 E.00361
G1 X191.686 Y178.079 E.00787
G1 X191.507 Y178.309 E.00915
G1 X191.463 Y178.529 E.00701
G1 X191.463 Y194.213 E.49177
G1 X185.77 Y194.213 E.17851
G1 X185.625 Y188.006 E.19467
G1 X185.147 Y181.129 E.21614
G1 X184.343 Y174.188 E.21908
G1 X183.22 Y167.294 E.21901
G1 X181.783 Y160.481 E.21833
G1 X180.033 Y153.742 E.21831
G1 X177.974 Y147.091 E.21829
G1 X175.569 Y140.441 E.22172
G1 X172.947 Y134.112 E.21478
G1 X169.991 Y127.813 E.21819
G1 X166.749 Y121.658 E.21811
G1 X163.212 Y115.637 E.21895
G1 X159.411 Y109.803 E.21831
G1 X155.31 Y104.103 E.22018
G1 X151.009 Y98.674 E.21717
G1 X146.433 Y93.416 E.21854
G1 X141.624 Y88.38 E.21835
G1 X136.588 Y83.57 E.21834
G1 X131.335 Y78.999 E.21834
G1 X125.843 Y74.65 E.21963
G1 X120.192 Y70.585 E.21827
G1 X114.352 Y66.782 E.21852
G1 X108.346 Y63.254 E.21837
G1 X102.185 Y60.008 E.21837
G1 X95.88 Y57.049 E.21837
G1 X89.445 Y54.386 E.21836
G1 X82.894 Y52.022 E.21836
G1 X76.241 Y49.963 E.21836
G1 X69.501 Y48.213 E.21835
G1 X62.686 Y46.777 E.21835
G1 X55.813 Y45.656 E.21835
G1 X48.896 Y44.855 E.21835
G1 X41.975 Y44.374 E.21752
G1 X35.787 Y44.231 E.19406
G1 X35.787 Y38.537 E.17853
G1 X51.514 Y38.533 E.4931
M204 S1000
G1 X51.471 Y38.16 F10800
M204 S800
;TYPE:External perimeter
G1 F1200
G1 X51.602 Y38.108 E.0044
G1 X51.66 Y37.971 E.00465
G1 X51.66 Y22.029 E.49988
G1 X51.611 Y21.902 E.00424
M73 P1 R114
G1 X51.471 Y21.84 E.0048
G1 X35.41 Y21.84 E.50359
G1 X35.41 Y15.41 E.20161
G1 X95.756 Y15.41 E1.8921
G1 X102.822 Y17.956 E.23551
G1 X109.84 Y20.807 E.2375
G1 X116.739 Y23.935 E.2375
G1 X123.507 Y27.337 E.2375
G1 X130.134 Y31.006 E.23751
G1 X136.609 Y34.938 E.23751
G1 X142.922 Y39.124 E.2375
G1 X149.062 Y43.56 E.23751
G1 X155.021 Y48.237 E.23751
G1 X160.788 Y53.149 E.23751
G1 X166.354 Y58.287 E.23751
G1 X171.71 Y63.643 E.23751
G1 X176.848 Y69.209 E.23751
G1 X181.76 Y74.976 E.23751
G1 X186.438 Y80.934 E.23751
G1 X190.873 Y87.075 E.23752
G1 X195.06 Y93.387 E.23747
G1 X198.887 Y99.686 E.2311
G1 X202.592 Y106.361 E.23937
G1 X206.088 Y113.31 E.24392
G1 X209.204 Y120.186 E.23669
G1 X212.005 Y127.08 E.23331
G1 X214.59 Y134.244 E.2388
G1 X214.59 Y194.59 E1.89211
G1 X208.16 Y194.59 E.20161
G1 X208.16 Y178.529 E.50359
G1 X208.098 Y178.389 E.0048
G1 X207.971 Y178.34 E.00424
G1 X192.029 Y178.34 E.49988
G1 X191.892 Y178.399 E.00467
G1 X191.84 Y178.529 E.00438
G1 X191.84 Y194.59 E.50359
G1 X185.401 Y194.59 E.20189
G1 X185.248 Y188.032 E.20567
G1 X184.771 Y181.155 E.21614
G1 X183.971 Y174.249 E.21799
G1 X182.848 Y167.355 E.21901
G1 X181.414 Y160.559 E.21778
G1 X179.668 Y153.837 E.21777
G1 X177.613 Y147.203 E.21775
G1 X175.219 Y140.583 E.22071
G1 X172.599 Y134.257 E.2147
G1 X169.646 Y127.965 E.21791
G1 X166.411 Y121.827 E.21757
G1 X162.882 Y115.821 E.2184
G1 X159.095 Y110.009 E.21749
G1 X155.013 Y104.336 E.21914
G1 X150.722 Y98.919 E.21669
G1 X146.163 Y93.679 E.21777
G1 X141.364 Y88.652 E.2179
G1 X136.34 Y83.855 E.2178
G1 X131.101 Y79.294 E.2178
G1 X125.624 Y74.957 E.21904
G1 X119.983 Y70.899 E.21786
G1 X114.163 Y67.108 E.2178
G1 X108.171 Y63.588 E.21791
G1 X102.032 Y60.353 E.21755
M73 P1 R113
G1 X95.735 Y57.398 E.21809
G1 X89.317 Y54.74 E.21782
G1 X82.791 Y52.385 E.21754
G1 X76.147 Y50.328 E.21808
G1 X69.423 Y48.582 E.21781
G1 X62.626 Y47.149 E.2178
G1 X55.77 Y46.031 E.2178
G1 X48.87 Y45.231 E.2178
G1 X41.949 Y44.751 E.21752
G1 X35.41 Y44.599 E.20507
G1 X35.41 Y38.16 E.2019
G1 X51.411 Y38.16 E.50171
M204 S1000
G1 X51.582 Y38.247 F10800
;WIPE_START
G1 F8640
G1 X51.602 Y38.108 E-.04554
G1 X51.66 Y37.971 E-.03425
G1 X51.66 Y35.026 E-.68021
;WIPE_END
G1 E-.04 F2100
G1 Z.6 F720
G1 X162.88 Y55.747 F10800
G1 Z.2 F720
G1 E.8 F2100
M204 S800
;TYPE:Solid infill
;WIDTH:0.421543
G1 F1200
G1 X171.248 Y64.115 E.37257
G1 X176.355 Y69.647 E.237
G1 X176.988 Y70.391 E.03076
G1 X159.609 Y53.011 E.77379
G1 X155.998 Y49.937 E.1493
G1 X180.064 Y74.002 E1.07147
G1 X181.249 Y75.394 E.05755
G1 X182.451 Y76.924 E.06127
G1 X153.075 Y47.549 E1.3079
G1 X150.585 Y45.594 E.09967
G1 X184.406 Y79.415 E1.50582
G1 X185.91 Y81.331 E.0767
G1 X186.232 Y81.776 E.01727
G1 X148.223 Y43.768 E1.69225
G1 X146.295 Y42.375 E.07489
G1 X187.625 Y83.705 E1.84013
G1 X189.018 Y85.633 E.0749
G1 X144.367 Y40.982 E1.98802
G1 X142.457 Y39.608 E.07406
G1 X190.392 Y87.542 E2.13419
G1 X191.446 Y89.133 E.06007
G1 X140.867 Y38.554 E2.25193
G1 X139.278 Y37.499 E.06006
G1 X192.501 Y90.723 E2.36967
G1 X193.555 Y92.313 E.06007
G1 X137.688 Y36.445 E2.4874
G1 X136.12 Y35.413 E.05908
G1 X194.587 Y93.88 E2.60312
G1 X195.416 Y95.244 E.05028
M73 P2 R113
G1 X134.757 Y34.586 E2.70073
G1 X133.395 Y33.758 E.0502
G1 X196.246 Y96.609 E2.79833
G1 X197.075 Y97.974 E.05028
G1 X132.032 Y32.931 E2.89594
G1 X130.669 Y32.103 E.0502
G1 X197.904 Y99.339 E2.99354
G1 X198.317 Y100.017 E.02499
M73 P2 R112
G1 X198.652 Y100.622 E.02178
G1 X129.365 Y31.335 E3.08488
G1 X128.165 Y30.671 E.04318
G1 X199.32 Y101.825 E3.16802
G1 X199.988 Y103.028 E.04332
G1 X126.966 Y30.006 E3.25117
G1 X125.766 Y29.342 E.04318
G1 X200.655 Y104.232 E3.33431
G1 X201.323 Y105.435 E.04332
G1 X124.566 Y28.678 E3.41746
G1 X123.366 Y28.014 E.04318
G1 X201.991 Y106.638 E3.5006
G1 X202.536 Y107.719 E.03811
G1 X122.273 Y27.455 E3.57358
G1 X121.196 Y26.914 E.03793
G1 X203.078 Y108.796 E3.64565
G1 X203.62 Y109.874 E.03797
G1 X120.12 Y26.373 E3.71771
G1 X119.043 Y25.832 E.03793
M73 P3 R112
G1 X204.162 Y110.951 E3.78978
G1 X204.704 Y112.029 E.03797
G1 X117.967 Y25.291 E3.86184
G1 X116.89 Y24.75 E.03793
M73 P3 R111
G1 X205.246 Y113.106 E3.93391
G1 X205.735 Y114.13 E.03572
G1 X115.871 Y24.266 E4.00102
G1 X114.891 Y23.822 E.03387
G1 X206.179 Y115.11 E4.06441
G1 X206.623 Y116.089 E.03385
G1 X113.911 Y23.378 E4.1278
G1 X112.932 Y22.933 E.03387
G1 X207.067 Y117.068 E4.19119
G1 X207.511 Y118.048 E.03385
G1 X111.952 Y22.489 E4.25458
G1 X110.972 Y22.045 E.03387
G1 X207.955 Y119.027 E4.31797
G1 X208.399 Y120.007 E.03385
G1 X109.992 Y21.6 E4.38136
G1 X109.058 Y21.201 E.03199
G1 X208.8 Y120.943 E4.44083
G1 X209.166 Y121.845 E.03064
M73 P4 R110
G1 X108.156 Y20.835 E4.49728
G1 X107.254 Y20.469 E.03064
G1 X209.532 Y122.747 E4.55374
G1 X209.898 Y123.648 E.03064
G1 X106.353 Y20.102 E4.61019
G1 X105.451 Y19.736 E.03064
G1 X210.265 Y124.55 E4.66664
G1 X210.631 Y125.452 E.03064
G1 X104.549 Y19.37 E4.7231
G1 X103.647 Y19.004 E.03064
G1 X210.997 Y126.353 E4.77955
G1 X211.363 Y127.255 E.03064
G1 X102.746 Y18.637 E4.836
G1 X101.897 Y18.324 E.02847
G1 X211.67 Y128.097 E4.88744
G1 X211.973 Y128.935 E.02804
M73 P4 R109
G1 X101.06 Y18.023 E4.93817
G1 X100.223 Y17.721 E.02801
M73 P5 R109
G1 X212.275 Y129.773 E4.9889
G1 X212.577 Y130.611 E.02804
G1 X99.386 Y17.419 E5.03964
G1 X98.549 Y17.118 E.02801
G1 X212.88 Y131.449 E5.09037
G1 X213.182 Y132.286 E.02804
G1 X97.712 Y16.816 E5.1411
G1 X96.875 Y16.515 E.02801
G1 X213.484 Y133.124 E5.19184
G1 X213.787 Y133.962 E.02804
G1 X96.038 Y16.213 E5.24257
G1 X95.641 Y16.07 E.01328
M73 P5 R108
G1 X95.359 Y16.07 E.00887
G1 X213.93 Y134.641 E5.27916
G1 X213.93 Y135.176 E.01686
G1 X94.824 Y16.07 E5.303
G1 X94.288 Y16.07 E.01686
G1 X213.93 Y135.712 E5.32684
G1 X213.93 Y136.247 E.01686
M73 P6 R108
G1 X93.753 Y16.07 E5.35068
G1 X93.217 Y16.07 E.01686
G1 X213.93 Y136.783 E5.37452
G1 X213.93 Y137.318 E.01686
G1 X92.682 Y16.07 E5.39836
G1 X92.146 Y16.07 E.01686
G1 X213.93 Y137.854 E5.4222
G1 X213.93 Y138.389 E.01686
M73 P6 R107
G1 X91.611 Y16.07 E5.44604
G1 X91.075 Y16.07 E.01686
G1 X213.93 Y138.925 E5.46988
G1 X213.93 Y139.46 E.01686
G1 X90.54 Y16.07 E5.49372
G1 X90.005 Y16.07 E.01686
G1 X213.93 Y139.995 E5.51756
G1 X213.93 Y140.531 E.01686
M73 P7 R107
G1 X89.469 Y16.07 E5.5414
G1 X88.934 Y16.07 E.01686
G1 X213.93 Y141.066 E5.56524
G1 X213.93 Y141.602 E.01686
G1 X88.398 Y16.07 E5.58908
G1 X87.863 Y16.07 E.01686
M73 P7 R106
G1 X213.93 Y142.137 E5.61292
G1 X213.93 Y142.673 E.01686
G1 X87.327 Y16.07 E5.63676
G1 X86.792 Y16.07 E.01686
G1 X213.93 Y143.208 E5.6606
G1 X213.93 Y143.744 E.01686
G1 X86.256 Y16.07 E5.68444
G1 X85.721 Y16.07 E.01686
M73 P8 R106
G1 X213.93 Y144.279 E5.70828
G1 X213.93 Y144.815 E.01686
G1 X85.185 Y16.07 E5.73212
G1 X84.65 Y16.07 E.01686
G1 X213.93 Y145.35 E5.75596
G1 X213.93 Y145.885 E.01686
M73 P8 R105
G1 X84.115 Y16.07 E5.7798
G1 X83.579 Y16.07 E.01686
G1 X213.93 Y146.421 E5.80364
G1 X213.93 Y146.956 E.01686
G1 X83.044 Y16.07 E5.82748
G1 X82.508 Y16.07 E.01686
G1 X213.93 Y147.492 E5.85132
G1 X213.93 Y148.027 E.01686
G1 X81.973 Y16.07 E5.87516
G1 X81.437 Y16.07 E.01686
M73 P9 R105
G1 X213.93 Y148.563 E5.899
G1 X213.93 Y149.098 E.01686
M73 P9 R104
G1 X80.902 Y16.07 E5.92284
G1 X80.366 Y16.07 E.01686
G1 X213.93 Y149.634 E5.94668
G1 X213.93 Y150.169 E.01686
G1 X79.831 Y16.07 E5.97052
G1 X79.295 Y16.07 E.01686
G1 X213.93 Y150.705 E5.99436
G1 X213.93 Y151.24 E.01686
G1 X78.76 Y16.07 E6.0182
G1 X78.225 Y16.07 E.01686
G1 X213.93 Y151.775 E6.04204
G1 X213.93 Y152.311 E.01686
M73 P10 R104
G1 X77.689 Y16.07 E6.06588
G1 X77.154 Y16.07 E.01686
M73 P10 R103
G1 X213.93 Y152.846 E6.08972
G1 X213.93 Y153.382 E.01686
G1 X76.618 Y16.07 E6.11356
G1 X76.083 Y16.07 E.01686
G1 X213.93 Y153.917 E6.1374
G1 X213.93 Y154.453 E.01686
G1 X75.547 Y16.07 E6.16124
G1 X75.012 Y16.07 E.01686
G1 X213.93 Y154.988 E6.18508
G1 X213.93 Y155.524 E.01686
G1 X74.476 Y16.07 E6.20892
G1 X73.941 Y16.07 E.01686
M73 P11 R102
G1 X213.93 Y156.059 E6.23276
G1 X213.93 Y156.595 E.01686
G1 X73.405 Y16.07 E6.2566
G1 X72.87 Y16.07 E.01686
G1 X213.93 Y157.13 E6.28044
G1 X213.93 Y157.665 E.01686
G1 X72.335 Y16.07 E6.30428
G1 X71.799 Y16.07 E.01686
G1 X213.93 Y158.201 E6.32812
G1 X213.93 Y158.736 E.01686
G1 X71.264 Y16.07 E6.35196
G1 X70.728 Y16.07 E.01686
M73 P11 R101
G1 X213.93 Y159.272 E6.3758
G1 X213.93 Y159.807 E.01686
M73 P12 R101
G1 X70.193 Y16.07 E6.39964
G1 X69.657 Y16.07 E.01686
G1 X213.93 Y160.343 E6.42348
G1 X213.93 Y160.878 E.01686
G1 X149.091 Y96.039 E2.88685
G1 X151.225 Y98.492 E.10235
G1 X152.051 Y99.534 E.04188
G1 X213.93 Y161.414 E2.75506
G1 X213.93 Y161.949 E.01686
G1 X154.092 Y102.111 E2.66417
G1 X155.531 Y103.928 E.07295
G1 X155.937 Y104.491 E.02187
G1 X213.93 Y162.484 E2.58204
G1 X213.93 Y163.02 E.01686
G1 X157.312 Y106.402 E2.52083
G1 X158.687 Y108.312 E.0741
M73 P12 R100
G1 X213.93 Y163.555 E2.45962
G1 X213.93 Y164.091 E.01686
G1 X159.948 Y110.109 E2.40346
G1 X160.949 Y111.645 E.05772
G1 X213.93 Y164.626 E2.35891
G1 X213.93 Y165.162 E.01686
G1 X161.949 Y113.181 E2.31435
G1 X162.95 Y114.717 E.05772
G1 X213.93 Y165.697 E2.26979
G1 X213.93 Y166.233 E.01686
G1 X163.831 Y116.134 E2.23055
G1 X164.594 Y117.432 E.0474
G1 X213.93 Y166.768 E2.1966
G1 X213.93 Y167.304 E.01686
M73 P13 R100
G1 X165.357 Y118.73 E2.16264
G1 X166.119 Y120.028 E.0474
G1 X213.93 Y167.839 E2.12869
G1 X213.93 Y168.374 E.01686
G1 X166.882 Y121.326 E2.09474
G1 X167.502 Y122.482 E.04127
G1 X213.93 Y168.91 E2.06714
G1 X213.93 Y169.445 E.01686
G1 X168.098 Y123.613 E2.0406
G1 X168.694 Y124.745 E.04027
G1 X213.93 Y169.981 E2.01405
G1 X213.93 Y170.516 E.01686
G1 X169.29 Y125.877 E1.98751
G1 X169.887 Y127.008 E.04027
G1 X213.93 Y171.052 E1.96096
G1 X213.93 Y171.587 E.01686
G1 X170.434 Y128.091 E1.93658
G1 X170.908 Y129.1 E.03509
G1 X213.93 Y172.123 E1.9155
G1 X213.93 Y172.658 E.01686
G1 X171.381 Y130.109 E1.89441
G1 X171.855 Y131.118 E.03509
M73 P13 R99
G1 X213.93 Y173.194 E1.87332
G1 X213.93 Y173.729 E.01686
G1 X172.328 Y132.127 E1.85224
G1 X172.802 Y133.136 E.03509
G1 X213.93 Y174.264 E1.83115
G1 X213.93 Y174.8 E.01686
G1 X173.26 Y134.13 E1.81076
G1 X173.639 Y135.044 E.03115
G1 X213.93 Y175.335 E1.7939
G1 X213.93 Y175.871 E.01686
G1 X174.017 Y135.958 E1.77704
G1 X174.396 Y136.872 E.03115
G1 X213.93 Y176.406 E1.76017
G1 X213.93 Y176.942 E.01686
G1 X174.775 Y137.787 E1.74331
G1 X175.154 Y138.701 E.03115
G1 X213.93 Y177.477 E1.72645
G1 X213.93 Y178.013 E.01686
G1 X175.532 Y139.615 E1.70959
G1 X175.895 Y140.513 E.03049
G1 X213.93 Y178.548 E1.69345
G1 X213.93 Y179.084 E.01686
G1 X176.198 Y141.352 E1.67993
G1 X176.502 Y142.191 E.02809
M73 P14 R99
G1 X213.93 Y179.619 E1.66642
