; generated by PrusaSlicer 2.5.0+win64 on 2022-11-09 at 11:08:11 UTC

; 

; external perimeters extrusion width = 0.60mm
; perimeters extrusion width = 0.43mm
; infill extrusion width = 0.45mm
; solid infill extrusion width = 0.70mm
; top infill extrusion width = 0.45mm
; first layer extrusion width = 0.42mm

M73 P0 R117
M201 X9000 Y9000 Z500 E10000 ; sets maximum accelerations, mm/sec^2
M203 X500 Y500 Z12 E120 ; sets maximum feedrates, mm / sec
M204 P2000 R1500 T2000 ; sets acceleration (P, T) and retract acceleration (R), mm/sec^2
M205 X10.00 Y10.00 Z0.20 E2.50 ; sets the jerk limits, mm/sec
M205 S0 T0 ; sets the minimum extruding and travel feed rate, mm/sec
M107
;TYPE:Custom
M862.3 P "MK2S" ; printer model check
M862.1 P0.4 ; nozzle diameter check
M115 U3.2.3 ; tell printer latest fw version
G90 ; use absolute coordinates
M83 ; extruder relative mode
M204 S2000 T1500 ; MK2 firmware only supports the old M204 format
M104 S215 ; set extruder temp
M140 S60 ; set bed temp
M190 S60 ; wait for bed temp
M109 S215 ; wait for extruder temp
G28 W ; home all without mesh bed level
G80 ; mesh bed leveling
G1 Z0.2 F720
G1 Y-2 F1000 ; go outside print area
G92 E0
G1 X60 E9 F1000 ; intro line
G1 X100 E12.5 F1000 ; intro line
G92 E0
G21 ; set units to millimeters
G90 ; use absolute coordinates
M83 ; use relative distances for extrusion
M900 K0.05 ; Filament gcode LA 1.5
M900 K30 ; Filament gcode LA 1.0
M107
;LAYER_CHANGE
;Z:0.2
;HEIGHT:0.2
;BEFORE_LAYER_CHANGE
G92 E0.0
;0.2


G1 E-.8 F2100
G1 Z.4 F720
;AFTER_LAYER_CHANGE
;0.2
G1 X33.015 Y13.693 F10800
G1 Z.2 F720
G1 E.8 F2100
M204 S800
;TYPE:Skirt/Brim
;WIDTH:0.42
G1 F1200
G1 X34.06 Y12.817 E.04278
G1 X35 Y12.623 E.03008
G1 X95.828 Y12.623 E1.90721
G1 X96.629 Y12.762 E.02549
G1 X103.803 Y15.348 E.23912
G1 X110.935 Y18.244 E.24135
G1 X117.903 Y21.403 E.23989
G1 X125.836 Y25.427 E.27888
G1 X131.372 Y28.505 E.19863
G1 X135.564 Y31.019 E.15323
G1 X138.192 Y32.642 E.09686
G1 X144.321 Y36.707 E.2306
G1 X150.736 Y41.331 E.24793
G1 X156.583 Y45.919 E.23305
G1 X162.656 Y51.081 E.2499
G1 X168.303 Y56.294 E.24096
G1 X173.736 Y61.729 E.24097
G1 X178.949 Y67.377 E.24096
G1 X183.931 Y73.228 E.24096
G1 X188.676 Y79.273 E.24095
G1 X193.175 Y85.503 E.24095
G1 X197.4 Y91.873 E.23967
G1 X201.454 Y98.555 E.24505
G1 X205.132 Y105.2 E.23812
G1 X208.582 Y112.066 E.24093
G1 X211.782 Y119.127 E.24308
G1 X214.647 Y126.183 E.23877
G1 X217.237 Y133.367 E.23945
G1 X217.377 Y134.172 E.02562
G1 X217.377 Y195 E1.90721
G1 X216.985 Y196.307 E.04278
G1 X215.94 Y197.183 E.04278
G1 X215 Y197.377 E.03008
G1 X185 Y197.377 E.94063
G1 X183.319 Y196.681 E.05704
G1 X33.319 Y46.681 E6.65125
G1 X32.623 Y45 E.05704
G1 X32.623 Y15 E.94063
G1 X32.997 Y13.75 E.0409
M204 S1000
; printing object bot-a.stl id:0 copy 0
;WIPE_START
G1 F8640
G1 X34.06 Y12.817 E-.32671
G1 X35 Y12.623 E-.22155
G1 X35.917 Y12.623 E-.21174
;WIPE_END
G1 E-.04 F2100
G1 Z.6 F720
G1 X191.976 Y177.968 F10800
G1 Z.2 F720
G1 E.8 F2100
M204 S800
;TYPE:Perimeter
;WIDTH:0.419999
G1 F1200
G1 X191.915 Y177.974 E.00191
G1 X191.688 Y178.077 E.00782
G1 X191.508 Y178.308 E.00919
G1 X191.463 Y178.529 E.00705
G1 X191.463 Y194.213 E.49177
G1 X185.769 Y194.213 E.17853
G1 X185.626 Y188.025 E.19406
G1 X185.145 Y181.104 E.21752
G1 X184.34 Y174.161 E.21916
G1 X183.223 Y167.314 E.21753
G1 X181.787 Y160.499 E.21835
G1 X180.03 Y153.733 E.21918
G1 X177.961 Y147.056 E.21919
G1 X175.607 Y140.534 E.2174
G1 X172.951 Y134.12 E.21766
G1 X169.992 Y127.815 E.21837
G1 X166.746 Y121.654 E.21837
G1 X163.218 Y115.648 E.21837
G1 X159.417 Y109.812 E.21838
G1 X155.311 Y104.105 E.22045
G1 X150.984 Y98.645 E.21842
G1 X146.439 Y93.422 E.2171
G1 X141.647 Y88.403 E.21757
G1 X136.584 Y83.567 E.21955
G1 X131.33 Y78.995 E.21835
G1 X125.851 Y74.656 E.21914
G1 X120.201 Y70.591 E.21825
G1 X114.385 Y66.802 E.21763
G1 X108.461 Y63.32 E.21545
G1 X102.211 Y60.021 E.2216
M73 P0 R116
G1 X95.888 Y57.053 E.21902
G1 X89.457 Y54.39 E.21824
G1 X82.909 Y52.026 E.21826
G1 X76.258 Y49.967 E.2183
G1 X69.519 Y48.217 E.21831
G1 X62.706 Y46.78 E.21833
G1 X55.833 Y45.659 E.21834
G1 X48.915 Y44.857 E.21835
G1 X41.994 Y44.375 E.21754
G1 X35.787 Y44.23 E.19467
G1 X35.787 Y38.537 E.17851
G1 X51.504 Y38.536 E.4928
G1 X51.786 Y38.442 E.00931
G1 X51.969 Y38.24 E.00854
G1 X52.037 Y37.971 E.00869
G1 X52.037 Y22.029 E.49988
G1 X52.02 Y21.889 E.0044
G1 X51.891 Y21.65 E.00853
G1 X51.711 Y21.516 E.00703
G1 X51.471 Y21.463 E.00769
G1 X35.787 Y21.463 E.49177
G1 X35.787 Y15.787 E.17796
G1 X95.69 Y15.787 E1.87822
G1 X102.677 Y18.304 E.23284
G1 X109.796 Y21.2 E.24097
G1 X116.692 Y24.332 E.23747
G1 X123.246 Y27.626 E.22999
G1 X129.789 Y31.245 E.23445
G1 X136.417 Y35.263 E.24303
G1 X142.717 Y39.442 E.23704
G1 X148.845 Y43.869 E.23704
G1 X154.763 Y48.514 E.23587
G1 X160.547 Y53.439 E.2382
G1 X166.102 Y58.567 E.23703
G1 X171.447 Y63.913 E.23703
G1 X176.574 Y69.468 E.23703
G1 X181.476 Y75.224 E.23703
G1 X186.143 Y81.17 E.23703
G1 X190.57 Y87.299 E.23702
G1 X194.713 Y93.546 E.23504
G1 X198.67 Y100.06 E.23899
G1 X202.332 Y106.673 E.237
G1 X205.726 Y113.427 E.237
G1 X208.848 Y120.311 E.23699
G1 X211.692 Y127.314 E.23699
G1 X214.213 Y134.31 E.23316
G1 X214.213 Y194.213 E1.87822
G1 X208.537 Y194.213 E.17796
G1 X208.537 Y178.529 E.49177
G1 X208.523 Y178.404 E.00392
G1 X208.424 Y178.189 E.00743
G1 X208.189 Y178.006 E.00933
G1 X207.971 Y177.963 E.00696
G1 X192.035 Y177.963 E.49966
M204 S1000
G1 X192.029 Y178.34 F10800
M204 S800
;TYPE:External perimeter
G1 F1200
G1 X191.892 Y178.398 E.00465
G1 X191.84 Y178.529 E.0044
G1 X191.84 Y194.59 E.50359
G1 X185.401 Y194.59 E.2019
M73 P1 R116
G1 X185.249 Y188.051 E.20507
G1 X184.769 Y181.13 E.21752
G1 X183.968 Y174.221 E.21807
G1 X182.85 Y167.366 E.2178
G1 X181.418 Y160.577 E.21753
G1 X179.67 Y153.845 E.21808
G1 X177.601 Y147.168 E.21919
G1 X175.257 Y140.676 E.21639
G1 X172.602 Y134.265 E.21758
G1 X169.647 Y127.968 E.21809
G1 X166.412 Y121.829 E.21755
G1 X162.893 Y115.839 E.21783
G1 X159.101 Y110.018 E.21783
G1 X155.014 Y104.338 E.21941
G1 X150.701 Y98.894 E.21775
G1 X146.168 Y93.685 E.21652
G1 X141.375 Y88.663 E.21767
G1 X136.323 Y83.839 E.219
G1 X131.083 Y79.28 E.21781
G1 X125.632 Y74.963 E.218
G1 X119.992 Y70.905 E.21784
G1 X114.174 Y67.115 E.21773
G1 X108.285 Y63.654 E.21417
G1 X102.035 Y60.354 E.2216
G1 X95.743 Y57.401 E.21792
G1 X89.329 Y54.745 E.21769
G1 X82.798 Y52.387 E.21772
G1 X76.163 Y50.332 E.21775
G1 X69.441 Y48.586 E.21777
G1 X62.645 Y47.152 E.21778
G1 X55.789 Y46.034 E.21779
G1 X48.889 Y45.233 E.2178
G1 X41.968 Y44.752 E.21754
G1 X35.41 Y44.599 E.20567
G1 X35.41 Y38.16 E.20189
G1 X51.471 Y38.16 E.50359
G1 X51.602 Y38.107 E.00441
G1 X51.66 Y37.971 E.00464
G1 X51.66 Y22.029 E.49988
G1 X51.611 Y21.902 E.00424
G1 X51.471 Y21.84 E.0048
G1 X35.41 Y21.84 E.50359
G1 X35.41 Y15.41 E.20161
G1 X95.756 Y15.41 E1.89211
G1 X102.812 Y17.952 E.23514
G1 X109.945 Y20.853 E.24145
G1 X116.854 Y23.992 E.23794
G1 X123.421 Y27.293 E.23046
G1 X129.978 Y30.918 E.23492
G1 X136.619 Y34.944 E.24351
G1 X142.932 Y39.132 E.23751
G1 X149.072 Y43.567 E.23751
G1 X155.002 Y48.222 E.23634
G1 X160.797 Y53.157 E.23867
G1 X166.363 Y58.296 E.23751
G1 X171.719 Y63.652 E.23751
G1 X176.857 Y69.218 E.2375
G1 X181.768 Y74.985 E.2375
G1 X186.445 Y80.944 E.2375
G1 X190.88 Y87.084 E.23749
G1 X195.031 Y93.344 E.23551
G1 X198.996 Y99.871 E.23947
G1 X202.665 Y106.497 E.23748
G1 X206.066 Y113.265 E.23748
G1 X209.194 Y120.162 E.23746
G1 X212.044 Y127.179 E.23746
G1 X214.59 Y134.244 E.23547
G1 X214.59 Y194.59 E1.8921
G1 X208.16 Y194.59 E.20161
G1 X208.16 Y178.529 E.50359
G1 X208.098 Y178.389 E.0048
G1 X207.971 Y178.34 E.00424
G1 X192.089 Y178.34 E.498
M204 S1000
G1 X191.923 Y178.236 F10800
;WIPE_START
G1 F8640
G1 X191.892 Y178.398 E-.0473
G1 X191.84 Y178.529 E-.03239
G1 X191.84 Y181.475 E-.68031
;WIPE_END
G1 E-.04 F2100
G1 Z.6 F720
G1 X162.883 Y55.75 F10800
G1 Z.2 F720
G1 E.8 F2100
M204 S800
;TYPE:Solid infill
;WIDTH:0.421543
G1 F1200
G1 X171.25 Y64.117 E.37253
G1 X176.363 Y69.656 E.23732
G1 X176.988 Y70.391 E.03038
G1 X159.613 Y53.016 E.7736
G1 X156.006 Y49.944 E.14916
G1 X180.062 Y73.999 E1.07103
M73 P1 R115
G1 X181.257 Y75.403 E.05804
G1 X182.451 Y76.924 E.06088
G1 X153.075 Y47.549 E1.30789
G1 X150.585 Y45.594 E.09968
G1 X184.405 Y79.414 E1.50578
G1 X185.917 Y81.341 E.07712
G1 X186.232 Y81.776 E.01692
G1 X148.225 Y43.77 E1.69218
G1 X146.296 Y42.376 E.07492
G1 X187.625 Y83.704 E1.84007
G1 X189.017 Y85.632 E.07488
G1 X144.367 Y40.982 E1.98796
G1 X142.459 Y39.609 E.07401
G1 X190.392 Y87.543 E2.13414
G1 X191.446 Y89.133 E.06006
G1 X140.869 Y38.555 E2.25189
G1 X139.278 Y37.5 E.06008
G1 X192.501 Y90.722 E2.36964
G1 X193.555 Y92.312 E.06006
G1 X137.688 Y36.445 E2.48739
G1 X136.122 Y35.415 E.05902
G1 X194.581 Y93.873 E2.60276
G1 X195.409 Y95.237 E.05025
M73 P2 R115
G1 X134.762 Y34.59 E2.7002
G1 X133.403 Y33.766 E.05006
G1 X196.238 Y96.601 E2.79764
G1 X197.067 Y97.966 E.05025
G1 X132.043 Y32.942 E2.89507
G1 X130.683 Y32.117 E.05006
G1 X197.895 Y99.33 E2.99251
G1 X198.425 Y100.202 E.03214
G1 X198.665 Y100.635 E.01556
G1 X129.362 Y31.332 E3.08559
G1 X128.164 Y30.669 E.04309
G1 X199.329 Y101.834 E3.16849
G1 X199.993 Y103.034 E.04317
M73 P2 R114
G1 X126.967 Y30.007 E3.25139
G1 X125.769 Y29.345 E.04309
G1 X200.658 Y104.234 E3.33429
G1 X201.322 Y105.433 E.04317
G1 X124.571 Y28.683 E3.41719
G1 X123.373 Y28.02 E.04309
G1 X201.986 Y106.633 E3.50009
G1 X202.545 Y107.727 E.03868
G1 X122.27 Y27.453 E3.57406
G1 X121.194 Y26.912 E.03793
G1 X203.086 Y108.804 E3.64608
G1 X203.627 Y109.88 E.03793
G1 X120.117 Y26.371 E3.7181
G1 X119.041 Y25.83 E.03793
G1 X204.168 Y110.957 E3.79012
G1 X204.709 Y112.033 E.03793
M73 P3 R114
G1 X117.964 Y25.289 E3.86214
G1 X116.888 Y24.748 E.03793
G1 X205.25 Y113.109 E3.93415
G1 X205.734 Y114.129 E.03552
M73 P3 R113
G1 X115.878 Y24.274 E4.00063
G1 X114.897 Y23.828 E.03393
G1 X206.178 Y115.108 E4.0641
G1 X206.622 Y116.088 E.03387
G1 X113.916 Y23.382 E4.12757
G1 X112.935 Y22.936 E.03393
G1 X207.067 Y117.068 E4.19104
G1 X207.511 Y118.048 E.03387
G1 X111.954 Y22.491 E4.2545
G1 X110.973 Y22.045 E.03393
G1 X207.955 Y119.028 E4.31797
G1 X208.399 Y120.007 E.03387
G1 X109.991 Y21.599 E4.38144
G1 X109.064 Y21.208 E.03169
G1 X208.799 Y120.942 E4.4405
G1 X209.165 Y121.844 E.03064
G1 X108.162 Y20.841 E4.49698
G1 X107.259 Y20.473 E.03067
M73 P4 R112
G1 X209.531 Y122.746 E4.55347
G1 X209.897 Y123.647 E.03064
G1 X106.357 Y20.106 E4.60996
G1 X105.454 Y19.739 E.03067
G1 X210.264 Y124.549 E4.66645
G1 X210.63 Y125.451 E.03064
G1 X104.552 Y19.372 E4.72294
G1 X103.649 Y19.005 E.03067
G1 X210.996 Y126.352 E4.77943
G1 X211.362 Y127.254 E.03064
G1 X102.747 Y18.638 E4.83592
G1 X101.897 Y18.324 E.02851
G1 X211.676 Y128.103 E4.88768
G1 X211.977 Y128.94 E.02801
G1 X101.06 Y18.023 E4.93838
G1 X100.223 Y17.721 E.02801
M73 P4 R111
G1 X212.279 Y129.777 E4.98908
G1 X212.58 Y130.614 E.02801
M73 P5 R111
G1 X99.386 Y17.419 E5.03978
G1 X98.549 Y17.118 E.02801
G1 X212.882 Y131.451 E5.09048
G1 X213.184 Y132.288 E.02801
G1 X97.712 Y16.816 E5.14118
G1 X96.875 Y16.514 E.02801
G1 X213.485 Y133.125 E5.19188
G1 X213.787 Y133.962 E.02801
G1 X96.038 Y16.213 E5.24257
G1 X95.641 Y16.07 E.01327
G1 X95.359 Y16.07 E.00887
G1 X213.93 Y134.641 E5.27915
G1 X213.93 Y135.176 E.01686
M73 P5 R110
G1 X94.824 Y16.07 E5.30299
G1 X94.288 Y16.07 E.01686
G1 X213.93 Y135.712 E5.32683
G1 X213.93 Y136.247 E.01686
M73 P6 R110
G1 X93.753 Y16.07 E5.35067
G1 X93.217 Y16.07 E.01686
G1 X213.93 Y136.783 E5.37451
G1 X213.93 Y137.318 E.01686
G1 X92.682 Y16.07 E5.39835
G1 X92.147 Y16.07 E.01686
G1 X213.93 Y137.853 E5.42219
G1 X213.93 Y138.389 E.01686
G1 X91.611 Y16.07 E5.44603
G1 X91.076 Y16.07 E.01686
M73 P6 R109
G1 X213.93 Y138.924 E5.46987
G1 X213.93 Y139.46 E.01686
G1 X90.54 Y16.07 E5.49371
G1 X90.005 Y16.07 E.01686
G1 X213.93 Y139.995 E5.51755
G1 X213.93 Y140.531 E.01686
G1 X89.469 Y16.07 E5.54139
G1 X88.934 Y16.07 E.01686
M73 P7 R109
G1 X213.93 Y141.066 E5.56523
G1 X213.93 Y141.602 E.01686
G1 X88.398 Y16.07 E5.58907
G1 X87.863 Y16.07 E.01686
G1 X213.93 Y142.137 E5.61291
G1 X213.93 Y142.673 E.01686
M73 P7 R108
G1 X87.327 Y16.07 E5.63675
G1 X86.792 Y16.07 E.01686
G1 X213.93 Y143.208 E5.66059
G1 X213.93 Y143.743 E.01686
G1 X86.257 Y16.07 E5.68443
G1 X85.721 Y16.07 E.01686
G1 X213.93 Y144.279 E5.70827
G1 X213.93 Y144.814 E.01686
M73 P8 R108
G1 X85.186 Y16.07 E5.73211
G1 X84.65 Y16.07 E.01686
G1 X213.93 Y145.35 E5.75595
G1 X213.93 Y145.885 E.01686
G1 X84.115 Y16.07 E5.77979
G1 X83.579 Y16.07 E.01686
M73 P8 R107
G1 X213.93 Y146.421 E5.80363
G1 X213.93 Y146.956 E.01686
G1 X83.044 Y16.07 E5.82747
G1 X82.508 Y16.07 E.01686
G1 X213.93 Y147.492 E5.85131
G1 X213.93 Y148.027 E.01686
G1 X81.973 Y16.07 E5.87515
G1 X81.437 Y16.07 E.01686
G1 X213.93 Y148.563 E5.89899
G1 X213.93 Y149.098 E.01686
M73 P9 R107
G1 X80.902 Y16.07 E5.92283
G1 X80.367 Y16.07 E.01686
M73 P9 R106
G1 X213.93 Y149.633 E5.94667
G1 X213.93 Y150.169 E.01686
G1 X79.831 Y16.07 E5.97051
G1 X79.296 Y16.07 E.01686
G1 X213.93 Y150.704 E5.99435
G1 X213.93 Y151.24 E.01686
G1 X78.76 Y16.07 E6.01819
G1 X78.225 Y16.07 E.01686
G1 X213.93 Y151.775 E6.04203
G1 X213.93 Y152.311 E.01686
G1 X77.689 Y16.07 E6.06587
G1 X77.154 Y16.07 E.01686
M73 P10 R105
G1 X213.93 Y152.846 E6.08971
G1 X213.93 Y153.382 E.01686
G1 X76.618 Y16.07 E6.11355
G1 X76.083 Y16.07 E.01686
G1 X213.93 Y153.917 E6.13739
G1 X213.93 Y154.453 E.01686
G1 X75.547 Y16.07 E6.16123
G1 X75.012 Y16.07 E.01686
G1 X213.93 Y154.988 E6.18507
G1 X213.93 Y155.523 E.01686
G1 X74.477 Y16.07 E6.20891
G1 X73.941 Y16.07 E.01686
G1 X213.93 Y156.059 E6.23275
G1 X213.93 Y156.594 E.01686
M73 P10 R104
G1 X73.406 Y16.07 E6.25659
G1 X72.87 Y16.07 E.01686
M73 P11 R104
G1 X213.93 Y157.13 E6.28043
G1 X213.93 Y157.665 E.01686
G1 X72.335 Y16.07 E6.30427
G1 X71.799 Y16.07 E.01686
G1 X213.93 Y158.201 E6.32811
G1 X213.93 Y158.736 E.01686
G1 X71.264 Y16.07 E6.35195
G1 X70.728 Y16.07 E.01686
G1 X213.93 Y159.272 E6.37579
G1 X213.93 Y159.807 E.01686
M73 P11 R103
G1 X70.193 Y16.07 E6.39963
G1 X69.658 Y16.07 E.01686
G1 X213.93 Y160.342 E6.42347
G1 X213.93 Y160.878 E.01686
M73 P12 R103
G1 X149.093 Y96.041 E2.88675
G1 X151.204 Y98.467 E.10126
G1 X152.046 Y99.529 E.04266
G1 X213.93 Y161.413 E2.75528
G1 X213.93 Y161.949 E.01686
G1 X154.09 Y102.109 E2.66427
G1 X155.532 Y103.929 E.07311
G1 X155.937 Y104.491 E.0218
G1 X213.93 Y162.484 E2.58204
G1 X213.93 Y163.02 E.01686
G1 X157.311 Y106.401 E2.52087
G1 X158.685 Y108.31 E.07406
G1 X213.93 Y163.555 E2.45969
G1 X213.93 Y164.091 E.01686
G1 X159.948 Y110.108 E2.40347
G1 X160.948 Y111.644 E.0577
G1 X213.93 Y164.626 E2.35893
G1 X213.93 Y165.162 E.01686
M73 P12 R102
G1 X161.948 Y113.18 E2.31439
G1 X162.949 Y114.716 E.0577
G1 X213.93 Y165.697 E2.26986
G1 X213.93 Y166.232 E.01686
G1 X163.832 Y116.134 E2.23054
G1 X164.594 Y117.432 E.04739
G1 X213.93 Y166.768 E2.19659
G1 X213.93 Y167.303 E.01686
G1 X165.357 Y118.73 E2.16264
G1 X166.119 Y120.028 E.04739
G1 X213.93 Y167.839 E2.12869
G1 X213.93 Y168.374 E.01686
G1 X166.882 Y121.326 E2.09474
G1 X167.501 Y122.481 E.04125
G1 X213.93 Y168.91 E2.06717
G1 X213.93 Y169.445 E.01686
G1 X168.097 Y123.612 E2.04062
G1 X168.694 Y124.744 E.04027
M73 P13 R102
G1 X213.93 Y169.981 E2.01408
G1 X213.93 Y170.516 E.01686
G1 X169.29 Y125.876 E1.98753
G1 X169.886 Y127.007 E.04027
G1 X213.93 Y171.052 E1.96099
G1 X213.93 Y171.587 E.01686
G1 X170.434 Y128.091 E1.9366
G1 X170.907 Y129.099 E.03508
G1 X213.93 Y172.122 E1.91553
G1 X213.93 Y172.658 E.01686
G1 X171.38 Y130.108 E1.89446
G1 X171.853 Y131.117 E.03508
G1 X213.93 Y173.193 E1.87339
G1 X213.93 Y173.729 E.01686
G1 X172.327 Y132.125 E1.85231
G1 X172.8 Y133.134 E.03508
G1 X213.93 Y174.264 E1.83124
G1 X213.93 Y174.8 E.01686
M73 P13 R101
G1 X173.261 Y134.13 E1.81073
G1 X173.639 Y135.044 E.03114
G1 X213.93 Y175.335 E1.79388
G1 X213.93 Y175.871 E.01686
G1 X174.018 Y135.958 E1.77703
G1 X174.396 Y136.872 E.03114
G1 X213.93 Y176.406 E1.76018
G1 X213.93 Y176.942 E.01686
G1 X174.775 Y137.786 E1.74333
G1 X175.153 Y138.7 E.03114
G1 X213.93 Y177.477 E1.72648
G1 X213.93 Y178.012 E.01686
G1 X175.531 Y139.614 E1.70963
G1 X175.902 Y140.519 E.03081
G1 X213.93 Y178.548 E1.69315
G1 X213.93 Y179.083 E.01686
G1 X176.204 Y141.358 E1.67967
