; generated by PrusaSlicer 2.5.0+win64 on 2022-11-09 at 13:22:30 UTC

; 

; external perimeters extrusion width = 0.60mm
; perimeters extrusion width = 0.43mm
; infill extrusion width = 0.45mm
; solid infill extrusion width = 0.70mm
; top infill extrusion width = 0.45mm
; first layer extrusion width = 0.42mm

M73 P0 R115
M201 X9000 Y9000 Z500 E10000 ; sets maximum accelerations, mm/sec^2
M203 X500 Y500 Z12 E120 ; sets maximum feedrates, mm / sec
M204 P2000 R1500 T2000 ; sets acceleration (P, T) and retract acceleration (R), mm/sec^2
M205 X10.00 Y10.00 Z0.20 E2.50 ; sets the jerk limits, mm/sec
M205 S0 T0 ; sets the minimum extruding and travel feed rate, mm/sec
M107
;TYPE:Custom
M862.3 P "MK2S" ; printer model check
M862.1 P0.4 ; nozzle diameter check
M115 U3.2.3 ; tell printer latest fw version
G90 ; use absolute coordinates
M83 ; extruder relative mode
M204 S2000 T1500 ; MK2 firmware only supports the old M204 format
M104 S215 ; set extruder temp
M140 S60 ; set bed temp
M190 S60 ; wait for bed temp
M109 S215 ; wait for extruder temp
G28 W ; home all without mesh bed level
G80 ; mesh bed leveling
G1 Z0.2 F720
G1 Y-2 F1000 ; go outside print area
G92 E0
G1 X60 E9 F1000 ; intro line
G1 X100 E12.5 F1000 ; intro line
G92 E0
G21 ; set units to millimeters
G90 ; use absolute coordinates
M83 ; use relative distances for extrusion
M900 K0.05 ; Filament gcode LA 1.5
M900 K30 ; Filament gcode LA 1.0
M107
;LAYER_CHANGE
;Z:0.2
;HEIGHT:0.2
;BEFORE_LAYER_CHANGE
G92 E0.0
;0.2


G1 E-.8 F2100
G1 Z.4 F720
;AFTER_LAYER_CHANGE
;0.2
G1 X98.319 Y98.319 F10800
G1 Z.2 F720
G1 E.8 F2100
M204 S800
;TYPE:Skirt/Brim
;WIDTH:0.42
G1 F1200
G1 X183.319 Y13.319 E3.76904
G1 X185 Y12.623 E.05704
G1 X215 Y12.623 E.94063
G1 X216.307 Y13.015 E.04278
G1 X217.183 Y14.06 E.04278
G1 X217.377 Y15 E.03008
G1 X217.377 Y75.828 E1.90721
G1 X217.236 Y76.633 E.02564
G1 X214.63 Y83.86 E.24087
G1 X211.774 Y90.893 E.238
G1 X208.563 Y97.973 E.24377
G1 X204.838 Y105.332 E.2586
G1 X201.389 Y111.559 E.2232
G1 X197.446 Y118.054 E.23821
G1 X193.152 Y124.53 E.24364
G1 X188.381 Y131.104 E.25468
G1 X183.922 Y136.784 E.22643
G1 X178.976 Y142.591 E.23916
G1 X173.693 Y148.316 E.24426
G1 X168.29 Y153.718 E.23958
G1 X162.686 Y158.893 E.23914
G1 X156.791 Y163.916 E.24285
G1 X150.49 Y168.848 E.25088
G1 X144.514 Y173.163 E.23111
G1 X138.111 Y177.41 E.24092
G1 X131.712 Y181.299 E.23478
G1 X125.815 Y184.585 E.21166
G1 X117.902 Y188.597 E.27817
G1 X110.904 Y191.77 E.24092
G1 X104.591 Y194.337 E.21366
G1 X96.629 Y197.238 E.26572
G1 X95.828 Y197.377 E.02549
G1 X35 Y197.377 E1.90721
G1 X33.693 Y196.985 E.04278
G1 X32.817 Y195.94 E.04278
G1 X32.623 Y195 E.03008
G1 X32.623 Y165 E.94063
G1 X33.319 Y163.319 E.05704
M73 P0 R114
G1 X98.277 Y98.362 E2.88033
M204 S1000
; printing object bot-b.stl id:0 copy 0
;WIPE_START
G1 F8640
G1 X100.604 Y96.034 E-.76
;WIPE_END
G1 E-.04 F2100
G1 Z.6 F720
G1 X191.486 Y31.571 F10800
G1 Z.2 F720
G1 E.8 F2100
M204 S800
;TYPE:Perimeter
;WIDTH:0.419999
G1 F1200
G1 X191.558 Y31.785 E.00708
G1 X191.758 Y31.968 E.00852
G1 X192.029 Y32.037 E.00875
G1 X207.971 Y32.037 E.49988
G1 X208.111 Y32.02 E.0044
G1 X208.35 Y31.891 E.00853
G1 X208.484 Y31.711 E.00703
G1 X208.537 Y31.471 E.00769
G1 X208.537 Y15.787 E.49177
G1 X214.213 Y15.787 E.17796
G1 X214.213 Y75.69 E1.87822
G1 X211.691 Y82.688 E.23321
G1 X208.847 Y89.692 E.23703
G1 X205.724 Y96.576 E.23703
G1 X202.329 Y103.331 E.23703
G1 X198.667 Y109.945 E.23704
G1 X194.744 Y116.407 E.23703
G1 X190.566 Y122.707 E.23703
G1 X186.139 Y128.835 E.23704
G1 X181.471 Y134.782 E.23704
G1 X176.569 Y140.537 E.23703
G1 X171.441 Y146.092 E.23703
G1 X166.065 Y151.467 E.23835
G1 X160.541 Y156.566 E.23573
G1 X154.785 Y161.468 E.23704
G1 X148.811 Y166.157 E.23812
G1 X142.71 Y170.563 E.23596
G1 X136.411 Y174.741 E.23701
G1 X130.125 Y178.561 E.23063
G1 X123.463 Y182.258 E.23889
G1 X116.527 Y185.748 E.24344
G1 X109.665 Y188.858 E.23621
G1 X102.785 Y191.652 E.23284
G1 X95.69 Y194.213 E.2365
G1 X35.787 Y194.213 E1.87822
G1 X35.787 Y188.537 E.17796
G1 X51.471 Y188.537 E.49177
G1 X51.569 Y188.529 E.00308
G1 X51.811 Y188.424 E.00826
G1 X51.994 Y188.189 E.00933
G1 X52.037 Y187.971 E.00696
G1 X52.037 Y172.029 E.49988
G1 X52.025 Y171.914 E.00361
G1 X51.921 Y171.686 E.00787
G1 X51.691 Y171.507 E.00915
G1 X51.471 Y171.463 E.00701
G1 X35.787 Y171.463 E.49177
G1 X35.787 Y165.77 E.17851
G1 X41.994 Y165.625 E.19467
G1 X48.871 Y165.147 E.21614
G1 X55.812 Y164.343 E.21908
G1 X62.705 Y163.22 E.21901
G1 X69.466 Y161.794 E.21663
G1 X76.258 Y160.033 E.22001
G1 X82.909 Y157.974 E.2183
G1 X89.477 Y155.602 E.21896
G1 X95.888 Y152.947 E.21754
G1 X102.187 Y149.991 E.21819
G1 X108.365 Y146.736 E.21893
G1 X114.385 Y143.198 E.21895
G1 X120.218 Y139.397 E.21831
G1 X125.869 Y135.331 E.21828
G1 X131.33 Y131.005 E.21843
G1 X136.584 Y126.433 E.21835
G1 X141.647 Y121.597 E.21954
G1 X146.43 Y116.588 E.21715
G1 X151.001 Y111.335 E.21834
G1 X155.35 Y105.843 E.21963
G1 X159.415 Y100.192 E.21827
G1 X163.218 Y94.352 E.21852
G1 X166.746 Y88.346 E.21837
G1 X169.992 Y82.185 E.21837
G1 X172.951 Y75.88 E.21837
G1 X175.614 Y69.445 E.21836
G1 X177.978 Y62.894 E.21836
G1 X180.037 Y56.241 E.21836
G1 X181.787 Y49.501 E.21835
G1 X183.223 Y42.686 E.21835
G1 X184.344 Y35.813 E.21835
G1 X185.145 Y28.896 E.21835
G1 X185.626 Y21.975 E.21752
G1 X185.769 Y15.787 E.19406
G1 X191.463 Y15.787 E.17853
G1 X191.467 Y31.514 E.4931
M204 S1000
G1 X191.84 Y31.471 F10800
M204 S800
;TYPE:External perimeter
M73 P1 R114
G1 F1200
G1 X191.892 Y31.602 E.0044
G1 X192.029 Y31.66 E.00465
G1 X207.971 Y31.66 E.49988
G1 X208.098 Y31.611 E.00424
G1 X208.16 Y31.471 E.0048
G1 X208.16 Y15.41 E.50359
G1 X214.59 Y15.41 E.20161
G1 X214.59 Y75.756 E1.8921
G1 X212.044 Y82.823 E.23551
G1 X209.193 Y89.841 E.2375
G1 X206.065 Y96.739 E.2375
G1 X202.663 Y103.507 E.2375
G1 X198.993 Y110.134 E.23751
G1 X195.062 Y116.609 E.23751
G1 X190.876 Y122.922 E.2375
G1 X186.44 Y129.062 E.23751
G1 X181.763 Y135.021 E.23751
G1 X176.851 Y140.788 E.23751
G1 X171.713 Y146.354 E.23751
G1 X166.326 Y151.739 E.23882
G1 X160.791 Y156.848 E.2362
G1 X155.024 Y161.76 E.23751
G1 X149.038 Y166.458 E.2386
G1 X142.925 Y170.873 E.23643
G1 X136.613 Y175.06 E.23748
G1 X130.314 Y178.887 E.2311
G1 X123.639 Y182.592 E.23937
G1 X116.69 Y186.088 E.24392
G1 X109.814 Y189.204 E.23669
G1 X102.92 Y192.005 E.23331
G1 X95.756 Y194.59 E.2388
G1 X35.41 Y194.59 E1.89211
G1 X35.41 Y188.16 E.20161
G1 X51.471 Y188.16 E.50359
G1 X51.611 Y188.098 E.0048
G1 X51.66 Y187.971 E.00424
G1 X51.66 Y172.029 E.49988
G1 X51.601 Y171.892 E.00467
G1 X51.471 Y171.84 E.00438
G1 X35.41 Y171.84 E.50359
G1 X35.41 Y165.401 E.20189
G1 X41.968 Y165.248 E.20567
G1 X48.845 Y164.771 E.21614
G1 X55.751 Y163.971 E.21799
G1 X62.645 Y162.848 E.21901
M73 P1 R113
G1 X69.388 Y161.425 E.21608
G1 X76.163 Y159.668 E.21947
G1 X82.798 Y157.613 E.21775
G1 X89.336 Y155.253 E.21795
G1 X95.743 Y152.599 E.21746
G1 X102.035 Y149.646 E.21791
G1 X108.173 Y146.411 E.21757
G1 X114.179 Y142.882 E.2184
G1 X119.998 Y139.091 E.21776
G1 X125.636 Y135.034 E.21779
G1 X131.081 Y130.722 E.21777
G1 X136.321 Y126.163 E.21777
G1 X141.375 Y121.337 E.2191
G1 X146.145 Y116.34 E.2166
G1 X150.706 Y111.101 E.2178
G1 X155.043 Y105.624 E.21904
G1 X159.101 Y99.983 E.21786
G1 X162.892 Y94.163 E.2178
G1 X166.412 Y88.171 E.21791
G1 X169.647 Y82.032 E.21755
G1 X172.602 Y75.735 E.21809
G1 X175.26 Y69.317 E.21782
G1 X177.615 Y62.791 E.21754
G1 X179.672 Y56.147 E.21808
G1 X181.418 Y49.423 E.21781
G1 X182.851 Y42.626 E.2178
G1 X183.969 Y35.77 E.2178
G1 X184.769 Y28.87 E.2178
G1 X185.249 Y21.949 E.21752
G1 X185.401 Y15.41 E.20507
G1 X191.84 Y15.41 E.2019
G1 X191.84 Y31.411 E.50171
M204 S1000
G1 X191.753 Y31.582 F10800
;WIPE_START
G1 F8640
G1 X191.892 Y31.602 E-.04554
G1 X192.029 Y31.66 E-.03425
G1 X194.974 Y31.66 E-.68021
;WIPE_END
G1 E-.04 F2100
G1 Z.6 F720
G1 X214.1 Y16.663 F10800
G1 Z.2 F720
G1 E.8 F2100
M204 S800
;TYPE:Solid infill
;WIDTH:0.420263
G1 F1200
G1 X213.507 Y16.07 E.02632
G1 X212.973 Y16.07 E.01674
G1 X213.93 Y17.027 E.04247
G1 X213.93 Y17.561 E.01674
G1 X212.439 Y16.07 E.06615
G1 X211.906 Y16.07 E.01674
G1 X213.93 Y18.094 E.08983
G1 X213.93 Y18.628 E.01674
G1 X211.372 Y16.07 E.11351
G1 X210.838 Y16.07 E.01674
G1 X213.93 Y19.162 E.13719
G1 X213.93 Y19.695 E.01674
G1 X210.305 Y16.07 E.16087
G1 X209.771 Y16.07 E.01674
G1 X213.93 Y20.229 E.18454
G1 X213.93 Y20.762 E.01674
G1 X209.238 Y16.07 E.20822
G1 X208.82 Y16.07 E.0131
G1 X208.82 Y16.186 E.00364
G1 X213.93 Y21.296 E.22676
G1 X213.93 Y21.83 E.01674
G1 X208.82 Y16.72 E.22676
G1 X208.82 Y17.253 E.01674
G1 X213.93 Y22.363 E.22676
G1 X213.93 Y22.897 E.01674
G1 X208.82 Y17.787 E.22676
G1 X208.82 Y18.32 E.01674
G1 X213.93 Y23.431 E.22676
G1 X213.93 Y23.964 E.01674
G1 X208.82 Y18.854 E.22676
G1 X208.82 Y19.388 E.01674
G1 X213.93 Y24.498 E.22676
G1 X213.93 Y25.032 E.01674
G1 X208.82 Y19.921 E.22676
G1 X208.82 Y20.455 E.01674
G1 X213.93 Y25.565 E.22676
G1 X213.93 Y26.099 E.01674
G1 X208.82 Y20.989 E.22676
G1 X208.82 Y21.522 E.01674
G1 X213.93 Y26.633 E.22676
G1 X213.93 Y27.166 E.01674
G1 X208.82 Y22.056 E.22676
G1 X208.82 Y22.59 E.01674
G1 X213.93 Y27.7 E.22676
G1 X213.93 Y28.233 E.01674
G1 X208.82 Y23.123 E.22676
G1 X208.82 Y23.657 E.01674
G1 X213.93 Y28.767 E.22676
G1 X213.93 Y29.301 E.01674
G1 X208.82 Y24.191 E.22676
G1 X208.82 Y24.724 E.01674
G1 X213.93 Y29.834 E.22676
G1 X213.93 Y30.368 E.01674
G1 X208.82 Y25.258 E.22676
G1 X208.82 Y25.791 E.01674
G1 X213.93 Y30.902 E.22676
G1 X213.93 Y31.435 E.01674
G1 X208.82 Y26.325 E.22676
G1 X208.82 Y26.859 E.01674
G1 X213.93 Y31.969 E.22676
G1 X213.93 Y32.503 E.01674
G1 X208.82 Y27.392 E.22676
G1 X208.82 Y27.926 E.01674
G1 X213.93 Y33.036 E.22676
G1 X213.93 Y33.57 E.01674
G1 X208.82 Y28.46 E.22676
G1 X208.82 Y28.993 E.01674
G1 X213.93 Y34.104 E.22676
G1 X213.93 Y34.637 E.01674
G1 X208.82 Y29.527 E.22676
G1 X208.82 Y30.061 E.01674
G1 X213.93 Y35.171 E.22676
G1 X213.93 Y35.705 E.01674
G1 X208.82 Y30.594 E.22676
G1 X208.82 Y31.128 E.01674
G1 X213.93 Y36.238 E.22676
G1 X213.93 Y36.772 E.01674
G1 X208.801 Y31.643 E.22758
G1 X208.741 Y31.831 E.00619
G1 X208.629 Y32.004 E.00647
G1 X213.93 Y37.305 E.23522
G1 X213.93 Y37.839 E.01674
G1 X208.325 Y32.234 E.24873
G1 X208.182 Y32.294 E.00487
G1 X207.877 Y32.32 E.00959
G1 X213.93 Y38.373 E.26858
G1 X213.93 Y38.906 E.01674
G1 X207.344 Y32.32 E.29226
G1 X206.81 Y32.32 E.01674
G1 X213.93 Y39.44 E.31594
G1 X213.93 Y39.974 E.01674
G1 X206.276 Y32.32 E.33962
G1 X205.743 Y32.32 E.01674
G1 X213.93 Y40.507 E.3633
G1 X213.93 Y41.041 E.01674
G1 X205.209 Y32.32 E.38698
G1 X204.675 Y32.32 E.01674
G1 X213.93 Y41.575 E.41066
G1 X213.93 Y42.108 E.01674
G1 X204.142 Y32.32 E.43433
G1 X203.608 Y32.32 E.01674
G1 X213.93 Y42.642 E.45801
G1 X213.93 Y43.176 E.01674
G1 X203.074 Y32.32 E.48169
G1 X202.541 Y32.32 E.01674
G1 X213.93 Y43.709 E.50537
G1 X213.93 Y44.243 E.01674
G1 X202.007 Y32.32 E.52905
G1 X201.474 Y32.32 E.01674
G1 X213.93 Y44.776 E.55273
G1 X213.93 Y45.31 E.01674
G1 X200.94 Y32.32 E.57641
G1 X200.406 Y32.32 E.01674
G1 X213.93 Y45.844 E.60009
G1 X213.93 Y46.377 E.01674
G1 X199.873 Y32.32 E.62377
G1 X199.339 Y32.32 E.01674
G1 X213.93 Y46.911 E.64745
G1 X213.93 Y47.445 E.01674
G1 X198.805 Y32.32 E.67113
G1 X198.272 Y32.32 E.01674
G1 X213.93 Y47.978 E.69481
G1 X213.93 Y48.512 E.01674
G1 X197.738 Y32.32 E.71849
G1 X197.204 Y32.32 E.01674
G1 X213.93 Y49.046 E.74216
G1 X213.93 Y49.579 E.01674
G1 X196.671 Y32.32 E.76584
G1 X196.137 Y32.32 E.01674
G1 X213.93 Y50.113 E.78952
G1 X213.93 Y50.647 E.01674
G1 X195.603 Y32.32 E.8132
G1 X195.07 Y32.32 E.01674
M73 P2 R113
G1 X213.93 Y51.18 E.83688
G1 X213.93 Y51.714 E.01674
G1 X194.536 Y32.32 E.86056
G1 X194.003 Y32.32 E.01674
G1 X213.93 Y52.247 E.88424
G1 X213.93 Y52.781 E.01674
G1 X193.469 Y32.32 E.90792
G1 X192.935 Y32.32 E.01674
G1 X213.93 Y53.315 E.9316
G1 X213.93 Y53.848 E.01674
G1 X192.232 Y32.15 E.96281
M204 S1000
;WIPE_START
G1 F8640
G1 X194.559 Y34.478 E-.76
;WIPE_END
G1 E-.04 F2100
G1 Z.6 F720
G1 X191.35 Y16.326 F10800
G1 Z.2 F720
G1 E.8 F2100
M204 S800
G1 F1200
G1 X191.094 Y16.07 E.01137
G1 X190.56 Y16.07 E.01674
G1 X191.18 Y16.69 E.02752
G1 X191.18 Y17.224 E.01674
G1 X190.026 Y16.07 E.0512
G1 X189.493 Y16.07 E.01674
G1 X191.18 Y17.757 E.07488
G1 X191.18 Y18.291 E.01674
G1 X188.959 Y16.07 E.09855
G1 X188.425 Y16.07 E.01674
G1 X191.18 Y18.825 E.12223
G1 X191.18 Y19.358 E.01674
G1 X187.892 Y16.07 E.14591
G1 X187.358 Y16.07 E.01674
G1 X191.18 Y19.892 E.16959
G1 X191.18 Y20.426 E.01674
G1 X186.824 Y16.07 E.19327
G1 X186.291 Y16.07 E.01674
G1 X191.18 Y20.959 E.21695
G1 X191.18 Y21.493 E.01674
M73 P2 R112
G1 X186.039 Y16.352 E.22813
G1 X186.027 Y16.873 E.01637
G1 X191.18 Y22.026 E.22867
G1 X191.18 Y22.56 E.01674
G1 X186.015 Y17.395 E.22921
G1 X186.003 Y17.916 E.01637
G1 X191.18 Y23.094 E.22974
G1 X191.18 Y23.627 E.01674
G1 X185.99 Y18.438 E.23028
G1 X185.978 Y18.959 E.01637
G1 X191.18 Y24.161 E.23082
G1 X191.18 Y24.695 E.01674
G1 X185.966 Y19.481 E.23136
G1 X185.954 Y20.002 E.01637
G1 X191.18 Y25.228 E.23189
G1 X191.18 Y25.762 E.01674
G1 X185.942 Y20.524 E.23243
G1 X185.93 Y21.045 E.01637
G1 X191.18 Y26.296 E.23297
G1 X191.18 Y26.829 E.01674
G1 X185.918 Y21.567 E.23351
G1 X185.901 Y22.084 E.01624
G1 X191.18 Y27.363 E.23423
G1 X191.18 Y27.897 E.01674
G1 X185.867 Y22.583 E.23576
G1 X185.832 Y23.082 E.01569
G1 X191.18 Y28.43 E.2373
G1 X191.18 Y28.964 E.01674
G1 X185.798 Y23.581 E.23884
G1 X185.763 Y24.08 E.01569
G1 X191.18 Y29.497 E.24037
G1 X191.18 Y30.031 E.01674
G1 X185.728 Y24.579 E.24191
G1 X185.694 Y25.078 E.01569
G1 X191.18 Y30.565 E.24345
G1 X191.18 Y31.098 E.01674
G1 X185.659 Y25.577 E.24498
G1 X185.624 Y26.076 E.01569
G1 X213.93 Y54.382 E1.256
G1 X213.93 Y54.916 E.01674
G1 X185.59 Y26.575 E1.25753
G1 X185.555 Y27.074 E.01569
G1 X213.93 Y55.449 E1.25907
G1 X213.93 Y55.983 E.01674
G1 X185.521 Y27.573 E1.26061
G1 X185.486 Y28.072 E.01569
G1 X213.93 Y56.517 E1.26214
G1 X213.93 Y57.05 E.01674
G1 X185.451 Y28.571 E1.26368
G1 X185.41 Y29.064 E.01551
G1 X213.93 Y57.584 E1.2655
G1 X213.93 Y58.118 E.01674
G1 X185.355 Y29.542 E1.26796
G1 X185.299 Y30.021 E.01511
G1 X213.93 Y58.651 E1.27042
G1 X213.93 Y59.185 E.01674
G1 X185.244 Y30.499 E1.27288
G1 X185.189 Y30.977 E.01511
G1 X213.93 Y59.718 E1.27533
G1 X213.93 Y60.252 E.01674
G1 X185.133 Y31.455 E1.27779
G1 X185.078 Y31.933 E.01511
G1 X213.93 Y60.786 E1.28025
G1 X213.93 Y61.319 E.01674
G1 X185.022 Y32.412 E1.28271
G1 X184.967 Y32.89 E.01511
G1 X213.93 Y61.853 E1.28517
G1 X213.93 Y62.387 E.01674
G1 X184.912 Y33.368 E1.28763
G1 X184.856 Y33.846 E.01511
G1 X213.93 Y62.92 E1.29009
G1 X213.93 Y63.454 E.01674
G1 X184.801 Y34.325 E1.29255
G1 X184.745 Y34.803 E.01511
G1 X213.93 Y63.988 E1.295
G1 X213.93 Y64.521 E.01674
G1 X184.69 Y35.281 E1.29746
G1 X184.635 Y35.759 E.01511
G1 X213.93 Y65.055 E1.29992
G1 X213.93 Y65.589 E.01674
G1 X184.563 Y36.222 E1.30308
G1 X184.489 Y36.681 E.01459
G1 X213.93 Y66.122 E1.3064
G1 X213.93 Y66.656 E.01674
G1 X184.414 Y37.14 E1.30972
G1 X184.339 Y37.598 E.01459
M73 P3 R112
G1 X213.93 Y67.189 E1.31303
G1 X213.93 Y67.723 E.01674
G1 X184.264 Y38.057 E1.31635
G1 X184.189 Y38.516 E.01459
M73 P3 R111
G1 X213.93 Y68.257 E1.31967
G1 X213.93 Y68.79 E.01674
G1 X184.115 Y38.975 E1.32299
G1 X184.04 Y39.434 E.01459
G1 X213.93 Y69.324 E1.32631
G1 X213.93 Y69.858 E.01674
G1 X183.965 Y39.893 E1.32962
G1 X183.89 Y40.352 E.01459
G1 X213.93 Y70.391 E1.33294
G1 X213.93 Y70.925 E.01674
G1 X183.816 Y40.81 E1.33626
G1 X183.741 Y41.269 E.01459
G1 X213.93 Y71.459 E1.33958
G1 X213.93 Y71.992 E.01674
G1 X183.666 Y41.728 E1.3429
G1 X183.591 Y42.187 E.01459
G1 X213.93 Y72.526 E1.34622
G1 X213.93 Y73.06 E.01674
G1 X183.516 Y42.646 E1.34953
G1 X183.427 Y43.09 E.01422
G1 X213.93 Y73.593 E1.3535
G1 X213.93 Y74.127 E.01674
G1 X183.334 Y43.531 E1.35762
G1 X183.241 Y43.972 E.01413
G1 X213.93 Y74.66 E1.36174
G1 X213.93 Y75.194 E.01674
G1 X183.148 Y44.412 E1.36587
G1 X183.055 Y44.853 E.01413
G1 X213.907 Y75.705 E1.36897
G1 X213.766 Y76.097 E.01308
G1 X182.963 Y45.294 E1.36682
G1 X182.87 Y45.735 E.01413
G1 X213.624 Y76.489 E1.36467
G1 X213.483 Y76.882 E.01308
G1 X182.777 Y46.175 E1.36251
G1 X182.684 Y46.616 E.01413
G1 X213.342 Y77.274 E1.36036
