; generated by PrusaSlicer 2.5.0+win64 on 2022-11-10 at 17:27:51 UTC

; 

; external perimeters extrusion width = 0.60mm
; perimeters extrusion width = 0.43mm
; infill extrusion width = 0.45mm
; solid infill extrusion width = 0.70mm
; top infill extrusion width = 0.45mm
; first layer extrusion width = 0.42mm

M73 P0 R187
M201 X9000 Y9000 Z500 E10000 ; sets maximum accelerations, mm/sec^2
M203 X500 Y500 Z12 E120 ; sets maximum feedrates, mm / sec
M204 P2000 R1500 T2000 ; sets acceleration (P, T) and retract acceleration (R), mm/sec^2
M205 X10.00 Y10.00 Z0.20 E2.50 ; sets the jerk limits, mm/sec
M205 S0 T0 ; sets the minimum extruding and travel feed rate, mm/sec
M107
;TYPE:Custom
M862.3 P "MK2S" ; printer model check
M862.1 P0.4 ; nozzle diameter check
M115 U3.2.3 ; tell printer latest fw version
G90 ; use absolute coordinates
M83 ; extruder relative mode
M204 S2000 T1500 ; MK2 firmware only supports the old M204 format
M104 S215 ; set extruder temp
M140 S60 ; set bed temp
M190 S60 ; wait for bed temp
M109 S215 ; wait for extruder temp
G28 W ; home all without mesh bed level
G80 ; mesh bed leveling
G1 Z0.2 F720
G1 Y-2 F1000 ; go outside print area
G92 E0
G1 X60 E9 F1000 ; intro line
G1 X100 E12.5 F1000 ; intro line
G92 E0
G21 ; set units to millimeters
G90 ; use absolute coordinates
M83 ; use relative distances for extrusion
M900 K0.05 ; Filament gcode LA 1.5
M900 K30 ; Filament gcode LA 1.0
M107
;LAYER_CHANGE
;Z:0.2
;HEIGHT:0.2
;BEFORE_LAYER_CHANGE
G92 E0.0
;0.2


G1 E-.8 F2100
G1 Z.4 F720
;AFTER_LAYER_CHANGE
;0.2
G1 X47.059 Y38.678 F10800
G1 Z.2 F720
G1 E.8 F2100
M204 S800
;TYPE:Skirt/Brim
;WIDTH:0.42
G1 F1200
G1 X47.797 Y37.78 E.03643
G1 X52.09 Y33.142 E.19817
G1 X56.519 Y28.91 E.19205
G1 X61.042 Y25.074 E.18594
G1 X66.162 Y21.231 E.20076
G1 X71.207 Y17.904 E.18947
G1 X76.512 Y14.842 E.19205
G1 X81.991 Y12.104 E.19206
G1 X87.443 Y9.772 E.18593
G1 X93.47 Y7.608 E.20076
G1 X99.271 Y5.916 E.18947
G1 X105.243 Y4.554 E.19205
G1 X111.285 Y3.552 E.19205
G1 X117.183 Y2.931 E.18593
G1 X123.579 Y2.64 E.20076
G1 X129.621 Y2.733 E.18946
G1 X135.535 Y3.175 E.18594
G1 X141.88 Y4.03 E.20076
G1 X147.809 Y5.2 E.18947
G1 X153.736 Y6.743 E.19205
G1 X159.562 Y8.637 E.19206
G1 X165.082 Y10.802 E.18594
G1 X170.894 Y13.49 E.20075
G1 X176.214 Y16.356 E.18947
G1 X181.424 Y19.577 E.19206
G1 X186.431 Y23.104 E.19205
G1 X191.069 Y26.8 E.18594
G1 X195.83 Y31.081 E.20076
G1 X200.068 Y35.388 E.18946
G1 X204.098 Y40.002 E.19206
G1 X207.844 Y44.848 E.19206
G1 X211.185 Y49.747 E.18593
G1 X214.473 Y55.241 E.20075
G1 X217.254 Y60.606 E.18947
G1 X219.744 Y66.202 E.19205
G1 X221.895 Y71.938 E.19206
G1 X223.644 Y77.604 E.18593
G1 X225.166 Y83.823 E.20076
G1 X226.242 Y89.769 E.18946
G1 X226.972 Y95.851 E.19206
G1 X227.337 Y101.965 E.19206
G1 X227.339 Y107.895 E.18593
G1 X226.96 Y114.287 E.20076
G1 X226.236 Y120.286 E.18946
G1 X225.141 Y126.313 E.19206
G1 X223.687 Y132.263 E.19205
G1 X221.941 Y137.93 E.18593
G1 X219.695 Y143.926 E.20076
G1 X217.234 Y149.446 E.18947
G1 X214.412 Y154.882 E.19205
G1 X211.269 Y160.139 E.19205
G1 X207.929 Y165.04 E.18594
G1 X204.016 Y170.107 E.20075
G1 X200.038 Y174.656 E.18947
G1 X195.738 Y179.019 E.19205
G1 X191.185 Y183.116 E.19206
G1 X186.55 Y186.815 E.18593
G1 X181.386 Y190.459 E.19817
G1 X176.175 Y193.678 E.19206
G1 X170.953 Y196.489 E.18593
G1 X165.145 Y199.184 E.20076
M73 P0 R186
G1 X159.519 Y201.389 E.18947
G1 X153.693 Y203.281 E.19205
G1 X147.765 Y204.821 E.19205
G1 X141.947 Y205.968 E.18593
G1 X135.602 Y206.831 E.20076
G1 X129.576 Y207.28 E.18946
G1 X123.505 Y207.371 E.19039
G1 X117.25 Y207.087 E.19631
G1 X111.241 Y206.453 E.18947
G1 X105.199 Y205.448 E.19205
G1 X99.227 Y204.084 E.19206
G1 X93.535 Y202.422 E.18593
G1 X87.506 Y200.266 E.20076
G1 X81.95 Y197.889 E.18947
G1 X76.473 Y195.148 E.19206
G1 X71.169 Y192.084 E.19205
G1 X66.219 Y188.818 E.18593
G1 X61.093 Y184.981 E.20076
G1 X56.485 Y181.071 E.18947
G1 X52.059 Y176.838 E.19205
G1 X47.894 Y172.347 E.19205
G1 X44.126 Y167.767 E.18594
G1 X40.36 Y162.589 E.20076
G1 X37.109 Y157.495 E.18947
G1 X34.127 Y152.145 E.19205
G1 X31.47 Y146.626 E.19205
G1 X29.22 Y141.139 E.18594
G1 X27.147 Y135.081 E.20076
G1 X25.542 Y129.255 E.18946
G1 X24.27 Y123.264 E.19206
G1 X23.358 Y117.207 E.19205
G1 X22.825 Y111.3 E.18594
G1 X22.629 Y104.983 E.19817
G1 X22.813 Y98.861 E.19206
G1 X23.344 Y92.954 E.18593
G1 X24.294 Y86.622 E.20076
G1 X25.553 Y80.712 E.18946
G1 X27.184 Y74.808 E.19206
G1 X29.165 Y69.012 E.19205
G1 X31.412 Y63.524 E.18593
G1 X34.187 Y57.754 E.20076
G1 X37.132 Y52.477 E.18946
G1 X40.43 Y47.316 E.19206
G1 X44.032 Y42.361 E.19205
G1 X47.021 Y38.724 E.14762
M204 S1000
; printing object lamp-base.stl id:0 copy 0
;WIPE_START
G1 F8640
G1 X47.797 Y37.78 E-.28215
G1 X49.203 Y36.261 E-.47785
;WIPE_END
G1 E-.04 F2100
G1 Z.6 F720
G1 X36.944 Y150.704 F10800
G1 Z.2 F720
G1 E.8 F2100
M204 S800
;TYPE:Perimeter
;WIDTH:0.419999
G1 F1200
G1 X34.369 Y145.356 E.18612
G1 X32.123 Y139.875 E.18572
G1 X30.2 Y134.246 E.18652
G1 X28.621 Y128.524 E.18612
G1 X27.387 Y122.718 E.18612
G1 X26.502 Y116.848 E.18612
G1 X25.971 Y110.948 E.18572
G1 X25.793 Y105.002 E.18651
G1 X25.971 Y99.069 E.18612
G1 X26.502 Y93.17 E.18572
G1 X27.388 Y87.287 E.18652
G1 X28.622 Y81.481 E.18612
G1 X30.202 Y75.759 E.18612
G1 X32.12 Y70.142 E.18612
G1 X34.367 Y64.661 E.18572
G1 X36.947 Y59.301 E.18652
G1 X39.838 Y54.117 E.18612
G1 X43.034 Y49.115 E.18612
G1 X46.523 Y44.312 E.18612
G1 X50.285 Y39.737 E.18572
G1 X54.331 Y35.376 E.18652
G1 X58.622 Y31.274 E.18612
G1 X63.14 Y27.444 E.18572
G1 X67.9 Y23.876 E.18651
G1 X72.854 Y20.606 E.18612
G1 X77.995 Y17.638 E.18612
G1 X83.304 Y14.983 E.18612
G1 X88.75 Y12.655 E.18572
G1 X94.35 Y10.648 E.18651
G1 X100.048 Y8.983 E.18612
G1 X105.835 Y7.663 E.18612
G1 X111.691 Y6.69 E.18612
G1 X117.582 Y6.071 E.18572
G1 X123.512 Y5.804 E.18612
G1 X129.46 Y5.893 E.18652
G1 X135.379 Y6.337 E.18612
G1 X141.262 Y7.134 E.18612
G1 X147.073 Y8.279 E.18572
G1 X152.831 Y9.775 E.18652
G1 X158.476 Y11.609 E.18612
G1 X164.002 Y13.778 E.18612
G1 X169.387 Y16.274 E.18612
G1 X174.604 Y19.08 E.18572
G1 X179.664 Y22.207 E.18652
G1 X184.518 Y25.624 E.18612
G1 X189.159 Y29.325 E.18612
G1 X193.57 Y33.297 E.18612
G1 X197.727 Y37.517 E.18572
G1 X201.641 Y41.997 E.18651
G1 X205.272 Y46.692 E.18612
G1 X208.616 Y51.597 E.18612
G1 X211.66 Y56.693 E.18612
G1 X214.389 Y61.95 E.18572
G1 X216.809 Y67.385 E.18652
G1 X218.894 Y72.942 E.18612
G1 X220.64 Y78.602 E.18572
G1 X222.051 Y84.381 E.18652
G1 X223.111 Y90.222 E.18612
G1 X223.819 Y96.115 E.18612
G1 X224.164 Y101.871 E.18078
G1 X224.174 Y107.964 E.19105
G1 X223.818 Y113.902 E.18652
G1 X223.11 Y119.796 E.18612
G1 X222.049 Y125.636 E.18612
G1 X220.642 Y131.403 E.18612
G1 X218.896 Y137.063 E.18572
G1 X216.806 Y142.632 E.18652
G1 X214.392 Y148.055 E.18612
G1 X211.657 Y153.324 E.18612
G1 X208.612 Y158.419 E.18612
G1 X205.276 Y163.313 E.18572
G1 X201.637 Y168.02 E.18652
G1 X197.731 Y172.49 E.18612
G1 X193.565 Y176.718 E.18612
G1 X189.154 Y180.69 E.18612
G1 X184.523 Y184.383 E.18572
G1 X179.659 Y187.808 E.18651
G1 X174.609 Y190.928 E.18612
G1 X169.382 Y193.741 E.18612
G1 X163.996 Y196.236 E.18612
G1 X158.482 Y198.4 E.18572
G1 X152.824 Y200.238 E.18651
G1 X147.079 Y201.731 E.18612
G1 X141.255 Y202.878 E.18612
G1 X135.373 Y203.675 E.18612
G1 X129.466 Y204.118 E.18572
G1 X123.518 Y204.207 E.18652
G1 X117.588 Y203.941 E.18612
G1 X111.697 Y203.321 E.18572
G1 X105.829 Y202.347 E.18651
G1 X100.042 Y201.026 E.18612
G1 X94.344 Y199.361 E.18612
G1 X88.756 Y197.359 E.18612
G1 X83.31 Y195.031 E.18572
G1 X77.989 Y192.37 E.18651
G1 X72.848 Y189.402 E.18612
G1 X67.895 Y186.132 E.18612
G1 X63.145 Y182.571 E.18612
G1 X58.627 Y178.741 E.18572
G1 X54.327 Y174.631 E.18651
G1 X50.289 Y170.279 E.18612
G1 X46.527 Y165.704 E.18572
G1 X43.03 Y160.891 E.18652
G1 X39.835 Y155.889 E.18611
G1 X36.974 Y150.757 E.18424
M204 S1000
G1 X36.605 Y150.869 F10800
M204 S800
;TYPE:External perimeter
G1 F1200
G1 X34.024 Y145.51 E.18653
G1 X31.77 Y140.008 E.18643
G1 X29.839 Y134.357 E.18722
G1 X28.254 Y128.613 E.18683
G1 X27.016 Y122.785 E.18683
G1 X26.128 Y116.893 E.18682
G1 X25.595 Y110.971 E.18643
G1 X25.416 Y105.002 E.18722
G1 X25.594 Y99.047 E.18682
G1 X26.127 Y93.125 E.18643
G1 X27.017 Y87.22 E.18722
G1 X28.256 Y81.392 E.18683
G1 X29.841 Y75.648 E.18682
G1 X31.767 Y70.009 E.18683
G1 X34.022 Y64.508 E.18643
G1 X36.613 Y59.127 E.18722
G1 X39.514 Y53.923 E.18683
G1 X42.722 Y48.902 E.18682
G1 X46.225 Y44.082 E.18683
G1 X50.001 Y39.489 E.18643
G1 X54.062 Y35.111 E.18723
G1 X58.369 Y30.994 E.18682
G1 X62.905 Y27.149 E.18643
G1 X67.683 Y23.567 E.18722
G1 X72.656 Y20.285 E.18683
G1 X77.816 Y17.306 E.18683
G1 X83.145 Y14.641 E.18683
G1 X88.613 Y12.304 E.18643
G1 X94.234 Y10.289 E.18722
G1 X99.953 Y8.618 E.18683
G1 X105.762 Y7.293 E.18683
G1 X111.64 Y6.317 E.18682
G1 X117.554 Y5.695 E.18643
G1 X123.506 Y5.427 E.18683
G1 X129.477 Y5.516 E.18722
G1 X135.419 Y5.962 E.18682
G1 X141.323 Y6.762 E.18683
G1 X147.157 Y7.911 E.18643
G1 X152.936 Y9.413 E.18722
G1 X158.603 Y11.254 E.18682
G1 X164.15 Y13.431 E.18683
G1 X169.556 Y15.936 E.18682
G1 X174.792 Y18.754 E.18643
G1 X179.872 Y21.892 E.18722
G1 X184.744 Y25.322 E.18682
G1 X189.403 Y29.038 E.18683
G1 X193.831 Y33.025 E.18682
M73 P0 R185
G1 X198.004 Y37.26 E.18643
G1 X201.932 Y41.757 E.18722
G1 X205.577 Y46.471 E.18683
G1 X208.934 Y51.394 E.18683
G1 X211.99 Y56.509 E.18683
G1 X214.729 Y61.787 E.18643
G1 X217.158 Y67.242 E.18722
G1 X219.251 Y72.82 E.18683
G1 X221.004 Y78.502 E.18643
G1 X222.42 Y84.303 E.18722
G1 X223.484 Y90.166 E.18683
G1 X224.195 Y96.082 E.18683
G1 X224.54 Y101.848 E.18114
G1 X224.551 Y107.975 E.19211
G1 X224.194 Y113.936 E.18723
G1 X223.483 Y119.852 E.18682
G1 X222.418 Y125.715 E.18682
G1 X221.006 Y131.503 E.18683
G1 X219.253 Y137.185 E.18643
G1 X217.155 Y142.776 E.18722
G1 X214.732 Y148.219 E.18682
G1 X211.987 Y153.507 E.18683
G1 X208.93 Y158.623 E.18683
G1 X205.581 Y163.535 E.18643
G1 X201.928 Y168.259 E.18722
G1 X198.008 Y172.746 E.18683
G1 X193.826 Y176.991 E.18683
G1 X189.398 Y180.978 E.18683
G1 X184.749 Y184.685 E.18643
G1 X179.867 Y188.122 E.18722
G1 X174.798 Y191.254 E.18683
G1 X169.551 Y194.078 E.18683
G1 X164.144 Y196.582 E.18683
G1 X158.609 Y198.755 E.18643
G1 X152.93 Y200.6 E.18722
G1 X147.163 Y202.099 E.18683
G1 X141.317 Y203.251 E.18683
G1 X135.412 Y204.05 E.18683
G1 X129.483 Y204.495 E.18643
G1 X123.513 Y204.584 E.18722
G1 X117.56 Y204.317 E.18682
G1 X111.647 Y203.695 E.18643
G1 X105.756 Y202.717 E.18722
G1 X99.947 Y201.391 E.18683
G1 X94.228 Y199.72 E.18682
G1 X88.618 Y197.71 E.18683
G1 X83.151 Y195.373 E.18643
G1 X77.81 Y192.702 E.18722
G1 X72.65 Y189.723 E.18683
G1 X67.677 Y186.44 E.18683
G1 X62.91 Y182.866 E.18683
G1 X58.374 Y179.021 E.18643
G1 X54.058 Y174.895 E.18722
G1 X50.005 Y170.527 E.18683
G1 X46.229 Y165.935 E.18643
G1 X42.719 Y161.104 E.18723
G1 X39.511 Y156.082 E.18682
G1 X36.634 Y150.922 E.18525
M204 S1000
G1 X36.821 Y150.532 F10800
;WIPE_START
G1 F8640
G1 X35.205 Y147.957 E-.76
;WIPE_END
G1 E-.04 F2100
G1 Z.6 F720
G1 X39.637 Y58.849 F10800
G1 Z.2 F720
G1 E.8 F2100
M204 S800
;TYPE:Perimeter
G1 F1200
G1 X40.696 Y58.404 E.03601
G1 X40.838 Y58.365 E.00462
G1 X41.914 Y58.223 E.03402
G1 X42.166 Y58.219 E.00791
G1 X74.954 Y58.219 E1.02803
G1 X75.835 Y58.102 E.02787
G1 X76.609 Y57.782 E.02624
G1 X77.273 Y57.273 E.02624
G1 X77.782 Y56.609 E.02624
G1 X78.102 Y55.835 E.02624
G1 X78.219 Y54.954 E.02787
G1 X78.223 Y21.917 E1.03584
G1 X78.365 Y20.839 E.03411
G1 X78.404 Y20.696 E.00463
G1 X78.826 Y19.677 E.03457
G1 X79.571 Y18.675 E.03916
G1 X79.675 Y18.57 E.00463
G1 X80.55 Y17.899 E.03457
G1 X80.677 Y17.825 E.00463
G1 X81.696 Y17.404 E.03457
G1 X81.838 Y17.365 E.00462
G1 X82.914 Y17.223 E.03402
G1 X83.797 Y17.219 E.02767
G1 X167.02 Y17.219 E2.60941
G1 X168.173 Y17.365 E.03642
G1 X169.334 Y17.825 E.03916
G1 X169.462 Y17.899 E.00463
G1 X170.336 Y18.57 E.03457
G1 X170.441 Y18.675 E.00463
G1 X171.112 Y19.55 E.03457
G1 X171.186 Y19.677 E.00463
G1 X171.608 Y20.696 E.03457
G1 X171.788 Y21.914 E.03861
G1 X171.793 Y54.954 E1.03594
G1 X171.909 Y55.835 E.02787
M73 P1 R185
G1 X172.229 Y56.609 E.02624
G1 X172.739 Y57.273 E.02624
G1 X173.403 Y57.782 E.02624
G1 X174.176 Y58.102 E.02624
G1 X175.057 Y58.219 E.02787
G1 X208.094 Y58.223 E1.03584
G1 X209.173 Y58.365 E.03411
G1 X209.916 Y58.652 E.02497
G1 X210.462 Y58.899 E.0188
G1 X211.336 Y59.571 E.03457
G1 X211.441 Y59.675 E.00463
G1 X212.112 Y60.55 E.03457
G1 X212.186 Y60.677 E.00463
G1 X212.608 Y61.696 E.03457
G1 X212.793 Y62.988 E.04093
G1 X212.793 Y147.02 E2.63476
G1 X212.646 Y148.173 E.03643
G1 X212.608 Y148.315 E.00463
G1 X212.186 Y149.334 E.03457
G1 X212.112 Y149.462 E.00463
G1 X211.441 Y150.336 E.03457
G1 X211.336 Y150.441 E.00463
G1 X210.462 Y151.112 E.03457
G1 X209.315 Y151.608 E.03916
G1 X209.173 Y151.646 E.00462
G1 X208.097 Y151.788 E.03402
G1 X175.057 Y151.793 E1.03594
G1 X174.176 Y151.909 E.02787
G1 X173.403 Y152.229 E.02624
G1 X172.739 Y152.739 E.02624
G1 X172.229 Y153.403 E.02624
G1 X171.909 Y154.176 E.02624
G1 X171.793 Y155.057 E.02787
G1 X171.793 Y188.02 E1.03353
G1 X171.673 Y188.965 E.02988
G1 X171.608 Y189.315 E.01116
G1 X171.186 Y190.334 E.03457
G1 X171.112 Y190.462 E.00463
G1 X170.441 Y191.336 E.03457
G1 X170.336 Y191.441 E.00463
G1 X169.462 Y192.112 E.03457
G1 X168.315 Y192.608 E.03916
G1 X168.173 Y192.646 E.00462
G1 X167.023 Y192.793 E.03634
G1 X82.991 Y192.793 E2.63476
G1 X81.839 Y192.646 E.03643
G1 X81.696 Y192.608 E.00463
G1 X80.677 Y192.186 E.03457
G1 X80.55 Y192.112 E.00463
G1 X79.675 Y191.441 E.03457
G1 X78.899 Y190.462 E.03916
G1 X78.825 Y190.334 E.00463
G1 X78.404 Y189.315 E.03457
G1 X78.365 Y189.173 E.00462
G1 X78.223 Y188.097 E.03402
G1 X78.219 Y155.057 E1.03594
G1 X78.102 Y154.176 E.02787
G1 X77.782 Y153.403 E.02624
G1 X77.273 Y152.739 E.02624
G1 X76.609 Y152.229 E.02624
G1 X75.835 Y151.909 E.02624
G1 X74.954 Y151.793 E.02787
G1 X41.917 Y151.788 E1.03584
G1 X40.839 Y151.646 E.03411
G1 X40.696 Y151.608 E.00463
G1 X39.677 Y151.186 E.03457
G1 X39.55 Y151.112 E.00463
G1 X38.675 Y150.441 E.03457
G1 X37.899 Y149.462 E.03916
G1 X37.825 Y149.334 E.00463
G1 X37.404 Y148.315 E.03457
G1 X37.365 Y148.173 E.00462
G1 X37.219 Y147.023 E.03634
G1 X37.219 Y62.991 E2.63476
G1 X37.365 Y61.839 E.03642
G1 X37.404 Y61.696 E.00463
G1 X37.825 Y60.677 E.03457
G1 X38.57 Y59.675 E.03916
G1 X38.675 Y59.57 E.00463
G1 X39.585 Y58.879 E.03585
M204 S1000
G1 X39.837 Y59.168 F10800
M204 S800
;TYPE:External perimeter
G1 F1200
G1 X40.84 Y58.752 E.03407
G1 X41.964 Y58.597 E.03555
G1 X74.979 Y58.596 E1.03517
G1 X75.934 Y58.47 E.03021
G1 X76.799 Y58.112 E.02936
G1 X77.542 Y57.542 E.02936
G1 X78.112 Y56.799 E.02936
G1 X78.47 Y55.934 E.02936
G1 X78.596 Y54.979 E.03021
G1 X78.597 Y21.966 E1.03507
G1 X78.752 Y20.84 E.03564
G1 X79.174 Y19.822 E.03457
G1 X79.87 Y18.904 E.0361
G1 X80.782 Y18.197 E.0362
G1 X81.84 Y17.752 E.036
G1 X82.964 Y17.597 E.03555
G1 X83.797 Y17.596 E.02612
G1 X167.02 Y17.596 E2.60941
G1 X168.123 Y17.739 E.03488
M73 P1 R184
G1 X169.189 Y18.174 E.0361
G1 X170.107 Y18.87 E.0361
G1 X170.813 Y19.779 E.0361
G1 X171.259 Y20.84 E.0361
G1 X171.414 Y21.964 E.03555
G1 X171.416 Y54.979 E1.03516
G1 X171.541 Y55.934 E.03021
G1 X171.9 Y56.799 E.02936
G1 X172.47 Y57.542 E.02936
G1 X173.212 Y58.112 E.02936
G1 X174.077 Y58.47 E.02936
G1 X175.032 Y58.596 E.03021
G1 X208.045 Y58.597 E1.03507
G1 X209.123 Y58.739 E.03411
G1 X209.771 Y59.001 E.02191
G1 X210.232 Y59.199 E.01573
G1 X211.107 Y59.87 E.03457
G1 X211.813 Y60.779 E.0361
G1 X212.259 Y61.84 E.0361
G1 X212.416 Y62.988 E.03632
G1 X212.416 Y147.02 E2.63476
G1 X212.272 Y148.123 E.03488
G1 X211.837 Y149.189 E.0361
G1 X211.142 Y150.107 E.0361
G1 X210.232 Y150.813 E.0361
G1 X209.171 Y151.259 E.0361
G1 X208.048 Y151.414 E.03555
G1 X175.032 Y151.416 E1.03517
G1 X174.077 Y151.541 E.03021
G1 X173.212 Y151.9 E.02936
G1 X172.47 Y152.47 E.02936
G1 X171.9 Y153.212 E.02936
G1 X171.541 Y154.077 E.02936
G1 X171.416 Y155.032 E.03021
G1 X171.416 Y188.02 E1.0343
G1 X171.259 Y189.171 E.03641
G1 X170.813 Y190.232 E.0361
G1 X170.141 Y191.107 E.03457
G1 X169.232 Y191.813 E.0361
G1 X168.171 Y192.259 E.0361
G1 X167.023 Y192.416 E.03632
G1 X82.991 Y192.416 E2.63476
