; generated by PrusaSlicer 2.5.0+win64 on 2022-11-10 at 11:48:36 UTC

; 

; external perimeters extrusion width = 0.60mm
; perimeters extrusion width = 0.43mm
; infill extrusion width = 0.45mm
; solid infill extrusion width = 0.70mm
; top infill extrusion width = 0.45mm
; first layer extrusion width = 0.42mm

M73 P0 R128
M201 X9000 Y9000 Z500 E10000 ; sets maximum accelerations, mm/sec^2
M203 X500 Y500 Z12 E120 ; sets maximum feedrates, mm / sec
M204 P2000 R1500 T2000 ; sets acceleration (P, T) and retract acceleration (R), mm/sec^2
M205 X10.00 Y10.00 Z0.20 E2.50 ; sets the jerk limits, mm/sec
M205 S0 T0 ; sets the minimum extruding and travel feed rate, mm/sec
M107
;TYPE:Custom
M862.3 P "MK2S" ; printer model check
M862.1 P0.4 ; nozzle diameter check
M115 U3.2.3 ; tell printer latest fw version
G90 ; use absolute coordinates
M83 ; extruder relative mode
M204 S2000 T1500 ; MK2 firmware only supports the old M204 format
M104 S215 ; set extruder temp
M140 S60 ; set bed temp
M190 S60 ; wait for bed temp
M109 S215 ; wait for extruder temp
G28 W ; home all without mesh bed level
G80 ; mesh bed leveling
G1 Z0.2 F720
G1 Y-2 F1000 ; go outside print area
G92 E0
G1 X60 E9 F1000 ; intro line
G1 X100 E12.5 F1000 ; intro line
G92 E0
G21 ; set units to millimeters
G90 ; use absolute coordinates
M83 ; use relative distances for extrusion
M900 K0.05 ; Filament gcode LA 1.5
M900 K30 ; Filament gcode LA 1.0
M107
;LAYER_CHANGE
;Z:0.2
;HEIGHT:0.2
;BEFORE_LAYER_CHANGE
G92 E0.0
;0.2


G1 E-.8 F2100
G1 Z.4 F720
;AFTER_LAYER_CHANGE
;0.2
G1 X33.015 Y13.693 F10800
G1 Z.2 F720
G1 E.8 F2100
M204 S800
;TYPE:Skirt/Brim
;WIDTH:0.42
G1 F1200
G1 X34.06 Y12.817 E.04278
G1 X35 Y12.623 E.03008
G1 X95.828 Y12.623 E1.90721
G1 X96.633 Y12.764 E.02565
G1 X103.864 Y15.371 E.24101
G1 X110.985 Y18.266 E.24101
G1 X117.985 Y21.442 E.24101
G1 X124.852 Y24.896 E.24101
G1 X131.495 Y28.574 E.23808
G1 X138.066 Y32.562 E.24102
G1 X144.474 Y36.809 E.24102
G1 X150.78 Y41.365 E.24391
G1 X156.754 Y46.054 E.23813
G1 X162.642 Y51.067 E.24247
G1 X168.29 Y56.282 E.24102
G1 X173.843 Y61.841 E.24637
G1 X178.947 Y67.374 E.23602
G1 X184.329 Y73.733 E.26122
G1 X188.658 Y79.249 E.21984
G1 X193.05 Y85.324 E.23502
G1 X197.254 Y91.646 E.23807
M73 P0 R127
G1 X201.722 Y99.026 E.27048
G1 X205.129 Y105.194 E.22092
G1 X208.576 Y112.052 E.24066
G1 X211.79 Y119.146 E.2442
G1 X214.649 Y126.187 E.23829
G1 X217.236 Y133.367 E.23928
G1 X217.377 Y134.172 E.02565
G1 X217.377 Y195 E1.90721
G1 X216.985 Y196.307 E.04278
G1 X215.94 Y197.183 E.04278
G1 X215 Y197.377 E.03008
G1 X185 Y197.377 E.94063
G1 X183.319 Y196.681 E.05704
G1 X33.319 Y46.681 E6.65125
G1 X32.623 Y45 E.05704
G1 X32.623 Y15 E.94063
G1 X32.997 Y13.75 E.0409
M204 S1000
; printing object top-a.stl id:0 copy 0
;WIPE_START
G1 F8640
G1 X34.06 Y12.817 E-.32671
G1 X35 Y12.623 E-.22155
G1 X35.917 Y12.623 E-.21174
;WIPE_END
G1 E-.04 F2100
G1 Z.6 F720
G1 X51.571 Y38.514 F10800
G1 Z.2 F720
G1 E.8 F2100
M204 S800
;TYPE:Perimeter
;WIDTH:0.419999
G1 F1200
G1 X51.785 Y38.442 E.00708
G1 X51.968 Y38.242 E.00852
G1 X52.037 Y37.971 E.00875
G1 X52.037 Y22.029 E.49988
G1 X52.02 Y21.889 E.0044
G1 X51.891 Y21.65 E.00853
G1 X51.711 Y21.516 E.00703
G1 X51.471 Y21.463 E.00769
G1 X35.787 Y21.463 E.49177
G1 X35.787 Y15.787 E.17796
G1 X95.69 Y15.787 E1.87822
G1 X102.688 Y18.309 E.23323
G1 X109.693 Y21.154 E.23704
G1 X116.578 Y24.276 E.23704
G1 X123.333 Y27.672 E.23704
G1 X129.947 Y31.334 E.23705
G1 X136.409 Y35.258 E.23705
G1 X142.71 Y39.436 E.23704
G1 X148.838 Y43.863 E.23705
G1 X154.785 Y48.532 E.23705
G1 X160.541 Y53.434 E.23705
G1 X166.096 Y58.562 E.23705
G1 X171.443 Y63.909 E.23709
G1 X176.574 Y69.468 E.23721
G1 X181.471 Y75.218 E.23679
G1 X186.133 Y81.157 E.23674
G1 X190.553 Y87.275 E.23664
G1 X194.723 Y93.56 E.23651
G1 X198.706 Y100.124 E.24072
G1 X202.333 Y106.677 E.23485
G1 X205.727 Y113.43 E.23697
G1 X208.848 Y120.313 E.23696
G1 X211.692 Y127.315 E.23695
G1 X214.213 Y134.31 E.23313
G1 X214.213 Y194.213 E1.87822
G1 X208.537 Y194.213 E.17796
G1 X208.537 Y178.529 E.49177
G1 X208.523 Y178.404 E.00392
G1 X208.424 Y178.189 E.00743
G1 X208.189 Y178.006 E.00933
G1 X207.971 Y177.963 E.00696
G1 X192.029 Y177.963 E.49988
G1 X191.915 Y177.974 E.00357
G1 X191.688 Y178.077 E.00781
G1 X191.508 Y178.308 E.0092
G1 X191.463 Y178.529 E.00705
G1 X191.463 Y194.213 E.49177
G1 X185.769 Y194.213 E.17853
G1 X185.626 Y188.024 E.19411
G1 X185.145 Y181.101 E.21757
G1 X184.339 Y174.156 E.21921
G1 X183.217 Y167.282 E.2184
G1 X181.785 Y160.492 E.21758
G1 X180.035 Y153.75 E.21839
G1 X177.961 Y147.055 E.21977
G1 X175.602 Y140.524 E.21773
G1 X172.946 Y134.109 E.2177
G1 X169.986 Y127.803 E.21841
G1 X166.77 Y121.698 E.21636
G1 X163.237 Y115.678 E.21886
G1 X159.431 Y109.832 E.21871
G1 X155.251 Y104.029 E.22424
G1 X151.025 Y98.694 E.21339
G1 X146.449 Y93.433 E.21862
G1 X141.639 Y88.394 E.21842
G1 X136.602 Y83.583 E.21841
G1 X131.347 Y79.01 E.21841
G1 X125.826 Y74.637 E.22082
G1 X120.178 Y70.576 E.21812
G1 X114.341 Y66.775 E.21841
G1 X108.338 Y63.25 E.21828
G1 X102.178 Y60.005 E.21829
G1 X95.875 Y57.047 E.21831
G1 X89.441 Y54.384 E.21831
G1 X82.892 Y52.021 E.21832
G1 X76.24 Y49.962 E.21833
G1 X69.5 Y48.213 E.21833
G1 X62.686 Y46.777 E.21833
G1 X55.813 Y45.656 E.21834
G1 X48.896 Y44.855 E.21834
G1 X41.975 Y44.374 E.21752
G1 X35.787 Y44.231 E.19406
G1 X35.787 Y38.537 E.17853
G1 X51.514 Y38.533 E.4931
M204 S1000
G1 X51.471 Y38.16 F10800
M204 S800
;TYPE:External perimeter
G1 F1200
G1 X51.602 Y38.108 E.0044
G1 X51.66 Y37.971 E.00465
G1 X51.66 Y22.029 E.49988
G1 X51.611 Y21.902 E.00424
G1 X51.471 Y21.84 E.0048
G1 X35.41 Y21.84 E.50359
G1 X35.41 Y15.41 E.20161
G1 X95.756 Y15.41 E1.8921
G1 X102.823 Y17.957 E.23553
G1 X109.841 Y20.807 E.23752
G1 X116.74 Y23.936 E.23752
G1 X123.509 Y27.338 E.23752
G1 X130.136 Y31.008 E.23752
G1 X136.611 Y34.939 E.23752
M73 P0 R126
G1 X142.924 Y39.126 E.23752
G1 X149.065 Y43.562 E.23752
G1 X155.024 Y48.24 E.23752
M73 P1 R126
G1 X160.791 Y53.152 E.23752
G1 X166.357 Y58.29 E.23752
G1 X171.715 Y63.648 E.23756
G1 X176.856 Y69.218 E.23768
G1 X181.763 Y74.979 E.23726
G1 X186.434 Y80.93 E.23721
G1 X190.863 Y87.06 E.23711
G1 X195.041 Y93.358 E.23698
G1 X199.032 Y99.934 E.24119
G1 X202.667 Y106.501 E.23532
G1 X206.068 Y113.267 E.23745
G1 X209.195 Y120.164 E.23744
G1 X212.045 Y127.18 E.23743
G1 X214.59 Y134.244 E.23543
G1 X214.59 Y194.59 E1.8921
G1 X208.16 Y194.59 E.20161
G1 X208.16 Y178.529 E.50359
G1 X208.098 Y178.389 E.0048
G1 X207.971 Y178.34 E.00424
G1 X192.029 Y178.34 E.49988
G1 X191.892 Y178.398 E.00465
G1 X191.84 Y178.529 E.0044
G1 X191.84 Y194.59 E.50359
G1 X185.401 Y194.59 E.2019
G1 X185.249 Y188.05 E.20512
G1 X184.769 Y181.127 E.21757
G1 X183.967 Y174.217 E.21812
G1 X182.849 Y167.36 E.21785
G1 X181.416 Y160.57 E.21758
G1 X179.668 Y153.836 E.21812
G1 X177.6 Y147.167 E.21894
G1 X175.253 Y140.666 E.21672
G1 X172.597 Y134.253 E.21762
G1 X169.641 Y127.955 E.21813
G1 X166.445 Y121.889 E.215
G1 X162.912 Y115.869 E.21886
G1 X159.115 Y110.038 E.21816
G1 X154.955 Y104.262 E.2232
G1 X150.738 Y98.939 E.21291
G1 X146.178 Y93.696 E.21786
G1 X141.378 Y88.667 E.21797
G1 X136.354 Y83.867 E.21787
G1 X131.113 Y79.305 E.21786
G1 X125.607 Y74.945 E.22022
G1 X119.97 Y70.89 E.21773
G1 X114.152 Y67.102 E.21768
G1 X108.162 Y63.583 E.21782
G1 X102.018 Y60.346 E.21775
G1 X95.731 Y57.396 E.21776
G1 X89.313 Y54.739 E.21777
G1 X82.78 Y52.381 E.21778
G1 X76.145 Y50.327 E.21778
G1 X69.422 Y48.582 E.21779
G1 X62.634 Y47.15 E.21752
G1 X55.77 Y46.031 E.21806
G1 X48.87 Y45.231 E.2178
G1 X41.949 Y44.751 E.21752
G1 X35.41 Y44.599 E.20507
G1 X35.41 Y38.16 E.2019
G1 X51.411 Y38.16 E.50171
M204 S1000
G1 X51.582 Y38.247 F10800
;WIPE_START
G1 F8640
G1 X51.602 Y38.108 E-.04554
G1 X51.66 Y37.971 E-.03425
G1 X51.66 Y35.026 E-.68021
;WIPE_END
G1 E-.04 F2100
G1 Z.6 F720
G1 X162.88 Y55.747 F10800
G1 Z.2 F720
G1 E.8 F2100
M204 S800
;TYPE:Solid infill
;WIDTH:0.421543
G1 F1200
G1 X171.251 Y64.118 E.37269
G1 X176.363 Y69.656 E.23726
G1 X176.99 Y70.392 E.03045
G1 X159.609 Y53.012 E.77383
G1 X155.998 Y49.936 E.14934
G1 X180.064 Y74.002 E1.07148
G1 X181.252 Y75.397 E.05769
G1 X182.451 Y76.925 E.06116
G1 X153.076 Y47.549 E1.30791
G1 X150.585 Y45.594 E.09968
G1 X184.407 Y79.416 E1.50585
G1 X185.907 Y81.327 E.0765
G1 X186.231 Y81.776 E.01743
G1 X148.224 Y43.768 E1.69222
G1 X146.295 Y42.375 E.0749
G1 X187.625 Y83.705 E1.84014
G1 X189.019 Y85.634 E.07493
G1 X144.367 Y40.982 E1.98806
G1 X142.457 Y39.608 E.07405
G1 X190.39 Y87.541 E2.13411
G1 X191.446 Y89.132 E.0601
G1 X140.868 Y38.554 E2.25189
G1 X139.278 Y37.499 E.06006
G1 X192.501 Y90.723 E2.36967
G1 X193.556 Y92.313 E.0601
G1 X137.688 Y36.445 E2.48745
G1 X136.121 Y35.413 E.05907
M73 P1 R125
G1 X194.584 Y93.877 E2.60298
G1 X195.411 Y95.239 E.05016
G1 X134.758 Y34.586 E2.70047
G1 X133.395 Y33.758 E.0502
G1 X196.237 Y96.601 E2.79796
G1 X197.064 Y97.963 E.05016
G1 X132.032 Y32.931 E2.89545
G1 X130.669 Y32.103 E.0502
M73 P2 R125
G1 X197.891 Y99.325 E2.99294
G1 X198.667 Y100.637 E.04799
G1 X129.365 Y31.335 E3.08552
G1 X128.166 Y30.671 E.04318
G1 X199.331 Y101.836 E3.1685
G1 X199.995 Y103.035 E.04315
G1 X126.966 Y30.007 E3.25147
G1 X125.766 Y29.342 E.04318
G1 X200.658 Y104.235 E3.33445
G1 X201.322 Y105.434 E.04315
G1 X124.566 Y28.678 E3.41742
G1 X123.366 Y28.013 E.04318
G1 X201.986 Y106.633 E3.5004
G1 X202.545 Y107.728 E.03869
G1 X122.273 Y27.455 E3.57398
G1 X121.196 Y26.914 E.03793
M73 P2 R124
G1 X203.086 Y108.804 E3.64599
G1 X203.627 Y109.88 E.03793
G1 X120.12 Y26.373 E3.71801
G1 X119.043 Y25.832 E.03793
G1 X204.168 Y110.957 E3.79002
G1 X204.709 Y112.033 E.03793
G1 X117.967 Y25.291 E3.86204
G1 X116.89 Y24.75 E.03793
G1 X205.25 Y113.11 E3.93406
G1 X205.734 Y114.129 E.03553
G1 X115.871 Y24.266 E4.00097
G1 X114.891 Y23.822 E.03387
M73 P3 R124
G1 X206.178 Y115.109 E4.06438
G1 X206.622 Y116.089 E.03387
G1 X113.911 Y23.378 E4.12778
G1 X112.932 Y22.933 E.03387
G1 X207.067 Y117.068 E4.19119
G1 X207.511 Y118.048 E.03387
G1 X111.952 Y22.489 E4.25459
G1 X110.972 Y22.045 E.03387
M73 P3 R123
G1 X207.955 Y119.028 E4.318
G1 X208.4 Y120.008 E.03387
G1 X109.992 Y21.6 E4.38141
G1 X109.058 Y21.201 E.03199
G1 X208.799 Y120.942 E4.4408
G1 X209.165 Y121.844 E.03064
G1 X108.156 Y20.835 E4.49725
G1 X107.254 Y20.469 E.03064
G1 X209.531 Y122.746 E4.5537
G1 X209.898 Y123.648 E.03064
G1 X106.353 Y20.102 E4.61015
G1 X105.451 Y19.736 E.03064
G1 X210.264 Y124.549 E4.66661
G1 X210.63 Y125.451 E.03064
M73 P4 R123
G1 X104.549 Y19.37 E4.72306
G1 X103.647 Y19.004 E.03064
M73 P4 R122
G1 X210.996 Y126.353 E4.77951
G1 X211.362 Y127.254 E.03064
G1 X102.746 Y18.637 E4.83596
G1 X101.897 Y18.324 E.02847
G1 X211.676 Y128.103 E4.88768
G1 X211.977 Y128.94 E.02801
G1 X101.06 Y18.023 E4.93838
G1 X100.223 Y17.721 E.02801
G1 X212.279 Y129.777 E4.98908
G1 X212.581 Y130.614 E.02801
G1 X99.386 Y17.419 E5.03978
G1 X98.549 Y17.118 E.02801
G1 X212.882 Y131.451 E5.09048
G1 X213.184 Y132.288 E.02801
G1 X97.712 Y16.816 E5.14118
G1 X96.875 Y16.515 E.02801
M73 P4 R121
G1 X213.486 Y133.125 E5.19188
G1 X213.787 Y133.962 E.02801
M73 P5 R121
G1 X96.038 Y16.213 E5.24258
G1 X95.641 Y16.07 E.01328
G1 X95.359 Y16.07 E.00887
G1 X213.93 Y134.641 E5.27916
G1 X213.93 Y135.176 E.01686
G1 X94.824 Y16.07 E5.303
G1 X94.288 Y16.07 E.01686
G1 X213.93 Y135.712 E5.32684
G1 X213.93 Y136.247 E.01686
G1 X93.753 Y16.07 E5.35068
G1 X93.217 Y16.07 E.01686
G1 X213.93 Y136.783 E5.37452
G1 X213.93 Y137.318 E.01686
M73 P5 R120
G1 X92.682 Y16.07 E5.39836
G1 X92.146 Y16.07 E.01686
G1 X213.93 Y137.854 E5.4222
G1 X213.93 Y138.389 E.01686
G1 X91.611 Y16.07 E5.44604
G1 X91.075 Y16.07 E.01686
M73 P6 R120
G1 X213.93 Y138.925 E5.46988
G1 X213.93 Y139.46 E.01686
G1 X90.54 Y16.07 E5.49372
G1 X90.005 Y16.07 E.01686
G1 X213.93 Y139.995 E5.51756
G1 X213.93 Y140.531 E.01686
G1 X89.469 Y16.07 E5.5414
G1 X88.934 Y16.07 E.01686
M73 P6 R119
G1 X213.93 Y141.066 E5.56524
G1 X213.93 Y141.602 E.01686
G1 X88.398 Y16.07 E5.58908
G1 X87.863 Y16.07 E.01686
G1 X213.93 Y142.137 E5.61292
G1 X213.93 Y142.673 E.01686
G1 X87.327 Y16.07 E5.63676
G1 X86.792 Y16.07 E.01686
G1 X213.93 Y143.208 E5.6606
G1 X213.93 Y143.744 E.01686
M73 P7 R119
G1 X86.256 Y16.07 E5.68444
G1 X85.721 Y16.07 E.01686
G1 X213.93 Y144.279 E5.70828
G1 X213.93 Y144.815 E.01686
M73 P7 R118
G1 X85.185 Y16.07 E5.73212
G1 X84.65 Y16.07 E.01686
G1 X213.93 Y145.35 E5.75596
G1 X213.93 Y145.885 E.01686
G1 X84.115 Y16.07 E5.7798
G1 X83.579 Y16.07 E.01686
G1 X213.93 Y146.421 E5.80364
G1 X213.93 Y146.956 E.01686
G1 X83.044 Y16.07 E5.82748
G1 X82.508 Y16.07 E.01686
G1 X213.93 Y147.492 E5.85132
G1 X213.93 Y148.027 E.01686
M73 P8 R117
G1 X81.973 Y16.07 E5.87516
G1 X81.437 Y16.07 E.01686
G1 X213.93 Y148.563 E5.899
G1 X213.93 Y149.098 E.01686
G1 X80.902 Y16.07 E5.92284
G1 X80.366 Y16.07 E.01686
G1 X213.93 Y149.634 E5.94668
G1 X213.93 Y150.169 E.01686
G1 X79.831 Y16.07 E5.97052
G1 X79.295 Y16.07 E.01686
G1 X213.93 Y150.705 E5.99436
G1 X213.93 Y151.24 E.01686
M73 P8 R116
G1 X78.76 Y16.07 E6.0182
G1 X78.225 Y16.07 E.01686
G1 X213.93 Y151.775 E6.04204
G1 X213.93 Y152.311 E.01686
M73 P9 R116
G1 X77.689 Y16.07 E6.06588
G1 X77.154 Y16.07 E.01686
G1 X213.93 Y152.846 E6.08972
G1 X213.93 Y153.382 E.01686
G1 X76.618 Y16.07 E6.11356
G1 X76.083 Y16.07 E.01686
G1 X213.93 Y153.917 E6.1374
G1 X213.93 Y154.453 E.01686
G1 X75.547 Y16.07 E6.16124
G1 X75.012 Y16.07 E.01686
M73 P9 R115
G1 X213.93 Y154.988 E6.18508
G1 X213.93 Y155.524 E.01686
G1 X74.476 Y16.07 E6.20892
G1 X73.941 Y16.07 E.01686
G1 X213.93 Y156.059 E6.23276
G1 X213.93 Y156.594 E.01686
M73 P10 R115
G1 X73.406 Y16.07 E6.2566
G1 X72.87 Y16.07 E.01686
G1 X213.93 Y157.13 E6.28044
G1 X213.93 Y157.665 E.01686
G1 X72.335 Y16.07 E6.30428
G1 X71.799 Y16.07 E.01686
M73 P10 R114
G1 X213.93 Y158.201 E6.32812
G1 X213.93 Y158.736 E.01686
G1 X71.264 Y16.07 E6.35196
G1 X70.728 Y16.07 E.01686
G1 X213.93 Y159.272 E6.3758
G1 X213.93 Y159.807 E.01686
G1 X70.193 Y16.07 E6.39964
G1 X69.657 Y16.07 E.01686
G1 X213.93 Y160.343 E6.42348
G1 X213.93 Y160.878 E.01686
M73 P11 R114
G1 X149.089 Y96.037 E2.88693
G1 X151.241 Y98.512 E.10326
M73 P11 R113
G1 X152.054 Y99.537 E.04119
G1 X213.93 Y161.414 E2.75493
G1 X213.93 Y161.949 E.01686
G1 X154.095 Y102.114 E2.66404
G1 X155.473 Y103.853 E.06984
G1 X155.921 Y104.476 E.02416
G1 X213.93 Y162.484 E2.58274
G1 X213.93 Y163.02 E.01686
G1 X157.3 Y106.39 E2.52134
G1 X158.679 Y108.305 E.07429
G1 X213.93 Y163.555 E2.45993
G1 X213.93 Y164.091 E.01686
G1 X159.95 Y110.11 E2.40338
G1 X160.949 Y111.645 E.05765
G1 X213.93 Y164.626 E2.3589
G1 X213.93 Y165.162 E.01686
G1 X161.948 Y113.18 E2.31441
G1 X162.947 Y114.714 E.05765
G1 X213.93 Y165.697 E2.26993
G1 X213.93 Y166.233 E.01686
G1 X163.834 Y116.136 E2.23046
G1 X164.594 Y117.432 E.04733
G1 X213.93 Y166.768 E2.19658
G1 X213.93 Y167.304 E.01686
G1 X165.355 Y118.729 E2.1627
G1 X166.116 Y120.025 E.04733
G1 X213.93 Y167.839 E2.12882
G1 X213.93 Y168.374 E.01686
G1 X166.877 Y121.322 E2.09494
G1 X167.505 Y122.485 E.04161
G1 X213.93 Y168.91 E2.06699
G1 X213.93 Y169.445 E.01686
M73 P11 R112
G1 X168.101 Y123.616 E2.04047
G1 X168.696 Y124.747 E.04025
G1 X213.93 Y169.981 E2.01395
G1 X213.93 Y170.516 E.01686
G1 X169.292 Y125.878 E1.98743
G1 X169.888 Y127.009 E.04025
M73 P12 R112
G1 X213.93 Y171.052 E1.96091
G1 X213.93 Y171.587 E.01686
G1 X170.434 Y128.091 E1.9366
G1 X170.907 Y129.1 E.03509
G1 X213.93 Y172.123 E1.91552
G1 X213.93 Y172.658 E.01686
G1 X171.38 Y130.108 E1.89444
G1 X171.854 Y131.117 E.03509
G1 X213.93 Y173.194 E1.87337
G1 X213.93 Y173.729 E.01686
G1 X172.327 Y132.126 E1.85229
G1 X172.801 Y133.135 E.03509
G1 X213.93 Y174.264 E1.83121
G1 X213.93 Y174.8 E.01686
G1 X173.261 Y134.13 E1.81074
G1 X173.639 Y135.044 E.03115
G1 X213.93 Y175.335 E1.79388
G1 X213.93 Y175.871 E.01686
G1 X174.018 Y135.958 E1.77703
G1 X174.396 Y136.872 E.03115
G1 X213.93 Y176.406 E1.76017
G1 X213.93 Y176.942 E.01686
G1 X174.775 Y137.787 E1.74331
G1 X175.153 Y138.701 E.03115
G1 X213.93 Y177.477 E1.72646
G1 X213.93 Y178.013 E.01686
G1 X175.532 Y139.615 E1.7096
G1 X175.902 Y140.52 E.03077
G1 X213.93 Y178.548 E1.69315
G1 X213.93 Y179.084 E.01686
G1 X176.204 Y141.358 E1.67968
G1 X176.507 Y142.196 E.02806
G1 X213.93 Y179.619 E1.6662
G1 X213.93 Y180.154 E.01686
